;FLAVOR:Marlin
;TIME:6423
;Filament used: 1.65421m
;Layer height: 0.12
;MINX:89.5
;MINY:89.5
;MINZ:0.12
;MAXX:130.5
;MAXY:130.5
;MAXZ:19.92
;Generated with Cura_SteamEngine 4.8.0
M140 S80
M105
M190 S80
M104 S230
M105
M109 S230
M82 ;absolute extrusion mode
; Ender 3 Custom Start G-code
G92 E0 ; Reset Extruder
G28 ; Home all axes
G1 Z2.0 F3000 ; Move Z Axis up little to prevent scratching of Heat Bed
G1 X0.1 Y20 Z0.3 F5000.0 ; Move to start position
G1 X0.1 Y200.0 Z0.3 F1500.0 E15 ; Draw the first line
G1 X0.4 Y200.0 Z0.3 F5000.0 ; Move to side a little
G1 X0.4 Y20 Z0.3 F1500.0 E30 ; Draw the second line
G92 E0 ; Reset Extruder
G1 Z2.0 F3000 ; Move Z Axis up little to prevent scratching of Heat Bed
G1 X5 Y20 Z0.3 F5000.0 ; Move over to prevent blob squish
G92 E0
G92 E0
G1 F2700 E-5
;LAYER_COUNT:166
;LAYER:0
M107
G0 F6000 X92.687 Y92.483 Z0.12
;TYPE:SKIRT
G1 F2700 E0
G1 F1200 X93.371 Y91.873 E0.00914
G1 X94.106 Y91.325 E0.01829
G1 X94.886 Y90.844 E0.02744
G1 X95.704 Y90.432 E0.03658
G1 X96.555 Y90.093 E0.04572
G1 X97.433 Y89.83 E0.05486
G1 X98.33 Y89.644 E0.064
G1 X99.24 Y89.537 E0.07314
G1 X99.715 Y89.513 E0.07789
G1 X100.036 Y89.504 E0.08109
G1 X100.33 Y89.5 E0.08403
G1 X119.293 Y89.5 E0.27324
G1 X120.141 Y89.511 E0.2817
G1 X121.056 Y89.564 E0.29085
G1 X121.963 Y89.697 E0.3
G1 X122.854 Y89.908 E0.30913
G1 X123.724 Y90.196 E0.31828
G1 X124.566 Y90.559 E0.32743
G1 X125.372 Y90.994 E0.33656
G1 X126.138 Y91.497 E0.34571
G1 X126.857 Y92.066 E0.35486
G1 X127.523 Y92.694 E0.36399
G1 X128.132 Y93.379 E0.37314
G1 X128.679 Y94.114 E0.38228
G1 X129.16 Y94.894 E0.39142
G1 X129.571 Y95.713 E0.40056
G1 X129.91 Y96.564 E0.40971
G1 X130.172 Y97.442 E0.41885
G1 X130.357 Y98.34 E0.428
G1 X130.463 Y99.25 E0.43714
G1 X130.487 Y99.715 E0.44178
G1 X130.496 Y100.035 E0.44498
G1 X130.5 Y100.33 E0.44792
G1 X130.499 Y119.394 E0.63814
G1 X130.49 Y120.121 E0.6454
G1 X130.439 Y121.036 E0.65454
G1 X130.308 Y121.943 E0.66369
G1 X130.099 Y122.835 E0.67283
G1 X129.812 Y123.705 E0.68197
G1 X129.451 Y124.547 E0.69111
G1 X129.018 Y125.355 E0.70026
G1 X128.516 Y126.121 E0.70939
G1 X127.949 Y126.841 E0.71854
G1 X127.321 Y127.509 E0.72769
G1 X126.638 Y128.119 E0.73682
G1 X125.904 Y128.668 E0.74597
G1 X125.125 Y129.15 E0.75511
G1 X124.307 Y129.563 E0.76425
G1 X123.456 Y129.903 E0.7734
G1 X122.579 Y130.167 E0.78254
G1 X121.682 Y130.354 E0.79168
G1 X120.772 Y130.462 E0.80082
G1 X120.285 Y130.487 E0.80569
G1 X119.964 Y130.496 E0.80889
G1 X119.67 Y130.5 E0.81183
G1 X100.572 Y130.499 E1.00239
G1 X99.874 Y130.49 E1.00935
G1 X98.959 Y130.438 E1.0185
G1 X98.052 Y130.307 E1.02764
G1 X97.16 Y130.097 E1.03679
G1 X96.29 Y129.81 E1.04593
G1 X95.448 Y129.449 E1.05507
G1 X94.641 Y129.015 E1.06421
G1 X93.874 Y128.513 E1.07336
G1 X93.155 Y127.945 E1.0825
G1 X92.487 Y127.317 E1.09165
G1 X91.877 Y126.634 E1.10079
G1 X91.329 Y125.9 E1.10993
G1 X90.847 Y125.12 E1.11907
G1 X90.435 Y124.302 E1.12821
G1 X90.095 Y123.451 E1.13736
G1 X89.832 Y122.573 E1.1465
G1 X89.645 Y121.676 E1.15564
G1 X89.538 Y120.766 E1.16479
G1 X89.513 Y120.275 E1.16969
G1 X89.504 Y119.942 E1.17302
G1 X89.5 Y119.658 E1.17585
G1 X89.501 Y100.532 E1.36669
G1 X89.51 Y99.867 E1.37333
G1 X89.562 Y98.952 E1.38247
G1 X89.694 Y98.045 E1.39162
G1 X89.905 Y97.154 E1.40075
G1 X90.192 Y96.284 E1.40989
G1 X90.554 Y95.442 E1.41904
G1 X90.989 Y94.635 E1.42819
G1 X91.491 Y93.869 E1.43733
G1 X92.059 Y93.15 E1.44647
G1 X92.687 Y92.483 E1.45561
G0 F6000 X92.883 Y92.572
G1 F1200 X93.565 Y91.973 E1.46467
G1 X94.298 Y91.437 E1.47373
G1 X95.074 Y90.968 E1.48277
G1 X95.889 Y90.569 E1.49183
G1 X96.736 Y90.243 E1.50088
G1 X97.609 Y89.993 E1.50995
G1 X98.5 Y89.82 E1.519
G1 X99.72 Y89.713 E1.53122
G1 X100.041 Y89.704 E1.53443
G1 X100.33 Y89.7 E1.53731
G1 X119.293 Y89.7 E1.72652
G1 X120.139 Y89.711 E1.73497
G1 X121.045 Y89.764 E1.74402
G1 X121.942 Y89.897 E1.75307
G1 X122.825 Y90.108 E1.76213
G1 X123.686 Y90.395 E1.77118
G1 X124.518 Y90.758 E1.78024
G1 X125.314 Y91.192 E1.78929
G1 X126.07 Y91.695 E1.79835
G1 X126.778 Y92.263 E1.80741
G1 X127.434 Y92.89 E1.81646
G1 X128.032 Y93.573 E1.82552
G1 X128.567 Y94.306 E1.83457
G1 X129.036 Y95.083 E1.84363
G1 X129.435 Y95.898 E1.85268
G1 X129.76 Y96.745 E1.86173
G1 X130.009 Y97.618 E1.87079
G1 X130.181 Y98.509 E1.87985
G1 X130.287 Y99.72 E1.89198
G1 X130.296 Y100.04 E1.89517
G1 X130.3 Y100.33 E1.89807
G1 X130.299 Y119.392 E2.08827
G1 X130.29 Y120.119 E2.09552
G1 X130.239 Y121.025 E2.10458
G1 X130.108 Y121.923 E2.11363
G1 X129.899 Y122.806 E2.12269
G1 X129.613 Y123.667 E2.13174
G1 X129.252 Y124.5 E2.1408
G1 X128.819 Y125.297 E2.14985
G1 X128.318 Y126.054 E2.1589
G1 X127.752 Y126.763 E2.16796
G1 X127.125 Y127.42 E2.17702
G1 X126.444 Y128.019 E2.18607
G1 X125.712 Y128.556 E2.19513
G1 X124.936 Y129.026 E2.20418
G1 X124.121 Y129.427 E2.21324
G1 X123.275 Y129.753 E2.22229
G1 X122.403 Y130.005 E2.23135
G1 X121.512 Y130.178 E2.2404
G1 X120.28 Y130.287 E2.25274
G1 X119.959 Y130.296 E2.25595
G1 X119.67 Y130.3 E2.25883
G1 X100.574 Y130.299 E2.44937
G1 X99.876 Y130.29 E2.45634
G1 X98.97 Y130.238 E2.46539
G1 X98.072 Y130.107 E2.47445
G1 X97.189 Y129.898 E2.4835
G1 X96.328 Y129.611 E2.49256
G1 X95.496 Y129.249 E2.50161
G1 X94.698 Y128.816 E2.51067
G1 X93.942 Y128.315 E2.51972
G1 X93.233 Y127.748 E2.52878
G1 X92.576 Y127.122 E2.53783
G1 X91.978 Y126.44 E2.54688
G1 X91.441 Y125.708 E2.55594
G1 X90.971 Y124.931 E2.565
G1 X90.571 Y124.117 E2.57405
G1 X90.245 Y123.27 E2.58311
G1 X89.994 Y122.398 E2.59216
G1 X89.821 Y121.507 E2.60122
G1 X89.713 Y120.269 E2.61362
G1 X89.704 Y119.936 E2.61694
G1 X89.7 Y119.658 E2.61972
G1 X89.701 Y100.535 E2.81053
G1 X89.71 Y99.87 E2.81716
G1 X89.762 Y98.964 E2.82622
G1 X89.894 Y98.066 E2.83527
G1 X90.104 Y97.183 E2.84433
G1 X90.392 Y96.322 E2.85339
G1 X90.753 Y95.49 E2.86244
G1 X91.187 Y94.693 E2.87149
G1 X91.689 Y93.937 E2.88055
G1 X92.256 Y93.228 E2.88961
G1 X92.883 Y92.572 E2.89866
G0 F6000 X93.079 Y92.662
G1 F1200 X93.759 Y92.075 E2.90763
G1 X94.489 Y91.551 E2.91659
G1 X95.263 Y91.094 E2.92556
G1 X96.074 Y90.707 E2.93453
G1 X96.917 Y90.394 E2.9435
G1 X97.783 Y90.157 E2.95246
G1 X98.668 Y89.998 E2.96143
G1 X99.726 Y89.913 E2.97202
G1 X100.047 Y89.904 E2.97523
G1 X100.33 Y89.9 E2.97805
G1 X119.293 Y89.9 E3.16726
G1 X120.136 Y89.911 E3.17567
G1 X121.033 Y89.964 E3.18464
G1 X121.922 Y90.096 E3.19361
G1 X122.795 Y90.307 E3.20257
G1 X123.647 Y90.595 E3.21154
G1 X124.469 Y90.957 E3.22051
G1 X125.256 Y91.391 E3.22947
G1 X126.001 Y91.893 E3.23844
G1 X126.699 Y92.459 E3.2474
G1 X127.344 Y93.086 E3.25638
G1 X127.93 Y93.767 E3.26534
G1 X128.454 Y94.497 E3.27431
G1 X128.91 Y95.271 E3.28327
G1 X129.296 Y96.083 E3.29225
G1 X129.608 Y96.925 E3.3012
G1 X129.845 Y97.792 E3.31017
G1 X130.003 Y98.677 E3.31914
G1 X130.087 Y99.726 E3.32964
G1 X130.096 Y100.046 E3.33284
G1 X130.1 Y100.33 E3.33567
G1 X130.099 Y119.389 E3.52584
G1 X130.09 Y120.116 E3.5331
G1 X130.039 Y121.013 E3.54206
G1 X129.908 Y121.902 E3.55103
G1 X129.699 Y122.776 E3.56
G1 X129.413 Y123.628 E3.56896
G1 X129.053 Y124.451 E3.57793
G1 X128.62 Y125.239 E3.5869
G1 X128.12 Y125.986 E3.59587
G1 X127.555 Y126.684 E3.60483
G1 X126.93 Y127.33 E3.6138
G1 X126.25 Y127.918 E3.62277
G1 X125.521 Y128.443 E3.63173
G1 X124.747 Y128.901 E3.6407
G1 X123.937 Y129.288 E3.64966
G1 X123.095 Y129.602 E3.65863
G1 X122.228 Y129.84 E3.6676
G1 X121.344 Y130 E3.67656
G1 X120.274 Y130.087 E3.68727
G1 X119.953 Y130.096 E3.69048
G1 X119.67 Y130.1 E3.6933
G1 X100.577 Y130.099 E3.88381
G1 X99.879 Y130.09 E3.89078
G1 X98.982 Y130.039 E3.89974
G1 X98.093 Y129.908 E3.90871
G1 X97.219 Y129.698 E3.91768
G1 X96.367 Y129.411 E3.92665
G1 X95.544 Y129.05 E3.93562
G1 X94.756 Y128.618 E3.94458
G1 X94.01 Y128.117 E3.95355
G1 X93.312 Y127.551 E3.96252
G1 X92.666 Y126.926 E3.97149
G1 X92.079 Y126.246 E3.98045
G1 X91.554 Y125.516 E3.98942
G1 X91.097 Y124.743 E3.99838
G1 X90.71 Y123.932 E4.00735
G1 X90.396 Y123.09 E4.01631
G1 X90.159 Y122.223 E4.02528
G1 X89.999 Y121.338 E4.03426
G1 X89.913 Y120.264 E4.04501
G1 X89.904 Y119.931 E4.04833
G1 X89.9 Y119.658 E4.05106
G1 X89.901 Y100.537 E4.24185
G1 X89.91 Y99.872 E4.24848
G1 X89.962 Y98.975 E4.25745
G1 X90.094 Y98.086 E4.26641
G1 X90.304 Y97.212 E4.27538
G1 X90.591 Y96.361 E4.28434
G1 X90.952 Y95.538 E4.29331
G1 X91.386 Y94.751 E4.30228
G1 X91.887 Y94.005 E4.31125
G1 X92.453 Y93.307 E4.32021
G1 X93.079 Y92.662 E4.32918
G1 F2700 E-0.67082
;MESH:xyzCalibration_cube.stl
G0 F6000 X99.559 Y99.56
G0 X100.214 Y100.214
G0 X118.818 Y101.182
G0 X118.9 Y118.9
;TYPE:WALL-INNER
G1 F2700 E4.32918
G1 F1200 X101.1 Y118.9 E4.50679
G1 X101.1 Y101.1 E4.6844
G1 X118.9 Y101.1 E4.86201
G1 X118.9 Y118.9 E5.03962
G0 F6000 X119.1 Y119.1
G1 F1200 X100.9 Y119.1 E5.22122
G1 X100.9 Y100.9 E5.40282
G1 X119.1 Y100.9 E5.58442
G1 X119.1 Y119.1 E5.76602
G0 F6000 X119.3 Y119.3
G1 F1200 X100.7 Y119.3 E5.95161
G1 X100.7 Y100.7 E6.1372
G1 X119.3 Y100.7 E6.32279
G1 X119.3 Y119.3 E6.50839
G0 F6000 X119.5 Y119.5
G1 F1200 X100.5 Y119.5 E6.69797
G1 X100.5 Y100.5 E6.88755
G1 X119.5 Y100.5 E7.07713
G1 X119.5 Y119.5 E7.26672
G0 F6000 X119.7 Y119.7
G1 F1200 X100.3 Y119.7 E7.46029
G1 X100.3 Y100.3 E7.65386
G1 X119.7 Y100.3 E7.84744
G1 X119.7 Y119.7 E8.04101
G0 F6000 X119.9 Y119.9
;TYPE:WALL-OUTER
G1 F1200 X100.1 Y119.9 E8.23858
G1 X100.1 Y100.1 E8.43614
G1 X119.9 Y100.1 E8.63371
G1 X119.9 Y119.9 E8.83127
G0 F6000 X119.73 Y119.73
G0 X118.89 Y118.71
G0 X118.71 Y118.71
;TYPE:SKIN
G1 F1200 X101.29 Y118.71 E9.00509
G1 X101.29 Y101.29 E9.17891
G1 X118.71 Y101.29 E9.35273
G1 X118.71 Y118.71 E9.52654
G0 F6000 X118.89 Y118.71
G0 X118.89 Y101.659
G0 X118.629 Y101.659
G1 F1200 X118.34 Y101.37 E9.53062
G0 F6000 X118.057 Y101.37
G1 F1200 X118.629 Y101.942 E9.53869
G0 F6000 X118.629 Y102.225
G1 F1200 X117.774 Y101.37 E9.55076
G0 F6000 X117.492 Y101.37
G1 F1200 X118.629 Y102.507 E9.5668
G0 F6000 X118.629 Y102.79
G1 F1200 X117.209 Y101.37 E9.58684
G0 F6000 X116.926 Y101.37
G1 F1200 X118.629 Y103.073 E9.61087
G0 F6000 X118.629 Y103.356
G1 F1200 X116.643 Y101.37 E9.6389
G0 F6000 X116.36 Y101.37
G1 F1200 X118.629 Y103.639 E9.67091
G0 F6000 X118.629 Y103.922
G1 F1200 X116.077 Y101.37 E9.70693
G0 F6000 X115.795 Y101.37
G1 F1200 X118.629 Y104.204 E9.74692
G0 F6000 X118.629 Y104.487
G1 F1200 X115.512 Y101.37 E9.7909
G0 F6000 X115.229 Y101.37
G1 F1200 X118.629 Y104.77 E9.83888
G0 F6000 X118.629 Y105.053
G1 F1200 X114.946 Y101.37 E9.89085
G0 F6000 X114.663 Y101.37
G1 F1200 X118.629 Y105.336 E9.94681
G0 F6000 X118.629 Y105.619
G1 F1200 X114.38 Y101.37 E10.00677
G0 F6000 X114.098 Y101.37
G1 F1200 X118.629 Y105.901 E10.07071
G0 F6000 X118.629 Y106.184
G1 F1200 X113.815 Y101.37 E10.13864
G0 F6000 X113.532 Y101.37
G1 F1200 X118.629 Y106.467 E10.21056
G0 F6000 X118.629 Y106.75
G1 F1200 X113.249 Y101.37 E10.28648
G0 F6000 X112.966 Y101.37
G1 F1200 X118.629 Y107.033 E10.36639
G0 F6000 X118.629 Y107.316
G1 F1200 X112.683 Y101.37 E10.4503
G0 F6000 X112.4 Y101.37
G1 F1200 X118.629 Y107.599 E10.53819
G0 F6000 X118.629 Y107.881
G1 F1200 X112.118 Y101.37 E10.63007
G0 F6000 X111.835 Y101.37
G1 F1200 X118.629 Y108.164 E10.72594
G0 F6000 X118.629 Y108.447
G1 F1200 X111.552 Y101.37 E10.82581
G0 F6000 X111.269 Y101.37
G1 F1200 X118.629 Y108.73 E10.92966
G0 F6000 X118.629 Y109.013
G1 F1200 X110.986 Y101.37 E11.03752
G0 F6000 X110.703 Y101.37
G1 F1200 X118.629 Y109.296 E11.14936
G0 F6000 X118.629 Y109.578
G1 F1200 X110.421 Y101.37 E11.26518
G0 F6000 X110.138 Y101.37
G1 F1200 X118.629 Y109.861 E11.385
G0 F6000 X118.629 Y110.144
G1 F1200 X109.855 Y101.37 E11.50881
G0 F6000 X109.572 Y101.37
G1 F1200 X118.629 Y110.427 E11.63662
G0 F6000 X118.629 Y110.71
G1 F1200 X109.289 Y101.37 E11.76841
G0 F6000 X109.006 Y101.37
G1 F1200 X118.629 Y110.993 E11.9042
G0 F6000 X118.629 Y111.275
G1 F1200 X108.724 Y101.37 E12.04397
G0 F6000 X108.441 Y101.37
G1 F1200 X118.629 Y111.558 E12.18774
G0 F6000 X118.629 Y111.841
G1 F1200 X108.158 Y101.37 E12.33549
G0 F6000 X107.875 Y101.37
G1 F1200 X118.629 Y112.124 E12.48725
G0 F6000 X118.629 Y112.407
G1 F1200 X107.592 Y101.37 E12.64299
G0 F6000 X107.309 Y101.37
G1 F1200 X118.629 Y112.69 E12.80273
G0 F6000 X118.629 Y112.973
G1 F1200 X107.026 Y101.37 E12.96646
G0 F6000 X106.744 Y101.37
G1 F1200 X118.629 Y113.255 E13.13417
G0 F6000 X118.629 Y113.538
G1 F1200 X106.461 Y101.37 E13.30587
G0 F6000 X106.178 Y101.37
G1 F1200 X118.629 Y113.821 E13.48157
G0 F6000 X118.629 Y114.104
G1 F1200 X105.895 Y101.37 E13.66126
G0 F6000 X105.612 Y101.37
G1 F1200 X118.629 Y114.387 E13.84494
G0 F6000 X118.629 Y114.67
G1 F1200 X105.329 Y101.37 E14.03262
G0 F6000 X105.047 Y101.37
G1 F1200 X118.629 Y114.952 E14.22428
G0 F6000 X118.629 Y115.235
G1 F1200 X104.764 Y101.37 E14.41993
G0 F6000 X104.481 Y101.37
G1 F1200 X118.629 Y115.518 E14.61957
G0 F6000 X118.629 Y115.801
G1 F1200 X104.198 Y101.37 E14.82321
G0 F6000 X103.915 Y101.37
G1 F1200 X118.629 Y116.084 E15.03084
G0 F6000 X118.629 Y116.367
G1 F1200 X103.632 Y101.37 E15.24246
G0 F6000 X103.35 Y101.37
G1 F1200 X118.629 Y116.649 E15.45807
G0 F6000 X118.629 Y116.932
G1 F1200 X103.067 Y101.37 E15.67766
G0 F6000 X102.784 Y101.37
G1 F1200 X118.629 Y117.215 E15.90125
G0 F6000 X118.629 Y117.498
G1 F1200 X102.501 Y101.37 E16.12884
G0 F6000 X102.218 Y101.37
G1 F1200 X118.629 Y117.781 E16.36041
G0 F6000 X118.629 Y118.064
G1 F1200 X101.935 Y101.37 E16.59598
G0 F6000 X101.652 Y101.37
G1 F1200 X118.629 Y118.347 E16.83555
G0 F6000 X118.629 Y118.629
G1 F1200 X101.369 Y101.369 E17.0791
G0 F6000 X101.369 Y101.652
G1 F1200 X118.346 Y118.629 E17.31867
G0 F6000 X118.063 Y118.629
G1 F1200 X101.369 Y101.935 E17.55424
G0 F6000 X101.369 Y102.217
G1 F1200 X117.78 Y118.629 E17.78582
G0 F6000 X117.497 Y118.629
G1 F1200 X101.369 Y102.5 E18.01341
G0 F6000 X101.369 Y102.783
G1 F1200 X117.214 Y118.629 E18.23701
G0 F6000 X116.932 Y118.629
G1 F1200 X101.369 Y103.066 E18.45662
G0 F6000 X101.369 Y103.349
G1 F1200 X116.649 Y118.629 E18.67224
G0 F6000 X116.366 Y118.629
G1 F1200 X101.369 Y103.632 E18.88386
G0 F6000 X101.369 Y103.914
G1 F1200 X116.083 Y118.629 E19.0915
G0 F6000 X115.8 Y118.629
G1 F1200 X101.369 Y104.197 E19.29514
G0 F6000 X101.369 Y104.48
G1 F1200 X115.517 Y118.629 E19.49479
G0 F6000 X115.235 Y118.629
G1 F1200 X101.369 Y104.763 E19.69046
G0 F6000 X101.369 Y105.046
G1 F1200 X114.952 Y118.629 E19.88213
G0 F6000 X114.669 Y118.629
G1 F1200 X101.369 Y105.329 E20.06981
G0 F6000 X101.369 Y105.612
G1 F1200 X114.386 Y118.629 E20.25349
G0 F6000 X114.103 Y118.629
G1 F1200 X101.369 Y105.894 E20.43319
G0 F6000 X101.369 Y106.177
G1 F1200 X113.82 Y118.629 E20.60889
G0 F6000 X113.538 Y118.629
G1 F1200 X101.369 Y106.46 E20.78061
G0 F6000 X101.369 Y106.743
G1 F1200 X113.255 Y118.629 E20.94833
G0 F6000 X112.972 Y118.629
G1 F1200 X101.369 Y107.026 E21.11206
G0 F6000 X101.369 Y107.309
G1 F1200 X112.689 Y118.629 E21.2718
G0 F6000 X112.406 Y118.629
G1 F1200 X101.369 Y107.591 E21.42755
G0 F6000 X101.369 Y107.874
G1 F1200 X112.123 Y118.629 E21.57931
G0 F6000 X111.84 Y118.629
G1 F1200 X101.369 Y108.157 E21.72707
G0 F6000 X101.369 Y108.44
G1 F1200 X111.558 Y118.629 E21.87085
G0 F6000 X111.275 Y118.629
G1 F1200 X101.369 Y108.723 E22.01064
G0 F6000 X101.369 Y109.006
G1 F1200 X110.992 Y118.629 E22.14643
G0 F6000 X110.709 Y118.629
G1 F1200 X101.369 Y109.289 E22.27823
G0 F6000 X101.369 Y109.571
G1 F1200 X110.426 Y118.629 E22.40604
G0 F6000 X110.143 Y118.629
G1 F1200 X101.369 Y109.854 E22.52985
G0 F6000 X101.369 Y110.137
G1 F1200 X109.861 Y118.629 E22.64969
G0 F6000 X109.578 Y118.629
G1 F1200 X101.369 Y110.42 E22.76552
G0 F6000 X101.369 Y110.703
G1 F1200 X109.295 Y118.629 E22.87737
G0 F6000 X109.012 Y118.629
G1 F1200 X101.369 Y110.986 E22.98522
G0 F6000 X101.369 Y111.268
G1 F1200 X108.729 Y118.629 E23.08908
G0 F6000 X108.446 Y118.629
G1 F1200 X101.369 Y111.551 E23.18895
G0 F6000 X101.369 Y111.834
G1 F1200 X108.164 Y118.629 E23.28484
G0 F6000 X107.881 Y118.629
G1 F1200 X101.369 Y112.117 E23.37673
G0 F6000 X101.369 Y112.4
G1 F1200 X107.598 Y118.629 E23.46463
G0 F6000 X107.315 Y118.629
G1 F1200 X101.369 Y112.683 E23.54853
G0 F6000 X101.369 Y112.965
G1 F1200 X107.032 Y118.629 E23.62845
G0 F6000 X106.749 Y118.629
G1 F1200 X101.369 Y113.248 E23.70438
G0 F6000 X101.369 Y113.531
G1 F1200 X106.466 Y118.629 E23.77631
