;FLAVOR:Marlin
;TIME:1863
;Filament used: 1.35446m
;Layer height: 0.2
;MINX:104.318
;MINY:105.243
;MINZ:0.2
;MAXX:146.318
;MAXY:147.243
;MAXZ:20
;Generated with Cura_SteamEngine 4.8.0
M140 S80
M105
M190 S80
M104 S220
M105
M109 S220
M82 ;absolute extrusion mode
; Ender 3 Custom Start G-code
G92 E0 ; Reset Extruder
G28 ; Home all axes
G1 Z2.0 F3000 ; Move Z Axis up little to prevent scratching of Heat Bed
G1 X0.1 Y20 Z0.3 F5000.0 ; Move to start position
G1 X0.1 Y200.0 Z0.3 F1500.0 E15 ; Draw the first line
G1 X0.4 Y200.0 Z0.3 F5000.0 ; Move to side a little
G1 X0.4 Y20 Z0.3 F1500.0 E30 ; Draw the second line
G92 E0 ; Reset Extruder
G1 Z2.0 F3000 ; Move Z Axis up little to prevent scratching of Heat Bed
G1 X5 Y20 Z0.3 F5000.0 ; Move over to prevent blob squish
G92 E0
G92 E0
G1 F2700 E-5
;LAYER_COUNT:100
;LAYER:0
M107
G0 F6000 X107.516 Y108.507 Z0.2
;TYPE:SKIRT
G1 F2700 E0
G1 F1200 X108.204 Y107.87 E0.03119
G1 X108.944 Y107.294 E0.06237
G1 X109.73 Y106.782 E0.09357
G1 X110.557 Y106.34 E0.12476
G1 X111.419 Y105.97 E0.15596
G1 X112.309 Y105.674 E0.18716
G1 X113.221 Y105.456 E0.21835
G1 X114.148 Y105.315 E0.24953
G1 X115.019 Y105.256 E0.27857
G1 X115.34 Y105.247 E0.28925
G1 X115.648 Y105.243 E0.29949
G1 X134.611 Y105.243 E0.93021
G1 X135.467 Y105.254 E0.95868
G1 X136.403 Y105.308 E0.98986
G1 X137.331 Y105.44 E1.02104
G1 X138.245 Y105.652 E1.05225
G1 X139.137 Y105.941 E1.08343
G1 X140.002 Y106.304 E1.11463
G1 X140.832 Y106.74 E1.14582
G1 X141.623 Y107.245 E1.17703
G1 X142.367 Y107.816 E1.20822
G1 X143.06 Y108.448 E1.23942
G1 X143.697 Y109.136 E1.2706
G1 X144.272 Y109.877 E1.3018
G1 X144.783 Y110.663 E1.33298
G1 X145.225 Y111.491 E1.3642
G1 X145.594 Y112.353 E1.39538
G1 X145.889 Y113.243 E1.42657
G1 X146.107 Y114.155 E1.45776
G1 X146.247 Y115.083 E1.48897
G1 X146.305 Y115.944 E1.51767
G1 X146.314 Y116.264 E1.52832
G1 X146.318 Y116.573 E1.5386
G1 X146.317 Y135.643 E2.17287
G1 X146.308 Y136.37 E2.19705
G1 X146.257 Y137.307 E2.22826
G1 X146.125 Y138.235 E2.25944
G1 X145.916 Y139.149 E2.29062
G1 X145.629 Y140.042 E2.32182
G1 X145.267 Y140.908 E2.35304
G1 X144.833 Y141.739 E2.38422
G1 X144.329 Y142.53 E2.41542
G1 X143.76 Y143.275 E2.4466
G1 X143.129 Y143.97 E2.47782
G1 X142.442 Y144.608 E2.509
G1 X141.703 Y145.185 E2.54018
G1 X140.917 Y145.697 E2.57138
G1 X140.091 Y146.14 E2.60256
G1 X139.229 Y146.512 E2.63378
G1 X138.34 Y146.808 E2.66495
G1 X137.428 Y147.028 E2.69615
G1 X136.501 Y147.169 E2.72734
G1 X135.617 Y147.23 E2.75681
G1 X135.296 Y147.239 E2.76749
G1 X134.988 Y147.243 E2.77774
G1 X115.883 Y147.242 E3.41317
G1 X115.185 Y147.233 E3.43639
G1 X114.249 Y147.181 E3.46757
G1 X113.32 Y147.049 E3.49878
G1 X112.406 Y146.839 E3.52997
G1 X111.513 Y146.552 E3.56117
G1 X110.648 Y146.189 E3.59237
G1 X109.817 Y145.755 E3.62355
G1 X109.026 Y145.251 E3.65474
G1 X108.281 Y144.681 E3.68594
G1 X107.587 Y144.05 E3.71714
G1 X106.95 Y143.363 E3.7483
G1 X106.373 Y142.623 E3.77951
G1 X105.861 Y141.837 E3.81071
G1 X105.418 Y141.01 E3.84192
G1 X105.047 Y140.149 E3.8731
G1 X104.751 Y139.259 E3.90429
G1 X104.532 Y138.347 E3.93549
G1 X104.391 Y137.42 E3.96668
G1 X104.331 Y136.531 E3.99631
G1 X104.322 Y136.198 E4.00739
G1 X104.318 Y135.901 E4.01727
G1 X104.319 Y116.768 E4.65364
G1 X104.328 Y116.103 E4.67576
G1 X104.381 Y115.167 E4.70694
G1 X104.513 Y114.238 E4.73815
G1 X104.724 Y113.324 E4.76935
G1 X105.012 Y112.432 E4.80052
G1 X105.375 Y111.567 E4.83172
G1 X105.81 Y110.736 E4.86292
G1 X106.314 Y109.946 E4.89409
G1 X106.884 Y109.201 E4.92529
G1 X107.516 Y108.507 E4.95651
G0 F6000 X107.907 Y108.682
G1 F1200 X108.592 Y108.066 E4.98715
G1 X109.328 Y107.513 E5.01777
G1 X110.109 Y107.025 E5.0484
G1 X110.929 Y106.607 E5.07901
G1 X111.783 Y106.262 E5.10964
G1 X112.663 Y105.992 E5.14026
G1 X113.563 Y105.8 E5.17087
G1 X114.477 Y105.686 E5.2015
G1 X115.03 Y105.656 E5.21992
G1 X115.351 Y105.647 E5.2306
G1 X115.648 Y105.643 E5.24048
G1 X134.611 Y105.643 E5.87119
G1 X135.461 Y105.654 E5.89947
G1 X136.38 Y105.707 E5.93008
G1 X137.291 Y105.84 E5.9607
G1 X138.187 Y106.051 E5.99132
G1 X139.061 Y106.339 E6.02193
G1 X139.908 Y106.702 E6.05258
G1 X140.719 Y107.137 E6.08319
G1 X141.489 Y107.641 E6.1138
G1 X142.213 Y108.21 E6.14442
G1 X142.885 Y108.84 E6.17506
G1 X143.5 Y109.525 E6.20568
G1 X144.053 Y110.261 E6.2363
G1 X144.54 Y111.042 E6.26691
G1 X144.957 Y111.863 E6.29754
G1 X145.302 Y112.717 E6.32817
G1 X145.571 Y113.597 E6.35878
G1 X145.763 Y114.498 E6.38942
G1 X145.876 Y115.411 E6.42001
G1 X145.905 Y115.955 E6.43813
G1 X145.914 Y116.275 E6.44878
G1 X145.918 Y116.573 E6.45869
G1 X145.917 Y135.638 E7.0928
G1 X145.908 Y136.365 E7.11698
G1 X145.857 Y137.284 E7.14759
G1 X145.726 Y138.196 E7.17824
G1 X145.516 Y139.092 E7.20885
G1 X145.23 Y139.967 E7.23946
G1 X144.869 Y140.814 E7.27009
G1 X144.435 Y141.626 E7.30071
G1 X143.933 Y142.398 E7.33134
G1 X143.365 Y143.123 E7.36197
G1 X142.737 Y143.796 E7.39259
G1 X142.053 Y144.412 E7.4232
G1 X141.318 Y144.966 E7.45382
G1 X140.538 Y145.455 E7.48444
G1 X139.718 Y145.874 E7.51506
G1 X138.865 Y146.22 E7.54568
G1 X137.985 Y146.491 E7.5763
G1 X137.085 Y146.684 E7.60692
G1 X136.171 Y146.799 E7.63756
G1 X135.606 Y146.83 E7.65638
G1 X135.285 Y146.839 E7.66706
G1 X134.988 Y146.843 E7.67694
G1 X115.888 Y146.842 E8.31221
G1 X115.19 Y146.833 E8.33542
G1 X114.271 Y146.781 E8.36604
G1 X113.36 Y146.65 E8.39665
G1 X112.464 Y146.44 E8.42726
G1 X111.589 Y146.153 E8.45789
G1 X110.742 Y145.791 E8.48852
G1 X109.93 Y145.357 E8.51915
G1 X109.159 Y144.855 E8.54975
G1 X108.434 Y144.287 E8.58038
G1 X107.761 Y143.658 E8.61102
G1 X107.146 Y142.974 E8.64161
G1 X106.592 Y142.239 E8.67222
G1 X106.104 Y141.458 E8.70285
G1 X105.685 Y140.638 E8.73348
G1 X105.339 Y139.785 E8.7641
G1 X105.069 Y138.905 E8.79471
G1 X104.876 Y138.004 E8.82536
G1 X104.762 Y137.091 E8.85596
G1 X104.731 Y136.52 E8.87498
G1 X104.722 Y136.187 E8.88606
G1 X104.718 Y135.901 E8.89558
G1 X104.719 Y116.774 E9.53174
G1 X104.728 Y116.109 E9.55386
G1 X104.78 Y115.189 E9.58451
G1 X104.912 Y114.278 E9.61513
G1 X105.123 Y113.382 E9.64574
G1 X105.41 Y112.507 E9.67637
G1 X105.773 Y111.661 E9.70699
G1 X106.207 Y110.849 E9.73761
G1 X106.71 Y110.078 E9.76823
G1 X107.279 Y109.354 E9.79886
G1 X107.907 Y108.682 E9.82945
G0 F6000 X108.299 Y108.86
G1 F1200 X108.98 Y108.267 E9.85948
G1 X109.712 Y107.737 E9.88954
G1 X110.487 Y107.274 E9.91957
G1 X111.3 Y106.881 E9.9496
G1 X112.145 Y106.561 E9.97966
G1 X113.014 Y106.318 E10.00967
G1 X113.902 Y106.152 E10.03971
G1 X115.041 Y106.056 E10.07773
G1 X115.362 Y106.047 E10.08841
G1 X115.648 Y106.043 E10.09793
G1 X134.611 Y106.043 E10.72864
G1 X135.455 Y106.054 E10.75671
G1 X136.357 Y106.107 E10.78676
G1 X137.25 Y106.239 E10.81679
G1 X138.128 Y106.45 E10.84682
G1 X138.984 Y106.738 E10.87686
G1 X139.811 Y107.1 E10.90689
G1 X140.603 Y107.535 E10.93694
G1 X141.354 Y108.037 E10.96698
G1 X142.057 Y108.604 E10.99702
G1 X142.707 Y109.231 E11.02706
G1 X143.299 Y109.913 E11.0571
G1 X143.829 Y110.644 E11.08713
G1 X144.291 Y111.42 E11.11717
G1 X144.684 Y112.233 E11.1472
G1 X145.002 Y113.078 E11.17723
G1 X145.245 Y113.948 E11.20728
G1 X145.41 Y114.836 E11.23732
G1 X145.505 Y115.966 E11.27503
G1 X145.514 Y116.286 E11.28568
G1 X145.518 Y116.573 E11.29523
G1 X145.517 Y135.633 E11.92916
G1 X145.508 Y136.36 E11.95335
G1 X145.457 Y137.262 E11.9834
G1 X145.326 Y138.156 E12.01345
G1 X145.117 Y139.034 E12.04347
G1 X144.831 Y139.891 E12.07351
G1 X144.47 Y140.719 E12.10356
G1 X144.038 Y141.511 E12.13356
G1 X143.537 Y142.263 E12.16362
G1 X142.971 Y142.967 E12.19366
G1 X142.346 Y143.618 E12.22368
G1 X141.665 Y144.212 E12.25373
G1 X140.934 Y144.743 E12.28378
G1 X140.16 Y145.207 E12.3138
G1 X139.347 Y145.601 E12.34385
G1 X138.503 Y145.921 E12.37387
G1 X137.633 Y146.166 E12.40393
G1 X136.746 Y146.332 E12.43394
G1 X135.595 Y146.43 E12.47237
G1 X135.274 Y146.439 E12.48305
G1 X134.988 Y146.443 E12.49256
G1 X115.893 Y146.442 E13.12766
G1 X115.195 Y146.433 E13.15088
G1 X114.294 Y146.382 E13.1809
G1 X113.4 Y146.25 E13.21095
G1 X112.522 Y146.041 E13.24097
G1 X111.665 Y145.754 E13.27103
G1 X110.838 Y145.393 E13.30104
G1 X110.045 Y144.96 E13.33109
G1 X109.294 Y144.459 E13.36112
G1 X108.59 Y143.893 E13.39116
G1 X107.939 Y143.267 E13.4212
G1 X107.346 Y142.586 E13.45124
G1 X106.816 Y141.855 E13.48127
G1 X106.352 Y141.08 E13.51131
G1 X105.958 Y140.267 E13.54136
G1 X105.638 Y139.423 E13.57138
G1 X105.394 Y138.553 E13.60143
G1 X105.228 Y137.665 E13.63148
G1 X105.131 Y136.51 E13.67003
G1 X105.122 Y136.177 E13.68111
G1 X105.118 Y135.901 E13.69029
G1 X105.119 Y116.779 E14.32629
G1 X105.128 Y116.114 E14.34841
G1 X105.18 Y115.212 E14.37846
G1 X105.312 Y114.319 E14.40849
G1 X105.522 Y113.441 E14.43851
G1 X105.809 Y112.584 E14.46857
G1 X106.171 Y111.757 E14.4986
G1 X106.604 Y110.965 E14.52862
G1 X107.106 Y110.214 E14.55867
G1 X107.673 Y109.51 E14.58873
G1 X108.299 Y108.86 E14.61875
G1 F2700 E9.61875
;MESH:xyzCalibration_cube.stl
G0 F6000 X115.732 Y115.578
G0 X115.732 Y116.657
G0 X115.918 Y135.643
;TYPE:WALL-INNER
G1 F2700 E14.61875
G1 F1200 X115.918 Y116.843 E15.24404
G1 X134.718 Y116.843 E15.86933
G1 X134.718 Y135.643 E16.49462
G1 X115.918 Y135.643 E17.11991
G0 F6000 X115.518 Y136.043
;TYPE:WALL-OUTER
G1 F1200 X115.518 Y116.443 E17.77181
G1 X135.118 Y116.443 E18.42371
G1 X135.118 Y136.043 E19.0756
G1 X115.518 Y136.043 E19.7275
G0 F6000 X115.788 Y135.773
G0 X116.028 Y135.253
G0 X116.308 Y135.253
;TYPE:SKIN
G1 F1200 X116.308 Y117.233 E20.32685
G1 X134.328 Y117.233 E20.9262
G1 X134.328 Y135.253 E21.52555
G1 X116.308 Y135.253 E22.12489
G0 F6000 X116.99 Y135.092
G1 F1200 X116.467 Y134.569 E22.14949
G0 F6000 X116.467 Y134.003
G1 F1200 X117.555 Y135.092 E22.20069
G0 F6000 X118.121 Y135.092
G1 F1200 X116.467 Y133.438 E22.27849
G0 F6000 X116.467 Y132.872
G1 F1200 X118.687 Y135.092 E22.38291
G0 F6000 X119.252 Y135.092
G1 F1200 X116.467 Y132.306 E22.51394
G0 F6000 X116.467 Y131.741
G1 F1200 X119.818 Y135.092 E22.67156
G0 F6000 X120.384 Y135.092
G1 F1200 X116.467 Y131.175 E22.8558
G0 F6000 X116.467 Y130.609
G1 F1200 X120.949 Y135.092 E23.06664
G0 F6000 X121.515 Y135.092
G1 F1200 X116.467 Y130.044 E23.30409
G0 F6000 X116.467 Y129.478
G1 F1200 X122.081 Y135.092 E23.56815
G0 F6000 X122.646 Y135.092
G1 F1200 X116.467 Y128.912 E23.85882
G0 F6000 X116.467 Y128.346
G1 F1200 X123.212 Y135.092 E24.1761
G0 F6000 X123.778 Y135.092
G1 F1200 X116.467 Y127.781 E24.51999
G0 F6000 X116.467 Y127.215
G1 F1200 X124.344 Y135.092 E24.8905
G0 F6000 X124.909 Y135.092
G1 F1200 X116.467 Y126.649 E25.28761
G0 F6000 X116.467 Y126.084
G1 F1200 X125.475 Y135.092 E25.71132
G0 F6000 X126.041 Y135.092
G1 F1200 X116.467 Y125.518 E26.16165
G0 F6000 X116.467 Y124.952
G1 F1200 X126.606 Y135.092 E26.63858
G0 F6000 X127.172 Y135.092
G1 F1200 X116.467 Y124.387 E27.14211
G0 F6000 X116.467 Y123.821
G1 F1200 X127.738 Y135.092 E27.67226
G0 F6000 X128.303 Y135.092
G1 F1200 X116.467 Y123.255 E28.22902
G0 F6000 X116.467 Y122.69
G1 F1200 X128.869 Y135.092 E28.81237
G0 F6000 X129.435 Y135.092
G1 F1200 X116.467 Y122.124 E29.42234
G0 F6000 X116.467 Y121.558
G1 F1200 X130 Y135.092 E30.05892
G0 F6000 X130.566 Y135.092
G1 F1200 X116.467 Y120.993 E30.72209
G0 F6000 X116.467 Y120.427
G1 F1200 X131.132 Y135.092 E31.41189
G0 F6000 X131.697 Y135.092
G1 F1200 X116.467 Y119.861 E32.12828
G0 F6000 X116.467 Y119.295
G1 F1200 X132.263 Y135.092 E32.8713
G0 F6000 X132.829 Y135.092
G1 F1200 X116.467 Y118.73 E33.64092
G0 F6000 X116.467 Y118.164
G1 F1200 X133.394 Y135.092 E34.43714
G0 F6000 X133.96 Y135.092
G1 F1200 X116.467 Y117.598 E35.25998
G0 F6000 X116.827 Y117.393
G1 F1200 X134.167 Y134.733 E36.0756
G0 F6000 X134.167 Y134.167
G1 F1200 X117.393 Y117.393 E36.8646
G0 F6000 X117.958 Y117.393
G1 F1200 X134.167 Y133.602 E37.62702
G0 F6000 X134.167 Y133.036
G1 F1200 X118.524 Y117.393 E38.36282
G0 F6000 X119.09 Y117.393
G1 F1200 X134.167 Y132.47 E39.07199
G0 F6000 X134.167 Y131.905
G1 F1200 X119.655 Y117.393 E39.75459
G0 F6000 X120.221 Y117.393
G1 F1200 X134.167 Y131.339 E40.41057
G0 F6000 X134.167 Y130.773
G1 F1200 X120.787 Y117.393 E41.03993
G0 F6000 X121.352 Y117.393
G1 F1200 X134.167 Y130.208 E41.6427
G0 F6000 X134.167 Y129.642
G1 F1200 X121.918 Y117.393 E42.21886
G0 F6000 X122.484 Y117.393
G1 F1200 X134.167 Y129.076 E42.76839
G0 F6000 X134.167 Y128.511
G1 F1200 X123.05 Y117.393 E43.29133
G0 F6000 X123.615 Y117.393
G1 F1200 X134.167 Y127.945 E43.78766
G0 F6000 X134.167 Y127.379
G1 F1200 X124.181 Y117.393 E44.25737
G0 F6000 X124.747 Y117.393
G1 F1200 X134.167 Y126.813 E44.70046
G0 F6000 X134.167 Y126.248
G1 F1200 X125.312 Y117.393 E45.11697
G0 F6000 X125.878 Y117.393
G1 F1200 X134.167 Y125.682 E45.50686
G0 F6000 X134.167 Y125.116
G1 F1200 X126.444 Y117.393 E45.87012
G0 F6000 X127.009 Y117.393
G1 F1200 X134.167 Y124.551 E46.20682
G0 F6000 X134.167 Y123.985
G1 F1200 X127.575 Y117.393 E46.51688
G0 F6000 X128.141 Y117.393
G1 F1200 X134.167 Y123.419 E46.80033
G0 F6000 X134.167 Y122.854
G1 F1200 X128.706 Y117.393 E47.0572
G0 F6000 X129.272 Y117.393
G1 F1200 X134.167 Y122.288 E47.28744
G0 F6000 X134.167 Y121.722
G1 F1200 X129.838 Y117.393 E47.49106
G0 F6000 X130.403 Y117.393
G1 F1200 X134.167 Y121.157 E47.66811
G0 F6000 X134.167 Y120.591
G1 F1200 X130.969 Y117.393 E47.81854
G0 F6000 X131.535 Y117.393
G1 F1200 X134.167 Y120.025 E47.94234
G0 F6000 X134.167 Y119.46
G1 F1200 X132.1 Y117.393 E48.03956
G0 F6000 X132.666 Y117.393
G1 F1200 X134.167 Y118.894 E48.11016
G0 F6000 X134.167 Y118.328
G1 F1200 X133.232 Y117.393 E48.15414
G0 F6000 X133.798 Y117.393
G1 F1200 X134.167 Y117.762 E48.1715
G0 F6000 X134.518 Y117.762
G1 F2700 E43.1715
;MESH:NONMESH
G0 F300 X134.518 Y117.762 Z0.4
G0 F6000 X134.608 Y117.762
G0 X134.536 Y135.461
G0 X115.918 Y135.643
;TIME_ELAPSED:83.679047
;LAYER:1
M106 S85
;TYPE:WALL-INNER
;MESH:xyzCalibration_cube.stl
G1 F2700 E48.1715
G1 F1350 X115.918 Y116.843 E48.79679
G1 X134.718 Y116.843 E49.42208
G1 X134.718 Y135.643 E50.04737
G1 X115.918 Y135.643 E50.67266
G0 F7500 X115.518 Y136.043
;TYPE:WALL-OUTER
G1 F1350 X115.518 Y116.443 E51.32456
G1 X135.118 Y116.443 E51.97646
G1 X135.118 Y136.043 E52.62836
G1 X115.518 Y136.043 E53.28026
G0 F7500 X115.788 Y135.773
G0 X116.028 Y135.253
G0 X116.308 Y135.253
;TYPE:SKIN
G1 F1350 X116.308 Y117.233 E53.87961
G1 X134.328 Y117.233 E54.47895
G1 X134.328 Y135.253 E55.0783
G1 X116.308 Y135.253 E55.67765
G0 F7500 X116.028 Y135.253
G0 X116.028 Y117.725
G0 X116.468 Y117.725
G1 F1350 X116.801 Y117.392 E55.69331
G0 F7500 X117.366 Y117.392
G1 F1350 X116.468 Y118.291 E55.73557
G0 F7500 X116.468 Y118.856
G1 F1350 X117.932 Y117.392 E55.80444
G0 F7500 X118.498 Y117.392
G1 F1350 X116.468 Y119.422 E55.89992
G0 F7500 X116.468 Y119.988
G1 F1350 X119.064 Y117.392 E56.02203
G0 F7500 X119.629 Y117.392
G1 F1350 X116.468 Y120.553 E56.17071
G0 F7500 X116.468 Y121.119
G1 F1350 X120.195 Y117.392 E56.34602
G0 F7500 X120.761 Y117.392
G1 F1350 X116.468 Y121.685 E56.54795
G0 F7500 X116.468 Y122.25
G1 F1350 X121.326 Y117.392 E56.77645
G0 F7500 X121.892 Y117.392
G1 F1350 X116.468 Y122.816 E57.03158
G0 F7500 X116.468 Y123.382
G1 F1350 X122.458 Y117.392 E57.31333
G0 F7500 X123.023 Y117.392
G1 F1350 X116.468 Y123.948 E57.62168
G0 F7500 X116.468 Y124.513
G1 F1350 X123.589 Y117.392 E57.95663
G0 F7500 X124.155 Y117.392
G1 F1350 X116.468 Y125.079 E58.31821
G0 F7500 X116.468 Y125.645
G1 F1350 X124.72 Y117.392 E58.70638
G0 F7500 X125.286 Y117.392
G1 F1350 X116.468 Y126.21 E59.12115
G0 F7500 X116.468 Y126.776
G1 F1350 X125.852 Y117.392 E59.56255
G0 F7500 X126.417 Y117.392
G1 F1350 X116.468 Y127.342 E60.03054
G0 F7500 X116.468 Y127.907
G1 F1350 X126.983 Y117.392 E60.52513
G0 F7500 X127.549 Y117.392
G1 F1350 X116.468 Y128.473 E61.04635
G0 F7500 X116.468 Y129.039
G1 F1350 X128.115 Y117.392 E61.59419
G0 F7500 X128.68 Y117.392
G1 F1350 X116.468 Y129.604 E62.1686
G0 F7500 X116.468 Y130.17
G1 F1350 X129.246 Y117.392 E62.76964
G0 F7500 X129.812 Y117.392
G1 F1350 X116.468 Y130.736 E63.3973
G0 F7500 X116.468 Y131.301
G1 F1350 X130.377 Y117.392 E64.05154
G0 F7500 X130.943 Y117.392
G1 F1350 X116.468 Y131.867 E64.7324
G0 F7500 X116.468 Y132.433
G1 F1350 X131.509 Y117.392 E65.43988
G0 F7500 X132.074 Y117.392
G1 F1350 X116.468 Y132.999 E66.17396
G0 F7500 X116.468 Y133.564
