;FLAVOR:Marlin
;TIME:5085
;Filament used: 5.50912m
;Layer height: 0.2
;MINX:58.765
;MINY:58.969
;MINZ:0.2
;MAXX:161.235
;MAXY:161.031
;MAXZ:10
;Generated with Cura_SteamEngine 4.8.0
M140 S60
M105
M190 S60
M104 S200
M105
M109 S200
M82 ;absolute extrusion mode
; Ender 3 Custom Start G-code
G92 E0 ; Reset Extruder
G28 ; Home all axes
G1 Z2.0 F3000 ; Move Z Axis up little to prevent scratching of Heat Bed
G1 X0.1 Y20 Z0.3 F5000.0 ; Move to start position
G1 X0.1 Y200.0 Z0.3 F1500.0 E15 ; Draw the first line
G1 X0.4 Y200.0 Z0.3 F5000.0 ; Move to side a little
G1 X0.4 Y20 Z0.3 F1500.0 E30 ; Draw the second line
G92 E0 ; Reset Extruder
G1 Z2.0 F3000 ; Move Z Axis up little to prevent scratching of Heat Bed
G1 X5 Y20 Z0.3 F5000.0 ; Move over to prevent blob squish
G92 E0
G92 E0
G1 F3000 E-5
;LAYER_COUNT:50
;LAYER:0
M107
M205 X8 Y8
G0 F6000 X74.928 Y72.7 Z0.2
;TYPE:SKIRT
G1 F3000 E0
G1 F1800 X75.599 Y72.03 E0.03942
G1 X76.415 Y71.35 E0.08358
G1 X77.248 Y70.72 E0.12701
G1 X77.422 Y70.591 E0.13601
G1 X82.956 Y66.572 E0.42036
G1 X83.481 Y66.202 E0.44706
G1 X84.279 Y65.689 E0.4865
G1 X85.183 Y65.214 E0.52896
G1 X86.11 Y64.779 E0.57153
G1 X86.313 Y64.686 E0.58082
G1 X92.598 Y61.889 E0.86682
G1 X93.161 Y61.648 E0.89228
G1 X94.048 Y61.312 E0.93172
G1 X95.029 Y61.035 E0.9741
G1 X96.048 Y60.797 E1.0176
G1 X96.268 Y60.748 E1.02697
G1 X102.96 Y59.326 E1.31141
G1 X103.576 Y59.204 E1.33752
G1 X104.514 Y59.059 E1.37698
G1 X105.534 Y58.992 E1.41947
G1 X106.571 Y58.971 E1.4626
G1 X106.799 Y58.969 E1.47208
G1 X113.474 Y58.969 E1.74959
G1 X114.276 Y58.979 E1.78294
G1 X115.223 Y59.032 E1.82237
G1 X116.235 Y59.179 E1.86489
G1 X117.29 Y59.381 E1.90954
G1 X117.514 Y59.426 E1.91904
G1 X124.151 Y60.839 E2.20116
G1 X124.798 Y60.986 E2.22875
G1 X125.713 Y61.235 E2.26817
G1 X126.675 Y61.59 E2.3108
G1 X127.638 Y61.996 E2.35425
G1 X127.844 Y62.085 E2.36358
G1 X134.049 Y64.848 E2.64598
G1 X134.649 Y65.124 E2.67343
G1 X135.494 Y65.557 E2.71291
G1 X136.392 Y66.124 E2.75706
G1 X137.41 Y66.837 E2.80873
G1 X142.92 Y70.841 E3.09191
G1 X143.458 Y71.244 E3.11986
G1 X144.192 Y71.844 E3.15927
G1 X144.921 Y72.554 E3.20158
G1 X145.639 Y73.32 E3.24523
G1 X145.791 Y73.486 E3.25459
G1 X150.383 Y78.587 E3.53993
G1 X150.793 Y79.057 E3.56586
G1 X151.385 Y79.797 E3.60526
G1 X151.941 Y80.63 E3.6469
G1 X152.492 Y81.541 E3.69116
G1 X152.609 Y81.738 E3.70069
G1 X155.944 Y87.515 E3.97802
G1 X156.319 Y88.184 E4.0099
G1 X156.748 Y89.03 E4.04934
G1 X157.133 Y89.995 E4.09254
G1 X157.477 Y90.987 E4.13619
G1 X157.547 Y91.196 E4.14535
G1 X159.649 Y97.669 E4.4283
G1 X159.849 Y98.316 E4.45646
G1 X160.091 Y99.233 E4.49589
G1 X160.264 Y100.241 E4.53841
G1 X160.392 Y101.264 E4.58127
G1 X160.417 Y101.485 E4.59052
G1 X161.131 Y108.288 E4.87491
G1 X161.189 Y108.929 E4.90166
G1 X161.235 Y109.877 E4.94112
G1 X161.195 Y110.892 E4.98336
G1 X161.107 Y111.931 E5.02671
G1 X161.085 Y112.157 E5.03615
G1 X160.37 Y118.956 E5.32038
G1 X160.295 Y119.586 E5.34675
G1 X160.143 Y120.522 E5.38618
G1 X159.888 Y121.528 E5.42932
G1 X159.577 Y122.551 E5.47378
G1 X159.513 Y122.755 E5.48267
G1 X157.456 Y129.087 E5.75946
G1 X157.201 Y129.837 E5.7924
G1 X156.858 Y130.721 E5.83182
G1 X156.406 Y131.638 E5.87432
G1 X155.902 Y132.553 E5.91775
G1 X155.791 Y132.749 E5.92712
G1 X152.381 Y138.654 E6.21062
G1 X152.03 Y139.24 E6.23901
G1 X151.509 Y140.032 E6.27843
G1 X150.895 Y140.811 E6.31967
G1 X150.213 Y141.601 E6.36306
G1 X150.057 Y141.778 E6.37286
G1 X145.581 Y146.748 E6.65094
G1 X145.072 Y147.3 E6.68216
G1 X144.401 Y147.97 E6.72158
G1 X143.585 Y148.65 E6.76574
G1 X142.752 Y149.28 E6.80916
G1 X142.578 Y149.409 E6.81817
G1 X137.052 Y153.422 E7.1021
G1 X136.528 Y153.792 E7.12877
G1 X135.731 Y154.306 E7.1682
G1 X134.814 Y154.788 E7.21127
G1 X133.886 Y155.223 E7.25388
G1 X133.687 Y155.314 E7.26298
G1 X127.402 Y158.111 E7.54898
G1 X126.839 Y158.352 E7.57444
G1 X125.952 Y158.688 E7.61388
G1 X124.971 Y158.965 E7.65626
G1 X123.952 Y159.203 E7.69976
G1 X123.732 Y159.252 E7.70913
G1 X117.04 Y160.674 E7.99357
G1 X116.424 Y160.796 E8.01967
G1 X115.486 Y160.941 E8.05914
G1 X114.466 Y161.008 E8.10163
G1 X113.429 Y161.029 E8.14476
G1 X113.201 Y161.031 E8.15423
G1 X106.369 Y161.03 E8.43828
G1 X105.724 Y161.021 E8.4651
G1 X104.777 Y160.968 E8.50453
G1 X103.765 Y160.821 E8.54704
G1 X102.71 Y160.619 E8.5917
G1 X102.486 Y160.574 E8.6012
G1 X95.849 Y159.161 E8.88332
G1 X95.202 Y159.014 E8.9109
G1 X94.287 Y158.765 E8.95033
G1 X93.323 Y158.41 E8.99304
G1 X92.351 Y158 E9.0369
G1 X92.147 Y157.911 E9.04615
G1 X85.951 Y155.152 E9.32814
G1 X85.351 Y154.876 E9.35559
G1 X84.506 Y154.443 E9.39507
G1 X83.608 Y153.876 E9.43922
G1 X82.59 Y153.163 E9.49089
G1 X77.08 Y149.159 E9.77407
G1 X76.542 Y148.756 E9.80202
G1 X75.808 Y148.156 E9.84143
G1 X75.079 Y147.446 E9.88374
G1 X74.361 Y146.68 E9.92739
G1 X74.209 Y146.514 E9.93675
G1 X69.617 Y141.413 E10.22209
G1 X69.207 Y140.943 E10.24802
G1 X68.615 Y140.203 E10.28742
G1 X68.059 Y139.37 E10.32906
G1 X67.508 Y138.459 E10.37333
G1 X67.391 Y138.262 E10.38285
G1 X64.056 Y132.485 E10.66018
G1 X63.681 Y131.816 E10.69206
G1 X63.252 Y130.97 E10.7315
G1 X62.867 Y130.005 E10.7747
G1 X62.523 Y129.013 E10.81835
G1 X62.453 Y128.804 E10.82751
G1 X60.351 Y122.331 E11.11046
G1 X60.151 Y121.684 E11.13862
G1 X59.909 Y120.767 E11.17805
G1 X59.736 Y119.759 E11.22057
G1 X59.608 Y118.736 E11.26343
G1 X59.583 Y118.515 E11.27268
G1 X58.869 Y111.712 E11.55707
G1 X58.811 Y111.071 E11.58382
G1 X58.765 Y110.123 E11.62328
G1 X58.805 Y109.108 E11.66552
G1 X58.893 Y108.069 E11.70887
G1 X58.915 Y107.841 E11.71839
G1 X59.63 Y101.051 E12.00225
G1 X59.703 Y100.43 E12.02824
G1 X59.853 Y99.493 E12.06769
G1 X60.113 Y98.468 E12.11166
G1 X60.424 Y97.446 E12.15607
G1 X60.487 Y97.245 E12.16483
G1 X62.544 Y90.913 E12.44163
G1 X62.799 Y90.163 E12.47456
G1 X63.142 Y89.279 E12.51398
G1 X63.594 Y88.362 E12.55649
G1 X64.098 Y87.447 E12.59992
G1 X64.209 Y87.251 E12.60928
G1 X67.619 Y81.346 E12.89278
G1 X67.97 Y80.76 E12.92118
G1 X68.491 Y79.968 E12.96059
G1 X69.105 Y79.189 E13.00183
G1 X69.787 Y78.399 E13.04522
G1 X69.943 Y78.222 E13.05503
G1 X74.419 Y73.252 E13.3331
G1 X74.928 Y72.7 E13.36432
G0 F6000 X75.295 Y73.039
G1 F1800 X75.952 Y72.385 E13.40286
G1 X76.716 Y71.749 E13.44419
G1 X77.549 Y71.119 E13.48761
G1 X83.119 Y67.071 E13.77388
G1 X83.769 Y66.611 E13.80699
G1 X84.549 Y66.11 E13.84553
G1 X85.395 Y65.666 E13.88525
G1 X86.322 Y65.231 E13.92782
G1 X86.516 Y65.142 E13.9367
G1 X92.652 Y62.41 E14.21594
G1 X93.358 Y62.107 E14.24789
G1 X94.225 Y61.78 E14.28641
G1 X95.143 Y61.522 E14.32605
G1 X96.162 Y61.284 E14.36956
G1 X96.372 Y61.237 E14.37851
G1 X103.058 Y59.817 E14.66268
G1 X103.674 Y59.695 E14.68879
G1 X104.59 Y59.554 E14.72732
G1 X105.544 Y59.492 E14.76706
G1 X106.581 Y59.471 E14.81019
G1 X106.799 Y59.469 E14.81925
G1 X113.474 Y59.469 E15.09676
G1 X114.269 Y59.479 E15.12982
G1 X115.195 Y59.532 E15.16838
G1 X116.141 Y59.67 E15.20813
G1 X117.196 Y59.872 E15.25279
G1 X117.41 Y59.915 E15.26186
G1 X124.04 Y61.326 E15.54368
G1 X124.687 Y61.473 E15.57126
G1 X125.581 Y61.717 E15.60979
G1 X126.481 Y62.05 E15.64969
G1 X127.444 Y62.456 E15.69314
G1 X127.64 Y62.541 E15.70202
G1 X133.84 Y65.303 E15.9842
G1 X134.44 Y65.579 E16.01166
G1 X135.265 Y66.002 E16.05021
G1 X136.106 Y66.533 E16.09156
G1 X136.956 Y67.127 E16.13467
G1 X142.493 Y71.148 E16.41917
G1 X143.158 Y71.644 E16.45366
G1 X143.875 Y72.231 E16.49219
G1 X144.556 Y72.896 E16.53176
G1 X145.274 Y73.662 E16.57541
G1 X145.419 Y73.82 E16.58432
G1 X150.006 Y78.915 E16.86935
G1 X150.416 Y79.385 E16.89528
G1 X150.995 Y80.11 E16.93385
G1 X151.513 Y80.889 E16.97275
G1 X152.176 Y81.988 E17.02611
G1 X155.58 Y87.887 E17.30926
G1 X155.883 Y88.428 E17.33504
G1 X156.301 Y89.256 E17.37361
G1 X156.661 Y90.159 E17.41402
G1 X157.005 Y91.151 E17.45767
G1 X157.072 Y91.351 E17.46644
G1 X159.125 Y97.669 E17.74263
G1 X159.371 Y98.463 E17.77719
G1 X159.607 Y99.36 E17.81576
G1 X159.768 Y100.303 E17.85553
G1 X159.896 Y101.326 E17.89839
G1 X159.92 Y101.537 E17.90722
G1 X160.633 Y108.333 E18.19132
G1 X160.691 Y108.974 E18.21807
G1 X160.735 Y109.9 E18.25662
G1 X160.697 Y110.85 E18.29614
G1 X160.609 Y111.889 E18.3395
G1 X160.588 Y112.105 E18.34852
G1 X159.874 Y118.897 E18.63245
G1 X159.799 Y119.527 E18.65883
G1 X159.649 Y120.442 E18.69738
G1 X159.409 Y121.383 E18.73775
G1 X159.098 Y122.406 E18.78221
G1 X159.037 Y122.6 E18.79066
G1 X156.932 Y129.077 E19.07381
G1 X156.728 Y129.676 E19.10012
G1 X156.392 Y130.54 E19.13866
G1 X155.968 Y131.397 E19.17841
G1 X155.464 Y132.312 E19.22184
G1 X155.358 Y132.499 E19.23078
G1 X151.952 Y138.397 E19.51394
G1 X151.601 Y138.983 E19.54234
G1 X151.091 Y139.757 E19.58087
G1 X150.516 Y140.484 E19.61941
G1 X149.834 Y141.274 E19.6628
G1 X149.685 Y141.443 E19.67217
G1 X145.127 Y146.503 E19.9553
G1 X144.705 Y146.961 E19.9812
G1 X144.048 Y147.615 E20.01974
G1 X143.284 Y148.251 E20.06107
G1 X142.451 Y148.881 E20.10449
G1 X136.881 Y152.929 E20.39076
G1 X136.24 Y153.383 E20.42341
G1 X135.46 Y153.885 E20.46198
G1 X134.602 Y154.336 E20.50228
G1 X133.674 Y154.771 E20.54489
G1 X133.484 Y154.858 E20.55357
G1 X127.348 Y157.59 E20.83282
G1 X126.642 Y157.893 E20.86476
G1 X125.775 Y158.22 E20.90329
G1 X124.857 Y158.478 E20.94293
G1 X123.838 Y158.716 E20.98644
G1 X123.628 Y158.763 E20.99539
G1 X116.942 Y160.183 E21.27956
G1 X116.326 Y160.305 E21.30567
G1 X115.41 Y160.446 E21.3442
G1 X114.456 Y160.508 E21.38394
G1 X113.419 Y160.529 E21.42707
G1 X113.201 Y160.531 E21.43613
G1 X106.376 Y160.53 E21.71988
G1 X105.731 Y160.521 E21.7467
G1 X104.805 Y160.468 E21.78526
G1 X103.859 Y160.33 E21.82501
G1 X102.804 Y160.128 E21.86966
G1 X102.59 Y160.085 E21.87874
G1 X95.96 Y158.674 E22.16056
G1 X95.313 Y158.527 E22.18814
G1 X94.419 Y158.283 E22.22667
G1 X93.517 Y157.949 E22.26666
G1 X92.545 Y157.539 E22.31052
G1 X92.351 Y157.455 E22.31931
G1 X86.16 Y154.697 E22.60108
G1 X85.56 Y154.421 E22.62854
G1 X84.735 Y153.998 E22.66709
G1 X83.894 Y153.467 E22.70844
G1 X83.044 Y152.873 E22.75155
G1 X77.507 Y148.852 E23.03605
G1 X76.842 Y148.356 E23.07054
G1 X76.125 Y147.769 E23.10907
G1 X75.444 Y147.104 E23.14864
G1 X74.726 Y146.338 E23.19229
G1 X74.581 Y146.18 E23.2012
G1 X69.994 Y141.085 E23.48623
G1 X69.584 Y140.615 E23.51216
G1 X69.005 Y139.89 E23.55073
G1 X68.487 Y139.111 E23.58963
G1 X67.824 Y138.012 E23.64299
G1 X64.42 Y132.113 E23.92614
G1 X64.117 Y131.572 E23.95192
G1 X63.699 Y130.744 E23.99048
G1 X63.339 Y129.841 E24.0309
G1 X62.995 Y128.849 E24.07455
G1 X62.928 Y128.649 E24.08332
G1 X60.875 Y122.331 E24.35951
G1 X60.629 Y121.537 E24.39407
G1 X60.393 Y120.64 E24.43263
G1 X60.232 Y119.697 E24.47241
G1 X60.104 Y118.674 E24.51527
G1 X60.08 Y118.463 E24.5241
G1 X59.367 Y111.667 E24.80819
G1 X59.309 Y111.026 E24.83495
G1 X59.265 Y110.1 E24.87349
G1 X59.303 Y109.15 E24.91302
G1 X59.391 Y108.111 E24.95637
G1 X59.412 Y107.893 E24.96548
G1 X60.127 Y101.109 E25.24909
G1 X60.2 Y100.488 E25.27508
G1 X60.347 Y99.573 E25.31361
G1 X60.592 Y98.613 E25.3548
G1 X60.903 Y97.591 E25.39922
G1 X60.963 Y97.4 E25.40754
G1 X63.068 Y90.923 E25.69069
G1 X63.272 Y90.324 E25.717
G1 X63.608 Y89.46 E25.75554
G1 X64.032 Y88.603 E25.79529
G1 X64.536 Y87.688 E25.83872
G1 X64.642 Y87.501 E25.84766
G1 X68.048 Y81.603 E26.13082
G1 X68.399 Y81.017 E26.15922
G1 X68.909 Y80.243 E26.19775
G1 X69.484 Y79.516 E26.23629
G1 X70.166 Y78.726 E26.27968
G1 X70.315 Y78.557 E26.28905
G1 X74.873 Y73.497 E26.57218
G1 X75.295 Y73.039 E26.59807
G0 F6000 X75.663 Y73.377
G1 F1800 X76.305 Y72.739 E26.6357
G1 X77.018 Y72.148 E26.67421
G1 X77.851 Y71.518 E26.71763
G1 X78.01 Y71.4 E26.72586
G1 X83.532 Y67.39 E27.00959
G1 X84.057 Y67.02 E27.03629
G1 X84.82 Y66.531 E27.07397
G1 X85.608 Y66.119 E27.11094
G1 X86.72 Y65.599 E27.16197
G1 X92.991 Y62.808 E27.44735
G1 X93.554 Y62.567 E27.47281
G1 X94.402 Y62.248 E27.51048
G1 X95.257 Y62.009 E27.54738
G1 X96.476 Y61.726 E27.59941
G1 X103.155 Y60.307 E27.88329
G1 X103.771 Y60.185 E27.9094
G1 X104.666 Y60.049 E27.94704
G1 X105.554 Y59.992 E27.98403
G1 X106.591 Y59.971 E28.02715
G1 X106.799 Y59.969 E28.0358
G1 X113.474 Y59.969 E28.31332
G1 X114.262 Y59.979 E28.34608
G1 X115.166 Y60.032 E28.38373
G1 X116.047 Y60.161 E28.42075
G1 X117.102 Y60.363 E28.4654
G1 X117.306 Y60.404 E28.47406
G1 X123.929 Y61.814 E28.75558
G1 X124.576 Y61.961 E28.78316
G1 X125.449 Y62.2 E28.82079
G1 X126.287 Y62.511 E28.85796
G1 X127.25 Y62.917 E28.90141
G1 X127.437 Y62.998 E28.90988
G1 X133.632 Y65.757 E29.19182
G1 X134.232 Y66.033 E29.21928
G1 X135.036 Y66.447 E29.25688
G1 X135.819 Y66.943 E29.29541
G1 X136.669 Y67.537 E29.33853
G1 X136.822 Y67.646 E29.34634
G1 X142.32 Y71.641 E29.62889
G1 X142.858 Y72.044 E29.65684
G1 X143.558 Y72.619 E29.6945
G1 X144.191 Y73.238 E29.73131
G1 X144.909 Y74.004 E29.77496
G1 X145.048 Y74.155 E29.78349
G1 X149.522 Y79.123 E30.06145
G1 X150.039 Y79.714 E30.09409
G1 X150.604 Y80.422 E30.13175
G1 X151.086 Y81.147 E30.16795
G1 X151.637 Y82.058 E30.21221
G1 X151.743 Y82.238 E30.2209
G1 X155.144 Y88.131 E30.50377
G1 X155.447 Y88.672 E30.52955
G1 X155.854 Y89.481 E30.5672
G1 X156.188 Y90.323 E30.60486
G1 X156.532 Y91.315 E30.64851
G1 X156.596 Y91.505 E30.65685
G1 X158.694 Y97.964 E30.93919
G1 X158.894 Y98.611 E30.96735
G1 X159.123 Y99.487 E31.00499
G1 X159.272 Y100.365 E31.04202
G1 X159.4 Y101.388 E31.08488
G1 X159.423 Y101.59 E31.09333
G1 X160.135 Y108.378 E31.37709
G1 X160.193 Y109.019 E31.40385
G1 X160.235 Y109.924 E31.44152
G1 X160.198 Y110.808 E31.4783
G1 X160.091 Y112.053 E31.53026
G1 X159.377 Y118.838 E31.8139
G1 X159.302 Y119.468 E31.84028
G1 X159.156 Y120.361 E31.8779
G1 X158.931 Y121.237 E31.9155
G1 X158.562 Y122.446 E31.96805
G1 X156.459 Y128.915 E32.25086
G1 X156.255 Y129.514 E32.27717
G1 X155.925 Y130.358 E32.31484
G1 X155.53 Y131.155 E32.35182
G1 X155.026 Y132.07 E32.39525
G1 X154.925 Y132.249 E32.4038
G1 X151.523 Y138.14 E32.68662
G1 X151.172 Y138.726 E32.71502
G1 X150.673 Y139.481 E32.75265
G1 X150.138 Y140.157 E32.78849
G1 X149.456 Y140.947 E32.83188
G1 X149.313 Y141.108 E32.84083
G1 X144.759 Y146.165 E33.12377
G1 X144.337 Y146.623 E33.14966
G1 X143.695 Y147.261 E33.18729
G1 X142.982 Y147.852 E33.22579
G1 X142.149 Y148.482 E33.26921
G1 X141.99 Y148.6 E33.27744
G1 X136.475 Y152.605 E33.56081
G1 X135.951 Y152.975 E33.58748
G1 X135.189 Y153.464 E33.62512
G1 X134.389 Y153.883 E33.66267
G1 X133.28 Y154.401 E33.71356
G1 X127.009 Y157.192 E33.99893
G1 X126.446 Y157.433 E34.02439
G1 X125.598 Y157.752 E34.06206
G1 X124.743 Y157.991 E34.09897
G1 X123.524 Y158.274 E34.151
G1 X116.845 Y159.693 E34.43488
G1 X116.229 Y159.815 E34.46098
G1 X115.334 Y159.951 E34.49862
G1 X114.446 Y160.008 E34.53562
G1 X113.409 Y160.029 E34.57874
G1 X113.201 Y160.031 E34.58739
G1 X106.383 Y160.03 E34.87085
G1 X105.738 Y160.021 E34.89766
G1 X104.834 Y159.968 E34.93531
G1 X103.953 Y159.839 E34.97233
G1 X102.898 Y159.637 E35.01699
G1 X102.694 Y159.596 E35.02564
G1 X96.071 Y158.186 E35.30716
G1 X95.424 Y158.039 E35.33475
G1 X94.551 Y157.8 E35.37238
G1 X93.711 Y157.488 E35.40963
G1 X92.739 Y157.078 E35.45349
G1 X92.554 Y156.998 E35.46187
G1 X86.368 Y154.243 E35.74341
G1 X85.768 Y153.967 E35.77087
G1 X84.964 Y153.553 E35.80846
G1 X84.181 Y153.057 E35.847
G1 X83.331 Y152.463 E35.89011
G1 X83.178 Y152.354 E35.89792
G1 X77.68 Y148.359 E36.18047
G1 X77.142 Y147.956 E36.20842
G1 X76.442 Y147.381 E36.24608
G1 X75.809 Y146.762 E36.28289
G1 X75.091 Y145.996 E36.32654
G1 X74.952 Y145.845 E36.33507
G1 X70.478 Y140.877 E36.61303
G1 X69.961 Y140.286 E36.64568
G1 X69.396 Y139.578 E36.68334
G1 X68.914 Y138.853 E36.71953
G1 X68.363 Y137.942 E36.76379
G1 X68.257 Y137.762 E36.77248
G1 X64.856 Y131.869 E37.05536
G1 X64.553 Y131.328 E37.08114
G1 X64.146 Y130.519 E37.11879
G1 X63.812 Y129.677 E37.15645
G1 X63.468 Y128.685 E37.2001
G1 X63.404 Y128.495 E37.20843
G1 X61.306 Y122.036 E37.49078
G1 X61.106 Y121.389 E37.51893
G1 X60.877 Y120.513 E37.55658
G1 X60.728 Y119.635 E37.5936
G1 X60.6 Y118.612 E37.63647
G1 X60.577 Y118.41 E37.64492
G1 X59.865 Y111.622 E37.92868
G1 X59.807 Y110.981 E37.95544
G1 X59.765 Y110.076 E37.9931
G1 X59.802 Y109.192 E38.02989
G1 X59.909 Y107.946 E38.08188
G1 X60.623 Y101.167 E38.36528
G1 X60.696 Y100.546 E38.39127
G1 X60.841 Y99.653 E38.42889
