;FLAVOR:Marlin
;TIME:8860
;Filament used: 11.8546m
;Layer height: 0.4
;MINX:51.002
;MINY:55.324
;MINZ:0.2
;MAXX:163.02
;MAXY:166.631
;MAXZ:48.6
;Generated with Cura_SteamEngine 4.8.0
M140 S65
M105
M190 S65
M104 S210
M105
M109 S210
M82 ;absolute extrusion mode
; Ender 3 Custom Start G-code
G92 E0 ; Reset Extruder
G28 ; Home all axes
G1 Z2.0 F3000 ; Move Z Axis up little to prevent scratching of Heat Bed
G1 X0.1 Y20 Z0.3 F5000.0 ; Move to start position
G1 X0.1 Y200.0 Z0.3 F1500.0 E15 ; Draw the first line
G1 X0.4 Y200.0 Z0.3 F5000.0 ; Move to side a little
G1 X0.4 Y20 Z0.3 F1500.0 E30 ; Draw the second line
G92 E0 ; Reset Extruder
G1 Z2.0 F3000 ; Move Z Axis up little to prevent scratching of Heat Bed
G1 X5 Y20 Z0.3 F5000.0 ; Move over to prevent blob squish
G92 E0
G92 E0
G1 F2700 E-5
;LAYER_COUNT:122
;LAYER:0
M107
G1 F300 Z0.4
G0 F6000 X62.507 Y63.726 Z0.4
;TYPE:SKIRT
G1 F300 Z0.2
G1 F2700 E0
G1 F1200 X62.83 Y63.442 E0.01788
G1 X63.334 Y63.016 E0.04532
G1 X64.827 Y61.781 E0.12587
G1 X65.376 Y61.339 E0.15518
G1 X66.139 Y60.776 E0.1946
G1 X67.292 Y60.094 E0.25029
G1 X68.143 Y59.657 E0.29007
G1 X68.33 Y59.563 E0.29877
G1 X69.913 Y58.787 E0.37206
G1 X70.682 Y58.423 E0.40744
G1 X71.556 Y58.054 E0.44688
G1 X72.155 Y57.849 E0.4732
G1 X72.99 Y57.591 E0.50953
G1 X75.333 Y56.903 E0.61106
G1 X75.93 Y56.737 E0.63682
G1 X76.901 Y56.513 E0.67825
G1 X77.968 Y56.316 E0.72336
G1 X78.186 Y56.278 E0.73256
G1 X80.687 Y55.868 E0.83793
G1 X81.27 Y55.781 E0.86243
G1 X81.931 Y55.702 E0.89011
G1 X82.918 Y55.614 E0.93131
G1 X86.063 Y55.392 E1.06239
G1 X86.779 Y55.351 E1.0922
G1 X87.114 Y55.337 E1.10614
G1 X87.443 Y55.328 E1.11983
G1 X87.769 Y55.324 E1.13338
G1 X91.617 Y55.331 E1.29336
G1 X92.251 Y55.341 E1.31973
G1 X92.57 Y55.351 E1.33299
G1 X93.515 Y55.394 E1.37232
G1 X97.223 Y55.616 E1.52676
G1 X98.041 Y55.676 E1.56086
G1 X98.321 Y55.7 E1.57254
G1 X98.827 Y55.751 E1.59369
G1 X102.349 Y56.133 E1.74097
G1 X102.584 Y56.161 E1.75081
G1 X104.657 Y56.43 E1.83772
G1 X104.888 Y56.462 E1.84742
G1 X108.107 Y56.948 E1.98276
G1 X108.321 Y56.982 E1.99177
G1 X110.219 Y57.306 E2.07182
G1 X113.839 Y57.994 E2.22502
G1 X114.035 Y58.033 E2.23333
G1 X116.033 Y58.452 E2.3182
G1 X119.497 Y59.24 E2.4659
G1 X119.696 Y59.287 E2.4744
G1 X121.387 Y59.704 E2.54681
G1 X125.005 Y60.661 E2.7024
G1 X126.896 Y61.197 E2.78412
G1 X127.087 Y61.252 E2.79238
G1 X130.209 Y62.199 E2.92802
G1 X132.253 Y62.861 E3.01734
G1 X132.454 Y62.928 E3.02615
G1 X135.527 Y63.99 E3.16133
G1 X136.67 Y64.403 E3.21185
G1 X136.968 Y64.515 E3.22509
G1 X140.326 Y65.839 E3.37516
G1 X141.243 Y66.216 E3.41638
G1 X141.482 Y66.317 E3.42717
G1 X141.979 Y66.536 E3.44975
G1 X144.911 Y67.868 E3.58363
G1 X145.366 Y68.083 E3.60456
G1 X145.671 Y68.233 E3.61869
G1 X146.624 Y68.719 E3.66316
G1 X148.846 Y69.903 E3.76784
G1 X149.004 Y69.988 E3.7753
G1 X149.621 Y70.33 E3.80463
G1 X150.142 Y70.638 E3.82979
G1 X150.912 Y71.122 E3.8676
G1 X152.777 Y72.334 E3.96008
G1 X153.233 Y72.64 E3.98291
G1 X154.038 Y73.235 E4.02452
G1 X155.058 Y74.062 E4.07912
G1 X156.172 Y75.002 E4.13972
G1 X156.729 Y75.486 E4.1704
G1 X157.418 Y76.138 E4.20983
G1 X158.039 Y76.832 E4.24855
G1 X158.557 Y77.464 E4.28253
G1 X159.424 Y78.552 E4.34037
G1 X159.871 Y79.13 E4.37074
G1 X160.419 Y79.904 E4.41017
G1 X160.9 Y80.721 E4.44959
G1 X161.389 Y81.763 E4.49744
G1 X161.451 Y81.915 E4.50427
G1 X161.598 Y82.295 E4.52121
G1 X161.758 Y82.735 E4.54067
G1 X162.183 Y83.932 E4.59348
G1 X162.422 Y84.635 E4.62435
G1 X162.689 Y85.545 E4.66378
G1 X162.879 Y86.474 E4.7032
G1 X162.99 Y87.416 E4.74264
G1 X163.02 Y88.364 E4.78207
G1 X162.938 Y89.618 E4.83432
G1 X162.884 Y90.023 E4.8513
G1 X162.776 Y90.726 E4.88087
G1 X162.576 Y91.917 E4.93108
G1 X162.458 Y92.57 E4.95867
G1 X162.25 Y93.495 E4.99809
G1 X161.965 Y94.4 E5.03754
G1 X161.605 Y95.277 E5.07695
G1 X161.172 Y96.121 E5.11639
G1 X160.669 Y96.925 E5.15582
G1 X160.264 Y97.481 E5.18441
G1 X159.642 Y98.277 E5.22641
G1 X158.986 Y99.088 E5.26978
G1 X158.51 Y99.662 E5.30078
G1 X157.874 Y100.366 E5.34023
G1 X157.181 Y101.014 E5.37967
G1 X156.646 Y101.446 E5.40826
G1 X155.898 Y102.013 E5.44728
G1 X155.717 Y102.148 E5.45667
G1 X149.403 Y106.738 E5.78121
G1 X147.342 Y108.281 E5.88825
G1 X145.379 Y109.84 E5.99247
G1 X143.454 Y111.459 E6.09704
G1 X141.598 Y113.113 E6.2004
G1 X139.756 Y114.849 E6.30563
G1 X137.976 Y116.624 E6.41014
G1 X136.249 Y118.447 E6.51455
G1 X134.592 Y120.299 E6.61786
G1 X132.963 Y122.225 E6.72274
G1 X131.388 Y124.199 E6.82773
G1 X129.889 Y126.192 E6.93141
G1 X128.427 Y128.253 E7.03646
G1 X127.03 Y130.344 E7.14101
G1 X125.702 Y132.462 E7.24495
G1 X124.433 Y134.616 E7.34889
G1 X123.227 Y136.803 E7.45272
G1 X122.069 Y139.054 E7.55796
G1 X120.988 Y141.307 E7.66186
G1 X119.96 Y143.615 E7.7669
G1 X118.99 Y145.966 E7.87264
G1 X118.116 Y148.281 E7.97551
G1 X117.3 Y150.63 E8.0789
G1 X116.826 Y152.067 E8.14181
G1 X116.491 Y152.955 E8.18127
G1 X116.083 Y153.811 E8.22069
G1 X115.604 Y154.629 E8.2601
G1 X114.795 Y155.733 E8.317
G1 X114.165 Y156.491 E8.35798
G1 X113.359 Y157.427 E8.40933
G1 X112.766 Y158.097 E8.44653
G1 X112.107 Y158.78 E8.48599
G1 X111.393 Y159.404 E8.52542
G1 X110.629 Y159.966 E8.56485
G1 X109.82 Y160.461 E8.60428
G1 X108.973 Y160.887 E8.6437
G1 X108.092 Y161.24 E8.68315
G1 X107.185 Y161.517 E8.72258
G1 X106.258 Y161.717 E8.76201
G1 X105.318 Y161.838 E8.80141
G1 X104.37 Y161.88 E8.84086
G1 X103.674 Y161.86 E8.86981
G1 X102.713 Y161.802 E8.90984
G1 X101.829 Y161.736 E8.94669
G1 X99.293 Y161.617 E9.05224
G1 X96.792 Y161.571 E9.15624
G1 X94.311 Y161.595 E9.25939
G1 X91.779 Y161.691 E9.36474
G1 X89.293 Y161.857 E9.46832
G1 X86.752 Y162.098 E9.57444
G1 X84.322 Y162.397 E9.67623
G1 X81.783 Y162.784 E9.78301
G1 X79.34 Y163.227 E9.88623
G1 X76.903 Y163.74 E9.98977
G1 X74.461 Y164.328 E10.0942
G1 X72.018 Y164.989 E10.19942
G1 X69.585 Y165.722 E10.30506
G1 X68.682 Y166.017 E10.34456
G1 X68.277 Y166.142 E10.36218
G1 X67.36 Y166.383 E10.4016
G1 X66.425 Y166.546 E10.44106
G1 X65.48 Y166.63 E10.4805
G1 X64.464 Y166.631 E10.52274
G1 X64.101 Y166.615 E10.53785
G1 X63.814 Y166.599 E10.5498
G1 X61.968 Y166.469 E10.62674
G1 X61.294 Y166.412 E10.65486
G1 X60.353 Y166.292 E10.6943
G1 X59.426 Y166.094 E10.73371
G1 X58.518 Y165.818 E10.77316
G1 X57.637 Y165.466 E10.81261
G1 X56.789 Y165.042 E10.85202
G1 X55.979 Y164.548 E10.89147
G1 X55.215 Y163.987 E10.93088
G1 X54.499 Y163.364 E10.97033
G1 X53.839 Y162.683 E11.00976
G1 X53.239 Y161.948 E11.04921
G1 X52.703 Y161.166 E11.08862
G1 X52.234 Y160.341 E11.12808
G1 X51.837 Y159.48 E11.1675
G1 X51.514 Y158.588 E11.20694
G1 X51.267 Y157.673 E11.24634
G1 X51.098 Y156.739 E11.2858
G1 X51.008 Y155.795 E11.32523
G1 X51.002 Y154.732 E11.36942
G1 X51.014 Y154.445 E11.38137
G1 X51.031 Y154.13 E11.39448
G1 X56.396 Y77.408 E14.592
G1 X56.457 Y76.691 E14.62192
G1 X56.638 Y75.427 E14.675
G1 X56.724 Y75.009 E14.69275
G1 X56.838 Y74.505 E14.71423
G1 X57.284 Y72.624 E14.7946
G1 X57.456 Y71.936 E14.82409
G1 X57.725 Y71.027 E14.8635
G1 X58.069 Y70.143 E14.90293
G1 X58.486 Y69.291 E14.94237
G1 X58.827 Y68.708 E14.97045
G1 X59.316 Y67.926 E15.0088
G1 X60.189 Y66.574 E15.07571
G1 X60.675 Y65.844 E15.11217
G1 X61.234 Y65.078 E15.15159
G1 X61.856 Y64.362 E15.19102
G1 X62.507 Y63.726 E15.22886
G0 F6000 X62.842 Y64.098
G1 F1200 X63.154 Y63.823 E15.24615
G1 X63.653 Y63.401 E15.27332
G1 X65.026 Y62.264 E15.34744
G1 X65.69 Y61.729 E15.38289
G1 X66.436 Y61.179 E15.42142
G1 X67.52 Y60.539 E15.47376
G1 X68.55 Y60.012 E15.52186
G1 X70.133 Y59.236 E15.59516
G1 X70.896 Y58.875 E15.63025
G1 X71.75 Y58.515 E15.66878
G1 X72.303 Y58.327 E15.69306
G1 X73.131 Y58.071 E15.72909
G1 X75.467 Y57.385 E15.83032
G1 X76.064 Y57.219 E15.85608
G1 X76.992 Y57.005 E15.89567
G1 X78.267 Y56.771 E15.94957
G1 X80.603 Y56.387 E16.04799
G1 X81.343 Y56.276 E16.0791
G1 X81.975 Y56.2 E16.10556
G1 X82.962 Y56.112 E16.14676
G1 X83.163 Y56.096 E16.15514
G1 X85.952 Y55.9 E16.27138
G1 X86.807 Y55.851 E16.30699
G1 X87.128 Y55.837 E16.32035
G1 X87.457 Y55.828 E16.33403
G1 X87.768 Y55.824 E16.34696
G1 X91.61 Y55.831 E16.50669
G1 X92.244 Y55.841 E16.53305
G1 X92.548 Y55.85 E16.5457
G1 X93.485 Y55.893 E16.5847
G1 X97.186 Y56.115 E16.73884
G1 X98.004 Y56.175 E16.77294
G1 X98.272 Y56.198 E16.78413
G1 X98.773 Y56.248 E16.80506
G1 X102.295 Y56.63 E16.95234
G1 X102.519 Y56.656 E16.96172
G1 X104.592 Y56.925 E17.04863
G1 X104.814 Y56.956 E17.05795
G1 X108.033 Y57.442 E17.19329
G1 X108.237 Y57.475 E17.20189
G1 X110.135 Y57.799 E17.28194
G1 X113.745 Y58.485 E17.43471
G1 X113.933 Y58.522 E17.44267
G1 X115.737 Y58.899 E17.5193
G1 X119.387 Y59.728 E17.67491
G1 X121.267 Y60.19 E17.7554
G1 X121.445 Y60.235 E17.76303
G1 X125.064 Y61.195 E17.9187
G1 X126.76 Y61.677 E17.992
G1 X130.063 Y62.678 E18.13549
G1 X130.262 Y62.74 E18.14416
G1 X132.098 Y63.336 E18.22441
G1 X135.363 Y64.463 E18.36801
G1 X136.5 Y64.873 E18.41826
G1 X136.784 Y64.98 E18.43088
G1 X140.142 Y66.304 E18.58095
G1 X141.053 Y66.678 E18.62189
G1 X141.281 Y66.775 E18.63219
G1 X141.772 Y66.991 E18.65449
G1 X144.698 Y68.32 E18.7881
G1 X145.153 Y68.535 E18.80902
G1 X145.444 Y68.678 E18.8225
G1 X146.397 Y69.164 E18.86698
G1 X148.611 Y70.344 E18.97129
G1 X149.379 Y70.768 E19.00776
G1 X149.876 Y71.061 E19.03174
G1 X150.495 Y71.449 E19.06212
G1 X152.362 Y72.66 E19.15464
G1 X152.954 Y73.056 E19.18425
G1 X153.724 Y73.623 E19.224
G1 X154.571 Y74.308 E19.26929
G1 X154.736 Y74.444 E19.27818
G1 X155.844 Y75.379 E19.33846
G1 X156.401 Y75.863 E19.36914
G1 X157.074 Y76.501 E19.40769
G1 X157.653 Y77.149 E19.44382
G1 X158.167 Y77.776 E19.47753
G1 X158.925 Y78.725 E19.52802
G1 X159.476 Y79.436 E19.56542
G1 X160.011 Y80.193 E19.60396
G1 X160.479 Y80.993 E19.64249
G1 X160.926 Y81.952 E19.68648
G1 X160.988 Y82.104 E19.69331
G1 X161.128 Y82.467 E19.70948
G1 X161.287 Y82.903 E19.72878
G1 X161.71 Y84.093 E19.78128
G1 X161.949 Y84.796 E19.81215
G1 X162.209 Y85.686 E19.8507
G1 X162.392 Y86.595 E19.88925
G1 X162.495 Y87.516 E19.92778
G1 X162.519 Y88.443 E19.96633
G1 X162.442 Y89.557 E20.01276
G1 X162.39 Y89.948 E20.02916
G1 X162.283 Y90.643 E20.05839
G1 X162.084 Y91.828 E20.10835
G1 X161.966 Y92.481 E20.13594
G1 X161.762 Y93.385 E20.17447
G1 X161.48 Y94.268 E20.213
G1 X161.124 Y95.124 E20.25155
G1 X160.695 Y95.946 E20.2901
G1 X160.197 Y96.729 E20.32868
G1 X159.869 Y97.173 E20.35163
G1 X159.252 Y97.963 E20.3933
G1 X158.601 Y98.769 E20.43638
G1 X158.125 Y99.343 E20.46738
G1 X157.503 Y100.031 E20.50594
G1 X156.824 Y100.662 E20.54448
G1 X156.344 Y101.048 E20.57008
G1 X155.596 Y101.615 E20.60911
G1 X155.423 Y101.743 E20.61805
G1 X149.12 Y106.324 E20.942
G1 X147.031 Y107.889 E21.05052
G1 X145.08 Y109.438 E21.15409
G1 X143.137 Y111.073 E21.25967
G1 X141.239 Y112.764 E21.36535
G1 X139.414 Y114.484 E21.46961
G1 X137.613 Y116.28 E21.57536
G1 X135.901 Y118.087 E21.67885
G1 X134.192 Y119.998 E21.78544
G1 X132.577 Y121.907 E21.88939
G1 X130.985 Y123.903 E21.99554
G1 X129.485 Y125.895 E22.09921
G1 X128.019 Y127.962 E22.20457
G1 X126.633 Y130.038 E22.30835
G1 X125.264 Y132.221 E22.41548
G1 X123.988 Y134.388 E22.52003
G1 X122.785 Y136.569 E22.62358
G1 X121.627 Y138.818 E22.72875
G1 X120.528 Y141.11 E22.83443
G1 X119.495 Y143.431 E22.94005
G1 X118.531 Y145.767 E23.04512
G1 X117.654 Y148.087 E23.14823
G1 X116.817 Y150.497 E23.2543
G1 X116.781 Y150.611 E23.25927
G1 X116.352 Y151.911 E23.31618
G1 X116.023 Y152.778 E23.35474
G1 X115.622 Y153.613 E23.39325
G1 X115.149 Y154.411 E23.43182
G1 X114.41 Y155.413 E23.48358
G1 X113.653 Y156.322 E23.53276
G1 X112.881 Y157.215 E23.58184
G1 X112.392 Y157.766 E23.61246
G1 X111.748 Y158.432 E23.65098
G1 X111.048 Y159.04 E23.68953
G1 X110.298 Y159.586 E23.7281
G1 X109.504 Y160.065 E23.76665
G1 X108.672 Y160.474 E23.80519
G1 X107.808 Y160.809 E23.84372
G1 X106.918 Y161.069 E23.88227
G1 X106.009 Y161.252 E23.92082
G1 X105.088 Y161.355 E23.95935
G1 X103.704 Y161.36 E24.01689
G1 X102.579 Y161.291 E24.06375
G1 X101.853 Y161.236 E24.09402
G1 X99.327 Y161.117 E24.19915
G1 X96.796 Y161.071 E24.3044
G1 X94.287 Y161.095 E24.40872
G1 X91.762 Y161.191 E24.51377
G1 X89.249 Y161.358 E24.61848
G1 X86.715 Y161.599 E24.7243
G1 X84.222 Y161.906 E24.82873
G1 X81.724 Y162.287 E24.93379
G1 X79.253 Y162.735 E25.0382
G1 X76.788 Y163.253 E25.14292
G1 X74.318 Y163.848 E25.24855
G1 X71.88 Y164.508 E25.35355
G1 X69.455 Y165.239 E25.45886
G1 X68.534 Y165.539 E25.49913
G1 X68.129 Y165.664 E25.51675
G1 X67.232 Y165.899 E25.5553
G1 X66.319 Y166.056 E25.59382
G1 X65.395 Y166.133 E25.63236
G1 X64.486 Y166.132 E25.67016
G1 X64.123 Y166.116 E25.68526
G1 X63.849 Y166.1 E25.69667
G1 X62.01 Y165.971 E25.77332
G1 X61.336 Y165.914 E25.80144
G1 X60.416 Y165.796 E25.84
G1 X59.51 Y165.599 E25.87855
G1 X58.625 Y165.325 E25.91707
G1 X57.766 Y164.976 E25.95561
G1 X56.94 Y164.554 E25.99418
G1 X56.154 Y164.062 E26.03273
G1 X55.414 Y163.505 E26.07124
G1 X54.723 Y162.885 E26.10983
G1 X54.089 Y162.209 E26.14837
G1 X53.516 Y161.48 E26.18692
G1 X53.007 Y160.705 E26.22546
G1 X52.568 Y159.889 E26.26399
G1 X52.2 Y159.038 E26.30253
G1 X51.907 Y158.158 E26.34109
G1 X51.69 Y157.257 E26.37963
G1 X51.552 Y156.34 E26.41818
G1 X51.494 Y155.415 E26.45671
G1 X51.501 Y154.753 E26.48424
G1 X51.513 Y154.466 E26.49618
G1 X51.53 Y154.165 E26.50871
G1 X56.882 Y77.612 E29.69918
G1 X56.956 Y76.734 E29.73582
G1 X57.128 Y75.526 E29.78655
G1 X57.212 Y75.118 E29.80387
G1 X57.324 Y74.62 E29.82509
G1 X57.769 Y72.746 E29.90517
G1 X57.941 Y72.058 E29.93465
G1 X58.204 Y71.169 E29.97319
G1 X58.543 Y70.306 E30.01174
G1 X58.956 Y69.475 E30.05032
G1 X59.251 Y68.973 E30.07453
G1 X59.736 Y68.198 E30.11254
G1 X60.698 Y66.71 E30.18621
G1 X61.091 Y66.121 E30.21564
G1 X61.638 Y65.373 E30.25417
G1 X62.248 Y64.675 E30.29271
G1 X62.842 Y64.098 E30.32714
G0 F6000 X63.176 Y64.469
G1 F1200 X63.477 Y64.205 E30.34378
G1 X63.971 Y63.787 E30.37069
G1 X65.454 Y62.56 E30.45071
G1 X66.003 Y62.118 E30.48001
G1 X66.733 Y61.582 E30.51767
G1 X67.749 Y60.984 E30.56668
G1 X68.77 Y60.461 E30.61437
G1 X70.353 Y59.685 E30.68767
G1 X71.109 Y59.327 E30.72245
G1 X71.944 Y58.976 E30.7601
G1 X72.451 Y58.804 E30.78236
G1 X73.272 Y58.55 E30.81809
G1 X75.455 Y57.908 E30.91269
G1 X76.198 Y57.701 E30.94476
G1 X77.083 Y57.496 E30.98253
G1 X78.15 Y57.299 E31.02764
G1 X80.684 Y56.881 E31.13442
G1 X81.417 Y56.77 E31.16524
G1 X82.02 Y56.698 E31.19049
G1 X83.007 Y56.61 E31.23168
G1 X83.198 Y56.595 E31.23965
G1 X86.12 Y56.391 E31.36143
G1 X86.836 Y56.35 E31.39124
G1 X87.142 Y56.337 E31.40398
G1 X87.471 Y56.328 E31.41766
G1 X87.768 Y56.324 E31.43001
G1 X91.602 Y56.331 E31.58941
G1 X92.236 Y56.341 E31.61577
G1 X92.526 Y56.35 E31.62783
G1 X93.455 Y56.392 E31.6665
G1 X97.15 Y56.613 E31.82039
G1 X97.968 Y56.673 E31.85449
G1 X98.223 Y56.695 E31.86513
G1 X98.719 Y56.745 E31.88586
G1 X102.241 Y57.127 E32.03314
G1 X102.455 Y57.152 E32.0421
G1 X104.528 Y57.421 E32.12901
G1 X104.739 Y57.451 E32.13787
G1 X107.958 Y57.937 E32.27322
G1 X108.153 Y57.968 E32.28143
G1 X110.051 Y58.292 E32.36148
G1 X110.243 Y58.327 E32.36959
G1 X113.651 Y58.976 E32.51383
G1 X113.831 Y59.012 E32.52146
G1 X115.812 Y59.427 E32.60561
G1 X119.276 Y60.215 E32.7533
G1 X121.147 Y60.675 E32.8334
G1 X124.749 Y61.628 E32.98831
G1 X124.927 Y61.676 E32.99598
G1 X126.623 Y62.158 E33.06928
G1 X129.918 Y63.156 E33.21242
G1 X130.108 Y63.216 E33.2207
G1 X132.127 Y63.873 E33.30897
G1 X135.341 Y64.985 E33.45037
G1 X136.33 Y65.343 E33.4941
G1 X136.601 Y65.445 E33.50613
G1 X140.1 Y66.826 E33.66253
G1 X140.863 Y67.14 E33.69683
G1 X141.447 Y67.394 E33.72331
G1 X144.341 Y68.706 E33.85541
G1 X144.939 Y68.988 E33.8829
G1 X145.217 Y69.124 E33.89577
G1 X146.339 Y69.698 E33.94816
G1 X148.519 Y70.863 E34.05093
G1 X149.136 Y71.205 E34.08026
G1 X149.611 Y71.485 E34.10318
G1 X150.368 Y71.961 E34.14036
G1 X152.09 Y73.079 E34.22572
G1 X152.675 Y73.471 E34.25499
G1 X153.409 Y74.012 E34.2929
G1 X154.256 Y74.697 E34.33819
G1 X154.414 Y74.827 E34.3467
G1 X155.516 Y75.757 E34.40665
G1 X156.073 Y76.241 E34.43733
G1 X156.73 Y76.864 E34.47497
G1 X157.266 Y77.467 E34.50851
G1 X157.776 Y78.088 E34.54192
G1 X158.633 Y79.163 E34.59908
G1 X159.08 Y79.741 E34.62946
G1 X159.602 Y80.481 E34.66711
G1 X160.056 Y81.264 E34.70474
G1 X160.463 Y82.141 E34.74493
G1 X160.525 Y82.293 E34.75176
