;FLAVOR:Marlin
;TIME:3345
;Filament used: 1.90485m
;Layer height: 0.2
;MINX:76.307
;MINY:92.163
;MINZ:0.2
;MAXX:141.806
;MAXY:140.663
;MAXZ:30.2
;Generated with Cura_SteamEngine 4.8.0
M140 S60
M105
M190 S60
M104 S200
M105
M109 S200
M82 ;absolute extrusion mode
; Ender 3 Custom Start G-code
G92 E0 ; Reset Extruder
G28 ; Home all axes
G1 Z2.0 F3000 ; Move Z Axis up little to prevent scratching of Heat Bed
G1 X0.1 Y20 Z0.3 F5000.0 ; Move to start position
G1 X0.1 Y200.0 Z0.3 F1500.0 E15 ; Draw the first line
G1 X0.4 Y200.0 Z0.3 F5000.0 ; Move to side a little
G1 X0.4 Y20 Z0.3 F1500.0 E30 ; Draw the second line
G92 E0 ; Reset Extruder
G1 Z2.0 F3000 ; Move Z Axis up little to prevent scratching of Heat Bed
G1 X5 Y20 Z0.3 F5000.0 ; Move over to prevent blob squish
G92 E0
G92 E0
G1 F3000 E-5
;LAYER_COUNT:150
;LAYER:0
M107
M205 X8 Y8
G1 F300 Z0.4
G0 F6000 X80.21 Y95.186 Z0.4
;TYPE:SKIRT
G1 F300 Z0.2
G1 F3000 E0
G1 F1800 X80.957 Y94.568 E0.04031
G1 X81.752 Y94.014 E0.08059
G1 X82.59 Y93.527 E0.12089
G1 X83.466 Y93.111 E0.16121
G1 X84.373 Y92.769 E0.20151
G1 X85.305 Y92.502 E0.24181
G1 X86.255 Y92.314 E0.28208
G1 X87.218 Y92.204 E0.32237
G1 X87.773 Y92.177 E0.34548
G1 X88.172 Y92.167 E0.36207
G1 X88.466 Y92.163 E0.37429
G1 X129.518 Y92.165 E2.08104
G1 X130.215 Y92.175 E2.11002
G1 X131.182 Y92.229 E2.15028
G1 X132.142 Y92.363 E2.19058
G1 X133.088 Y92.575 E2.23089
G1 X134.013 Y92.864 E2.27118
G1 X134.912 Y93.229 E2.31152
G1 X135.777 Y93.666 E2.35181
G1 X136.603 Y94.173 E2.3921
G1 X137.384 Y94.747 E2.4324
G1 X138.115 Y95.383 E2.47268
G1 X138.792 Y96.077 E2.51299
G1 X139.409 Y96.825 E2.5533
G1 X139.962 Y97.621 E2.5936
G1 X140.448 Y98.46 E2.63391
G1 X140.863 Y99.336 E2.67421
G1 X141.204 Y100.243 E2.7145
G1 X141.47 Y101.175 E2.75479
G1 X141.658 Y102.126 E2.7951
G1 X141.766 Y103.089 E2.83538
G1 X141.791 Y103.595 E2.85645
G1 X141.8 Y103.916 E2.8698
G1 X141.805 Y104.244 E2.88344
G1 X141.806 Y128.335 E3.88502
G1 X141.797 Y129.051 E3.91479
G1 X141.745 Y130.019 E3.9551
G1 X141.613 Y130.979 E3.99538
G1 X141.403 Y131.925 E4.03567
G1 X141.115 Y132.851 E4.07599
G1 X140.752 Y133.75 E4.1163
G1 X140.316 Y134.615 E4.15657
G1 X139.81 Y135.442 E4.19688
G1 X139.238 Y136.225 E4.23719
G1 X138.603 Y136.957 E4.27748
G1 X137.91 Y137.635 E4.31779
G1 X137.164 Y138.253 E4.35806
G1 X136.369 Y138.808 E4.39837
G1 X135.531 Y139.295 E4.43867
G1 X134.656 Y139.712 E4.47897
G1 X133.749 Y140.055 E4.51928
G1 X132.817 Y140.322 E4.55959
G1 X131.867 Y140.511 E4.59986
G1 X130.904 Y140.622 E4.64016
G1 X130.343 Y140.649 E4.66351
G1 X129.945 Y140.659 E4.68006
G1 X129.65 Y140.663 E4.69233
G1 X88.612 Y140.662 E6.39849
G1 X87.914 Y140.653 E6.42751
G1 X86.946 Y140.601 E6.46782
G1 X85.985 Y140.468 E6.50815
G1 X85.039 Y140.258 E6.54844
G1 X84.114 Y139.97 E6.58872
G1 X83.215 Y139.606 E6.62904
G1 X82.349 Y139.17 E6.66935
G1 X81.523 Y138.664 E6.70962
G1 X80.74 Y138.092 E6.74994
G1 X80.008 Y137.457 E6.79022
G1 X79.33 Y136.763 E6.83056
G1 X78.712 Y136.017 E6.87084
G1 X78.158 Y135.222 E6.91112
G1 X77.671 Y134.383 E6.95145
G1 X77.255 Y133.508 E6.99173
G1 X76.912 Y132.601 E7.03205
G1 X76.645 Y131.669 E7.07236
G1 X76.456 Y130.719 E7.11263
G1 X76.346 Y129.756 E7.15292
G1 X76.319 Y129.215 E7.17544
G1 X76.311 Y128.913 E7.188
G1 X76.307 Y128.598 E7.2011
G1 X76.309 Y122.675 E7.44735
G1 X76.309 Y104.452 E8.20498
G1 X76.318 Y103.768 E8.23342
G1 X76.371 Y102.801 E8.27368
G1 X76.503 Y101.84 E8.31401
G1 X76.714 Y100.894 E8.3543
G1 X77.002 Y99.969 E8.39458
G1 X77.366 Y99.07 E8.43491
G1 X77.802 Y98.205 E8.47518
G1 X78.309 Y97.378 E8.51551
G1 X78.881 Y96.596 E8.55579
G1 X79.517 Y95.864 E8.5961
G1 X80.21 Y95.186 E8.63641
G0 F6000 X80.697 Y95.423
G1 F1800 X81.439 Y94.832 E8.67585
G1 X82.229 Y94.307 E8.71529
G1 X83.059 Y93.849 E8.7547
G1 X83.926 Y93.463 E8.79415
G1 X84.822 Y93.151 E8.8336
G1 X85.741 Y92.916 E8.87304
G1 X86.676 Y92.759 E8.91245
G1 X87.785 Y92.677 E8.95869
G1 X88.184 Y92.667 E8.97528
G1 X88.466 Y92.663 E8.98701
G1 X129.51 Y92.665 E10.69342
G1 X130.207 Y92.675 E10.7224
G1 X131.154 Y92.729 E10.76183
G1 X132.093 Y92.862 E10.80126
G1 X133.018 Y93.074 E10.84072
G1 X133.921 Y93.363 E10.88013
G1 X134.797 Y93.727 E10.91957
G1 X135.639 Y94.163 E10.95899
G1 X136.442 Y94.669 E10.99845
G1 X137.198 Y95.24 E11.03784
G1 X137.905 Y95.874 E11.07732
G1 X138.555 Y96.564 E11.11674
G1 X139.144 Y97.307 E11.15615
G1 X139.669 Y98.097 E11.19559
G1 X140.126 Y98.928 E11.23502
G1 X140.511 Y99.795 E11.27446
G1 X140.822 Y100.691 E11.31389
G1 X141.056 Y101.611 E11.35336
G1 X141.211 Y102.546 E11.39276
G1 X141.292 Y103.609 E11.43708
G1 X141.301 Y103.93 E11.45043
G1 X141.305 Y104.244 E11.46349
G1 X141.306 Y128.328 E12.46479
G1 X141.297 Y129.044 E12.49456
G1 X141.245 Y129.991 E12.53399
G1 X141.114 Y130.931 E12.57345
G1 X140.904 Y131.856 E12.61288
G1 X140.616 Y132.76 E12.65233
G1 X140.254 Y133.636 E12.69173
G1 X139.819 Y134.479 E12.73117
G1 X139.315 Y135.282 E12.77059
G1 X138.744 Y136.04 E12.81004
G1 X138.112 Y136.747 E12.84947
G1 X137.423 Y137.399 E12.88891
G1 X136.681 Y137.99 E12.92834
G1 X135.892 Y138.516 E12.96777
G1 X135.061 Y138.974 E13.00722
G1 X134.195 Y139.361 E13.04665
G1 X133.3 Y139.673 E13.08606
G1 X132.381 Y139.908 E13.1255
G1 X131.446 Y140.066 E13.16492
G1 X130.331 Y140.149 E13.2114
G1 X129.933 Y140.159 E13.22796
G1 X129.65 Y140.163 E13.23972
G1 X88.618 Y140.162 E14.94564
G1 X87.92 Y140.153 E14.97466
G1 X86.973 Y140.101 E15.01409
G1 X86.034 Y139.969 E15.05351
G1 X85.109 Y139.759 E15.09295
G1 X84.205 Y139.471 E15.13239
G1 X83.329 Y139.108 E15.17182
G1 X82.486 Y138.673 E15.21125
G1 X81.683 Y138.168 E15.25069
G1 X80.925 Y137.598 E15.29012
G1 X80.218 Y136.966 E15.32955
G1 X79.567 Y136.276 E15.36899
G1 X78.976 Y135.534 E15.40843
G1 X78.45 Y134.745 E15.44785
G1 X77.992 Y133.914 E15.4873
G1 X77.606 Y133.048 E15.52672
G1 X77.294 Y132.152 E15.56616
G1 X77.059 Y131.233 E15.6056
G1 X76.902 Y130.298 E15.64502
G1 X76.819 Y129.202 E15.69071
G1 X76.811 Y128.9 E15.70327
G1 X76.807 Y128.598 E15.71583
G1 X76.809 Y122.675 E15.96208
G1 X76.809 Y104.459 E16.71941
G1 X76.818 Y103.775 E16.74785
G1 X76.87 Y102.828 E16.78728
G1 X77.002 Y101.889 E16.82671
G1 X77.213 Y100.964 E16.86615
G1 X77.501 Y100.06 E16.9056
G1 X77.864 Y99.184 E16.94502
G1 X78.299 Y98.341 E16.98446
G1 X78.804 Y97.538 E17.0239
G1 X79.375 Y96.781 E17.06332
G1 X80.007 Y96.074 E17.10274
G1 X80.697 Y95.423 E17.14218
G0 F6000 X81.184 Y95.666
G1 F1800 X81.921 Y95.103 E17.18074
G1 X82.703 Y94.607 E17.21924
G1 X83.526 Y94.179 E17.25781
G1 X84.383 Y93.824 E17.29637
G1 X85.267 Y93.544 E17.33493
G1 X86.171 Y93.341 E17.37345
G1 X87.09 Y93.217 E17.412
G1 X87.798 Y93.176 E17.44149
G1 X88.197 Y93.166 E17.45808
G1 X88.466 Y93.163 E17.46926
G1 X129.503 Y93.165 E19.17538
G1 X130.2 Y93.175 E19.20436
G1 X131.126 Y93.228 E19.24293
G1 X132.043 Y93.361 E19.28145
G1 X132.946 Y93.573 E19.32001
G1 X133.827 Y93.861 E19.35855
G1 X134.68 Y94.224 E19.39709
G1 X135.499 Y94.66 E19.43566
G1 X136.277 Y95.164 E19.4742
G1 X137.009 Y95.733 E19.51275
G1 X137.688 Y96.364 E19.55129
G1 X138.311 Y97.05 E19.58981
G1 X138.873 Y97.788 E19.62838
G1 X139.369 Y98.572 E19.66695
G1 X139.795 Y99.395 E19.70548
G1 X140.149 Y100.252 E19.74403
G1 X140.428 Y101.136 E19.78257
G1 X140.63 Y102.041 E19.82112
G1 X140.753 Y102.96 E19.85967
G1 X140.792 Y103.623 E19.88728
G1 X140.801 Y103.944 E19.90063
G1 X140.805 Y104.244 E19.9131
G1 X140.806 Y128.322 E20.91415
G1 X140.797 Y129.038 E20.94392
G1 X140.746 Y129.964 E20.98248
G1 X140.614 Y130.882 E21.02104
G1 X140.405 Y131.785 E21.05957
G1 X140.118 Y132.666 E21.09809
G1 X139.756 Y133.52 E21.13666
G1 X139.322 Y134.339 E21.17519
G1 X138.819 Y135.118 E21.21374
G1 X138.251 Y135.851 E21.2523
G1 X137.622 Y136.532 E21.29084
G1 X136.936 Y137.156 E21.32939
G1 X136.199 Y137.719 E21.36795
G1 X135.417 Y138.216 E21.40647
G1 X134.595 Y138.644 E21.445
G1 X133.738 Y139 E21.48359
G1 X132.855 Y139.28 E21.5221
G1 X131.95 Y139.483 E21.56066
G1 X131.031 Y139.608 E21.59922
G1 X130.318 Y139.65 E21.62891
G1 X129.92 Y139.66 E21.64546
G1 X129.65 Y139.663 E21.65669
G1 X88.624 Y139.662 E23.36235
G1 X87.926 Y139.653 E23.39138
G1 X87.001 Y139.601 E23.42989
G1 X86.083 Y139.47 E23.46845
G1 X85.18 Y139.26 E23.50699
G1 X84.298 Y138.973 E23.54555
G1 X83.445 Y138.61 E23.58409
G1 X82.626 Y138.176 E23.62263
G1 X81.847 Y137.673 E23.66118
G1 X81.114 Y137.105 E23.69973
G1 X80.434 Y136.475 E23.73827
G1 X79.81 Y135.79 E23.7768
G1 X79.247 Y135.053 E23.81536
G1 X78.75 Y134.27 E23.85391
G1 X78.322 Y133.447 E23.89248
G1 X77.967 Y132.591 E23.93101
G1 X77.687 Y131.707 E23.96956
G1 X77.484 Y130.803 E24.00808
G1 X77.36 Y129.884 E24.04663
G1 X77.319 Y129.189 E24.07558
G1 X77.311 Y128.887 E24.08814
G1 X77.307 Y128.598 E24.10015
G1 X77.309 Y122.675 E24.3464
G1 X77.309 Y104.466 E25.10345
G1 X77.318 Y103.782 E25.13189
G1 X77.37 Y102.856 E25.17044
G1 X77.502 Y101.938 E25.209
G1 X77.712 Y101.035 E25.24755
G1 X77.999 Y100.154 E25.28607
G1 X78.362 Y99.3 E25.32465
G1 X78.796 Y98.481 E25.36318
G1 X79.3 Y97.703 E25.40172
G1 X79.868 Y96.97 E25.44028
G1 X80.498 Y96.29 E25.47882
G1 X81.184 Y95.666 E25.51737
G0 F6000 X80.987 Y96.511
G1 F1800 X81.669 Y95.915 E25.55503
G1 X82.4 Y95.382 E25.59264
G1 X83.176 Y94.915 E25.63029
G1 X83.99 Y94.519 E25.66793
G1 X84.836 Y94.196 E25.70558
G1 X85.707 Y93.948 E25.74323
G1 X86.596 Y93.779 E25.78085
G1 X87.81 Y93.676 E25.8315
G1 X88.209 Y93.666 E25.8481
G1 X88.466 Y93.663 E25.85878
G1 X129.496 Y93.665 E27.56461
G1 X130.193 Y93.675 E27.59359
G1 X131.097 Y93.728 E27.63124
G1 X131.992 Y93.86 E27.66885
G1 X132.873 Y94.071 E27.70652
G1 X133.731 Y94.359 E27.74415
G1 X134.561 Y94.722 E27.78181
G1 X135.355 Y95.156 E27.81943
G1 X136.108 Y95.659 E27.85708
G1 X136.814 Y96.226 E27.89472
G1 X137.467 Y96.853 E27.93236
G1 X138.062 Y97.535 E27.96999
G1 X138.594 Y98.268 E28.00764
G1 X139.06 Y99.044 E28.04528
G1 X139.455 Y99.858 E28.08289
G1 X139.777 Y100.704 E28.12053
G1 X140.023 Y101.576 E28.1582
G1 X140.192 Y102.465 E28.19582
G1 X140.292 Y103.637 E28.24472
G1 X140.301 Y103.958 E28.25807
G1 X140.305 Y104.244 E28.26996
G1 X140.306 Y128.316 E29.27076
G1 X140.297 Y129.032 E29.30053
G1 X140.246 Y129.936 E29.33817
G1 X140.115 Y130.831 E29.37578
G1 X139.906 Y131.712 E29.41343
G1 X139.619 Y132.571 E29.45108
G1 X139.258 Y133.401 E29.48871
G1 X138.825 Y134.196 E29.52635
G1 X138.324 Y134.95 E29.56398
G1 X137.758 Y135.657 E29.60164
G1 X137.132 Y136.311 E29.63927
G1 X136.451 Y136.907 E29.6769
G1 X135.72 Y137.441 E29.71454
G1 X134.944 Y137.908 E29.75219
G1 X134.13 Y138.305 E29.78984
G1 X133.285 Y138.628 E29.82745
G1 X132.414 Y138.876 E29.8651
G1 X131.525 Y139.046 E29.90273
G1 X130.305 Y139.15 E29.95364
G1 X129.907 Y139.16 E29.97019
G1 X129.65 Y139.163 E29.98088
G1 X88.631 Y139.162 E31.68625
G1 X87.933 Y139.153 E31.71527
G1 X87.029 Y139.102 E31.75291
G1 X86.133 Y138.97 E31.79057
G1 X85.253 Y138.761 E31.82817
G1 X84.394 Y138.474 E31.86582
G1 X83.564 Y138.113 E31.90345
G1 X82.769 Y137.68 E31.94109
G1 X82.015 Y137.178 E31.97875
G1 X81.309 Y136.612 E32.01637
G1 X80.655 Y135.986 E32.05401
G1 X80.059 Y135.304 E32.09167
G1 X79.525 Y134.573 E32.1293
G1 X79.058 Y133.797 E32.16696
G1 X78.662 Y132.983 E32.20459
G1 X78.338 Y132.138 E32.24222
G1 X78.091 Y131.267 E32.27986
G1 X77.921 Y130.378 E32.31749
G1 X77.819 Y129.175 E32.36768
G1 X77.811 Y128.873 E32.38024
G1 X77.807 Y128.599 E32.39163
G1 X77.809 Y122.676 E32.63788
G1 X77.809 Y104.472 E33.39472
G1 X77.818 Y103.788 E33.42316
G1 X77.87 Y102.884 E33.4608
G1 X78.001 Y101.989 E33.49841
G1 X78.211 Y101.108 E33.53606
G1 X78.498 Y100.249 E33.57372
G1 X78.859 Y99.419 E33.61135
G1 X79.293 Y98.624 E33.649
G1 X79.795 Y97.871 E33.68663
G1 X80.361 Y97.164 E33.72428
G1 X80.987 Y96.511 E33.76189
G1 F3000 E28.76189
G1 F300 Z0.4
;MESH:Ender_3_Rail_Cover_v2_Logo.stl
G0 F6000 X129.805 Y128.663 Z0.4
;TYPE:WALL-OUTER
G1 F300 Z0.2
G1 F3000 E33.76189
G1 F1200 X88.306 Y128.663 E35.48722
G1 X88.309 Y122.733 E35.73376
G1 X88.308 Y104.163 E36.50581
G1 X129.805 Y104.164 E38.23105
G1 X129.805 Y128.663 E39.2496
G0 F6000 X129.315 Y128.173
;TYPE:SKIN
G1 F1200 X88.796 Y128.173 E40.93419
G1 X88.799 Y122.733 E41.16036
G1 X88.798 Y104.653 E41.91204
G1 X129.315 Y104.654 E43.59654
G1 X129.315 Y128.173 E44.57434
G1 F3000 E39.57434
G1 F300 Z0.4
G0 F6000 X129.114 Y105.073 Z0.4
G1 F300 Z0.2
G1 F3000 E44.57434
G1 F1200 X128.895 Y104.854 E44.58722
G0 F6000 X128.188 Y104.854
G1 F1200 X129.114 Y105.78 E44.64167
G0 F6000 X129.114 Y106.487
G1 F1200 X127.481 Y104.854 E44.73768
G0 F6000 X126.774 Y104.854
G1 F1200 X129.114 Y107.194 E44.87526
G0 F6000 X129.114 Y107.901
G1 F1200 X126.067 Y104.854 E45.05442
G0 F6000 X125.36 Y104.854
G1 F1200 X129.114 Y108.608 E45.27514
G0 F6000 X129.114 Y109.315
G1 F1200 X124.653 Y104.854 E45.53743
G0 F6000 X123.945 Y104.854
G1 F1200 X129.114 Y110.022 E45.84131
G0 F6000 X129.114 Y110.73
G1 F1200 X123.238 Y104.854 E46.1868
G0 F6000 X122.531 Y104.854
G1 F1200 X129.114 Y111.437 E46.57386
G0 F6000 X129.114 Y112.144
G1 F1200 X121.824 Y104.854 E47.00248
G0 F6000 X121.117 Y104.854
G1 F1200 X129.114 Y112.851 E47.47267
G0 F6000 X129.114 Y113.558
G1 F1200 X120.41 Y104.854 E47.98443
G0 F6000 X119.703 Y104.854
G1 F1200 X129.114 Y114.265 E48.53776
G0 F6000 X129.114 Y114.972
G1 F1200 X118.996 Y104.854 E49.13266
G0 F6000 X118.289 Y104.854
G1 F1200 X129.114 Y115.679 E49.76913
G0 F6000 X129.114 Y116.386
G1 F1200 X117.581 Y104.854 E50.4472
G0 F6000 X116.874 Y104.854
G1 F1200 X129.114 Y117.094 E51.16686
G0 F6000 X129.114 Y117.801
G1 F1200 X116.167 Y104.854 E51.9281
G0 F6000 X115.46 Y104.854
G1 F1200 X129.114 Y118.508 E52.7309
G0 F6000 X129.114 Y119.215
G1 F1200 X114.753 Y104.854 E53.57527
G0 F6000 X114.046 Y104.854
G1 F1200 X129.114 Y119.922 E54.46121
G0 F6000 X129.114 Y120.629
G1 F1200 X113.339 Y104.854 E55.38872
G0 F6000 X112.632 Y104.854
G1 F1200 X129.114 Y121.336 E56.3578
G0 F6000 X129.114 Y122.043
G1 F1200 X111.925 Y104.854 E57.36845
G0 F6000 X111.217 Y104.854
G1 F1200 X129.114 Y122.75 E58.4207
G0 F6000 X129.114 Y123.458
G1 F1200 X110.51 Y104.854 E59.51454
G0 F6000 X109.803 Y104.854
G1 F1200 X129.114 Y124.165 E60.64995
G0 F6000 X129.114 Y124.872
G1 F1200 X109.096 Y104.854 E61.82693
G0 F6000 X108.388 Y104.853
G1 F1200 X129.114 Y125.579 E63.04554
G0 F6000 X129.114 Y126.286
G1 F1200 X107.681 Y104.853 E64.30572
G0 F6000 X106.974 Y104.853
G1 F1200 X129.114 Y126.993 E65.60747
G0 F6000 X129.114 Y127.7
G1 F1200 X106.267 Y104.853 E66.95078
G0 F6000 X105.56 Y104.853
G1 F1200 X128.679 Y127.972 E68.31009
G0 F6000 X127.972 Y127.972
G1 F1200 X104.853 Y104.853 E69.6694
G0 F6000 X104.146 Y104.853
G1 F1200 X127.265 Y127.972 E71.02871
G0 F6000 X126.557 Y127.972
G1 F1200 X103.439 Y104.853 E72.38799
G0 F6000 X102.732 Y104.853
G1 F1200 X125.85 Y127.972 E73.74727
G0 F6000 X125.143 Y127.972
G1 F1200 X102.024 Y104.853 E75.10658
G0 F6000 X101.317 Y104.853
G1 F1200 X124.436 Y127.972 E76.46589
G0 F6000 X123.729 Y127.972
G1 F1200 X100.61 Y104.853 E77.82519
G0 F6000 X99.903 Y104.853
G1 F1200 X123.022 Y127.972 E79.1845
G0 F6000 X122.315 Y127.972
G1 F1200 X99.196 Y104.853 E80.54381
G0 F6000 X98.489 Y104.853
G1 F1200 X121.608 Y127.972 E81.90312
G0 F6000 X120.901 Y127.972
G1 F1200 X97.782 Y104.853 E83.26243
G0 F6000 X97.075 Y104.853
G1 F1200 X120.194 Y127.972 E84.62174
G0 F6000 X119.486 Y127.972
G1 F1200 X96.368 Y104.853 E85.98102
G0 F6000 X95.66 Y104.853
G1 F1200 X118.779 Y127.972 E87.34033
G0 F6000 X118.072 Y127.972
G1 F1200 X94.953 Y104.853 E88.69963
G0 F6000 X94.246 Y104.853
G1 F1200 X117.365 Y127.972 E90.05894
G0 F6000 X116.658 Y127.972
G1 F1200 X93.539 Y104.853 E91.41825
G0 F6000 X92.832 Y104.853
G1 F1200 X115.951 Y127.972 E92.77756
G0 F6000 X115.244 Y127.972
G1 F1200 X92.125 Y104.853 E94.13687
G0 F6000 X91.418 Y104.853
G1 F1200 X114.537 Y127.972 E95.49618
G0 F6000 X113.83 Y127.972
G1 F1200 X90.711 Y104.853 E96.85549
G0 F6000 X90.004 Y104.853
G1 F1200 X113.122 Y127.972 E98.21476
G0 F6000 X112.415 Y127.972
G1 F1200 X89.296 Y104.853 E99.57407
G0 F6000 X88.997 Y105.261
G1 F1200 X111.708 Y127.972 E100.90939
G0 F6000 X111.001 Y127.972
G1 F1200 X88.997 Y105.968 E102.20314
G0 F6000 X88.997 Y106.675
G1 F1200 X110.294 Y127.972 E103.45533
G0 F6000 X109.587 Y127.972
G1 F1200 X88.997 Y107.382 E104.66594
G0 F6000 X88.997 Y108.089
