;FLAVOR:Marlin
;TIME:4494
;Filament used: 3.71871m
;Layer height: 0.2
;MINX:22.555
;MINY:93.694
;MINZ:0.2
;MAXX:199.204
;MAXY:186.715
;MAXZ:9.35
;Generated with Cura_SteamEngine 4.8.0
M140 S65
M105
M190 S65
M104 S210
M105
M109 S210
M82 ;absolute extrusion mode
; Ender 3 Custom Start G-code
G92 E0 ; Reset Extruder
G28 ; Home all axes
G1 Z2.0 F3000 ; Move Z Axis up little to prevent scratching of Heat Bed
G1 X0.1 Y20 Z0.3 F5000.0 ; Move to start position
G1 X0.1 Y200.0 Z0.3 F1500.0 E15 ; Draw the first line
G1 X0.4 Y200.0 Z0.3 F5000.0 ; Move to side a little
G1 X0.4 Y20 Z0.3 F1500.0 E30 ; Draw the second line
G92 E0 ; Reset Extruder
G1 Z2.0 F3000 ; Move Z Axis up little to prevent scratching of Heat Bed
G1 X5 Y20 Z0.3 F5000.0 ; Move over to prevent blob squish
G92 E0
G92 E0
G1 F2700 E-5
;LAYER_COUNT:21
;LAYER:0
M107
G1 F300 Z0.4
G0 F6000 X157.203 Y103.133 Z0.4
;TYPE:SKIRT
G1 F300 Z0.2
G1 F2700 E0
G1 F1200 X157.633 Y102.486 E0.0323
G1 X157.893 Y102.123 E0.05086
G1 X158.401 Y101.467 E0.08536
G1 X158.663 Y101.153 E0.10236
G1 X159.144 Y100.613 E0.13242
G1 X159.465 Y100.275 E0.1518
G1 X159.982 Y99.764 E0.18203
G1 X160.303 Y99.467 E0.20021
G1 X160.915 Y98.94 E0.23378
G1 X161.145 Y98.756 E0.24603
G1 X161.81 Y98.263 E0.28045
G1 X162.176 Y98.012 E0.2989
G1 X162.809 Y97.609 E0.3301
G1 X163.25 Y97.348 E0.3514
G1 X163.965 Y96.959 E0.38524
G1 X164.216 Y96.834 E0.3969
G1 X164.852 Y96.541 E0.42601
G1 X165.375 Y96.32 E0.44962
G1 X166.092 Y96.046 E0.48153
G1 X166.336 Y95.962 E0.49226
G1 X167.08 Y95.734 E0.52461
G1 X167.579 Y95.6 E0.54609
G1 X168.301 Y95.431 E0.57692
G1 X168.703 Y95.351 E0.59396
G1 X169.453 Y95.228 E0.62556
G1 X169.777 Y95.186 E0.63914
G1 X170.557 Y95.113 E0.67171
G1 X171.012 Y95.086 E0.69066
G1 X171.459 Y95.068 E0.70926
G1 X172.54 Y95.047 E0.75421
G1 X172.758 Y95.045 E0.76328
G1 X181.265 Y95.045 E1.11696
G1 X182.199 Y95.06 E1.15579
G1 X182.919 Y95.095 E1.18576
G1 X183.504 Y95.142 E1.21016
G1 X184.272 Y95.23 E1.2423
G1 X184.592 Y95.278 E1.25575
G1 X185.374 Y95.424 E1.28883
G1 X185.831 Y95.526 E1.30829
G1 X186.543 Y95.71 E1.33887
G1 X186.939 Y95.826 E1.35602
G1 X187.639 Y96.056 E1.38666
G1 X188 Y96.188 E1.40264
G1 X188.74 Y96.489 E1.43585
G1 X189.108 Y96.654 E1.45262
G1 X189.784 Y96.984 E1.48389
G1 X190.215 Y97.213 E1.50418
G1 X190.87 Y97.59 E1.5356
G1 X191.11 Y97.739 E1.54735
G1 X191.739 Y98.16 E1.57882
G1 X192.268 Y98.54 E1.6059
G1 X192.997 Y99.11 E1.64437
G1 X193.118 Y99.213 E1.65098
G1 X193.568 Y99.618 E1.67615
G1 X193.995 Y100.023 E1.70061
G1 X194.425 Y100.453 E1.7259
G1 X194.548 Y100.583 E1.73334
G1 X195.184 Y101.316 E1.77368
G1 X195.567 Y101.798 E1.79928
G1 X196.03 Y102.425 E1.83168
G1 X196.263 Y102.764 E1.84879
G1 X196.68 Y103.417 E1.881
G1 X196.886 Y103.766 E1.89785
G1 X197.248 Y104.429 E1.92925
G1 X197.408 Y104.747 E1.94405
G1 X197.716 Y105.413 E1.97456
G1 X197.894 Y105.833 E1.99352
G1 X198.176 Y106.57 E2.02633
G1 X198.313 Y106.969 E2.04387
G1 X198.541 Y107.715 E2.0763
G1 X198.652 Y108.13 E2.09416
G1 X198.818 Y108.843 E2.1246
G1 X198.886 Y109.185 E2.13909
G1 X199.006 Y109.912 E2.16973
G1 X199.079 Y110.467 E2.193
G1 X199.173 Y111.707 E2.2447
G1 X199.201 Y113.092 E2.3023
G1 X199.203 Y113.314 E2.31153
G1 X199.204 Y115.746 E2.41264
G1 X199.19 Y116.613 E2.44869
G1 X199.18 Y116.932 E2.46196
G1 X199.145 Y117.653 E2.49197
G1 X199.049 Y119.223 E2.55736
G1 X198.966 Y121.733 E2.66177
G1 X198.956 Y124.242 E2.76609
G1 X199.015 Y126.754 E2.87055
G1 X199.137 Y129.152 E2.97038
G1 X199.17 Y129.672 E2.99204
G1 X199.187 Y130.031 E3.00698
G1 X199.197 Y130.409 E3.0227
G1 X199.203 Y130.956 E3.04545
G1 X199.202 Y167.803 E4.57737
G1 X199.187 Y168.739 E4.61629
G1 X199.151 Y169.475 E4.64692
G1 X199.106 Y170.026 E4.66991
G1 X199.019 Y170.779 E4.70142
G1 X198.956 Y171.199 E4.71908
G1 X198.808 Y171.99 E4.75253
G1 X198.728 Y172.347 E4.76774
G1 X198.546 Y173.05 E4.79794
G1 X198.42 Y173.48 E4.81656
G1 X198.195 Y174.166 E4.84658
G1 X198.065 Y174.523 E4.86238
G1 X197.765 Y175.265 E4.89565
G1 X197.588 Y175.661 E4.91368
G1 X197.247 Y176.358 E4.94594
G1 X197.059 Y176.711 E4.96257
G1 X196.706 Y177.326 E4.99205
G1 X196.42 Y177.79 E5.01471
G1 X196.048 Y178.355 E5.04284
G1 X195.97 Y178.466 E5.04848
G1 X195.407 Y179.2 E5.08694
G1 X195.047 Y179.632 E5.11032
G1 X194.563 Y180.176 E5.14059
G1 X194.3 Y180.453 E5.15647
G1 X193.76 Y180.985 E5.18799
G1 X193.308 Y181.401 E5.21353
G1 X192.883 Y181.773 E5.23701
G1 X192.794 Y181.847 E5.24182
G1 X192.295 Y182.239 E5.2682
G1 X192.064 Y182.41 E5.28015
G1 X191.682 Y182.68 E5.2996
G1 X191.533 Y182.781 E5.30708
G1 X190.932 Y183.162 E5.33667
G1 X190.489 Y183.423 E5.35804
G1 X189.848 Y183.773 E5.38841
G1 X189.537 Y183.93 E5.40289
G1 X188.843 Y184.251 E5.43468
G1 X188.329 Y184.468 E5.45788
G1 X187.592 Y184.749 E5.49067
G1 X187.358 Y184.829 E5.50095
G1 X186.645 Y185.047 E5.53195
G1 X186.077 Y185.2 E5.55641
G1 X185.349 Y185.37 E5.58749
G1 X185.088 Y185.422 E5.59855
G1 X184.35 Y185.544 E5.62965
G1 X183.907 Y185.602 E5.64822
G1 X183.117 Y185.677 E5.68122
G1 X182.698 Y185.702 E5.69867
G1 X182.247 Y185.72 E5.71743
G1 X181.166 Y185.741 E5.76238
G1 X180.948 Y185.743 E5.77145
G1 X172.466 Y185.743 E6.12409
G1 X171.515 Y185.728 E6.16363
G1 X170.787 Y185.693 E6.19393
G1 X170.217 Y185.647 E6.21771
G1 X169.433 Y185.555 E6.25053
G1 X169.038 Y185.495 E6.26714
G1 X168.274 Y185.352 E6.29945
G1 X167.898 Y185.268 E6.31547
G1 X167.194 Y185.087 E6.34569
G1 X166.787 Y184.968 E6.36332
G1 X166.078 Y184.735 E6.39435
G1 X165.69 Y184.593 E6.41153
G1 X164.962 Y184.297 E6.4442
G1 X164.582 Y184.127 E6.46151
G1 X163.888 Y183.788 E6.49362
G1 X163.535 Y183.6 E6.51024
G1 X162.903 Y183.236 E6.54057
G1 X162.575 Y183.033 E6.5566
G1 X161.944 Y182.613 E6.58812
G1 X161.581 Y182.353 E6.60668
G1 X160.944 Y181.861 E6.64014
G1 X160.631 Y181.601 E6.65706
G1 X160.054 Y181.088 E6.68916
G1 X159.729 Y180.778 E6.70783
G1 X159.227 Y180.268 E6.73759
G1 X158.891 Y179.904 E6.75818
G1 X158.419 Y179.358 E6.78819
G1 X158.299 Y179.21 E6.79611
G1 X157.763 Y178.493 E6.83333
G1 X157.441 Y178.024 E6.85698
G1 X157.04 Y177.396 E6.88796
G1 X156.83 Y177.042 E6.90507
G1 X156.444 Y176.333 E6.93863
G1 X156.297 Y176.039 E6.9523
G1 X155.996 Y175.386 E6.98219
G1 X155.778 Y174.87 E7.00548
G1 X155.491 Y174.118 E7.03894
G1 X155.412 Y173.886 E7.04913
G1 X155.197 Y173.177 E7.07994
G1 X155.052 Y172.637 E7.10318
G1 X154.885 Y171.926 E7.13355
G1 X154.815 Y171.576 E7.14838
G1 X154.689 Y170.805 E7.18086
G1 X154.644 Y170.455 E7.19554
G1 X154.572 Y169.692 E7.2274
G1 X154.545 Y169.241 E7.24618
G1 X154.527 Y168.788 E7.26503
G1 X154.506 Y167.71 E7.30986
G1 X154.504 Y167.491 E7.31896
G1 X154.504 Y112.989 E9.58489
G1 X154.519 Y112.053 E9.62381
G1 X154.555 Y111.317 E9.65445
G1 X154.604 Y110.717 E9.67948
G1 X154.693 Y109.957 E9.71129
G1 X154.74 Y109.645 E9.72441
G1 X154.881 Y108.886 E9.7565
G1 X154.983 Y108.426 E9.77609
G1 X155.167 Y107.709 E9.80687
G1 X155.268 Y107.363 E9.82185
G1 X155.508 Y106.634 E9.85376
G1 X155.68 Y106.166 E9.87449
G1 X155.979 Y105.432 E9.90744
G1 X156.118 Y105.123 E9.92153
G1 X156.452 Y104.444 E9.95299
G1 X156.652 Y104.069 E9.97066
G1 X157.002 Y103.459 E9.9999
G1 X157.203 Y103.133 E10.01582
G0 F6000 X157.628 Y103.395
G1 F1200 X158.04 Y102.777 E10.0467
G1 X158.3 Y102.414 E10.06526
G1 X158.785 Y101.787 E10.09822
G1 X159.047 Y101.473 E10.11522
G1 X159.506 Y100.957 E10.14393
G1 X159.827 Y100.619 E10.16331
G1 X160.321 Y100.131 E10.19218
G1 X160.642 Y99.834 E10.21036
G1 X161.228 Y99.331 E10.24247
G1 X161.458 Y99.147 E10.25472
G1 X162.093 Y98.675 E10.28761
G1 X162.459 Y98.424 E10.30606
G1 X163.064 Y98.039 E10.33588
G1 X163.505 Y97.778 E10.35718
G1 X164.188 Y97.406 E10.38952
G1 X164.439 Y97.281 E10.40117
G1 X165.047 Y97.002 E10.42899
G1 X165.57 Y96.781 E10.45259
G1 X166.255 Y96.518 E10.4831
G1 X166.499 Y96.434 E10.49383
G1 X167.21 Y96.217 E10.52473
G1 X167.709 Y96.083 E10.54621
G1 X168.399 Y95.922 E10.57567
G1 X168.801 Y95.842 E10.59271
G1 X169.517 Y95.724 E10.62288
G1 X169.841 Y95.682 E10.63646
G1 X170.586 Y95.612 E10.66757
G1 X171.041 Y95.585 E10.68652
G1 X171.469 Y95.568 E10.70433
G1 X172.55 Y95.547 E10.74928
G1 X172.758 Y95.545 E10.75793
G1 X181.257 Y95.545 E11.11128
G1 X182.191 Y95.56 E11.15011
G1 X182.879 Y95.594 E11.17875
G1 X183.464 Y95.641 E11.20315
G1 X184.198 Y95.725 E11.23387
G1 X184.518 Y95.773 E11.24732
G1 X185.265 Y95.912 E11.27891
G1 X185.722 Y96.014 E11.29838
G1 X186.402 Y96.19 E11.32758
G1 X186.798 Y96.306 E11.34474
G1 X187.468 Y96.526 E11.37405
G1 X187.829 Y96.658 E11.39004
G1 X188.535 Y96.945 E11.42172
G1 X188.903 Y97.11 E11.43849
G1 X189.549 Y97.426 E11.46839
G1 X189.98 Y97.655 E11.48868
G1 X190.606 Y98.015 E11.5187
G1 X190.846 Y98.164 E11.53044
G1 X191.448 Y98.566 E11.56054
G1 X191.977 Y98.946 E11.58762
G1 X192.673 Y99.491 E11.62437
G1 X192.794 Y99.594 E11.63098
G1 X193.224 Y99.98 E11.655
G1 X193.651 Y100.385 E11.67947
G1 X194.062 Y100.797 E11.70366
G1 X194.185 Y100.927 E11.7111
G1 X194.792 Y101.627 E11.74963
G1 X195.175 Y102.109 E11.77522
G1 X195.618 Y102.708 E11.80619
G1 X195.851 Y103.047 E11.8233
G1 X196.25 Y103.672 E11.85412
G1 X196.456 Y104.021 E11.87097
G1 X196.801 Y104.653 E11.90091
G1 X196.961 Y104.971 E11.91571
G1 X197.256 Y105.608 E11.94489
G1 X197.434 Y106.028 E11.96386
G1 X197.703 Y106.732 E11.99519
G1 X197.84 Y107.131 E12.01273
G1 X198.058 Y107.844 E12.04373
G1 X198.169 Y108.259 E12.06159
G1 X198.328 Y108.941 E12.0907
G1 X198.396 Y109.283 E12.1052
G1 X198.51 Y109.977 E12.13444
G1 X198.583 Y110.532 E12.15771
G1 X198.673 Y111.717 E12.20712
G1 X198.701 Y113.102 E12.26472
G1 X198.703 Y113.315 E12.27357
G1 X198.704 Y115.747 E12.37468
G1 X198.69 Y116.604 E12.41032
G1 X198.68 Y116.908 E12.42296
G1 X198.646 Y117.623 E12.45272
G1 X198.549 Y119.214 E12.51899
G1 X198.466 Y121.714 E12.62299
G1 X198.456 Y124.252 E12.72851
G1 X198.516 Y126.791 E12.83409
G1 X198.635 Y129.136 E12.93171
G1 X198.671 Y129.704 E12.95538
G1 X198.687 Y130.047 E12.96965
G1 X198.697 Y130.416 E12.985
G1 X198.703 Y130.956 E13.00745
G1 X198.702 Y167.795 E14.53904
G1 X198.687 Y168.731 E14.57796
G1 X198.652 Y169.434 E14.60722
G1 X198.607 Y169.985 E14.63021
G1 X198.524 Y170.705 E14.66034
G1 X198.461 Y171.125 E14.67799
G1 X198.32 Y171.881 E14.70997
G1 X198.24 Y172.238 E14.72518
G1 X198.066 Y172.91 E14.75404
G1 X197.94 Y173.34 E14.77267
G1 X197.725 Y173.995 E14.80133
G1 X197.595 Y174.352 E14.81712
G1 X197.308 Y175.061 E14.84892
G1 X197.131 Y175.457 E14.86696
G1 X196.805 Y176.123 E14.89779
G1 X196.617 Y176.476 E14.91441
G1 X196.28 Y177.064 E14.94259
G1 X195.994 Y177.528 E14.96525
G1 X195.639 Y178.068 E14.99212
G1 X195.561 Y178.179 E14.99776
G1 X195.023 Y178.88 E15.0345
G1 X194.663 Y179.312 E15.05788
G1 X194.201 Y179.832 E15.0868
G1 X193.938 Y180.109 E15.10268
G1 X193.422 Y180.617 E15.13278
G1 X192.97 Y181.033 E15.15832
G1 X192.563 Y181.389 E15.1808
G1 X192.474 Y181.463 E15.18561
G1 X191.997 Y181.837 E15.21081
G1 X191.766 Y182.008 E15.22276
G1 X191.402 Y182.266 E15.24131
G1 X191.253 Y182.367 E15.24879
G1 X190.678 Y182.731 E15.27709
G1 X190.235 Y182.992 E15.29846
G1 X189.623 Y183.327 E15.32747
G1 X189.312 Y183.484 E15.34196
G1 X188.648 Y183.791 E15.37237
G1 X188.134 Y184.008 E15.39556
G1 X187.431 Y184.276 E15.42684
G1 X187.197 Y184.356 E15.43713
G1 X186.515 Y184.564 E15.46677
G1 X185.947 Y184.717 E15.49123
G1 X185.251 Y184.88 E15.52094
G1 X184.99 Y184.932 E15.53201
G1 X184.286 Y185.048 E15.56167
G1 X183.843 Y185.106 E15.58025
G1 X183.087 Y185.178 E15.61182
G1 X182.668 Y185.203 E15.62927
G1 X182.237 Y185.22 E15.6472
G1 X181.156 Y185.241 E15.69216
G1 X180.948 Y185.243 E15.7008
G1 X172.473 Y185.243 E16.05315
G1 X171.522 Y185.228 E16.0927
G1 X170.827 Y185.194 E16.12163
G1 X170.257 Y185.148 E16.1454
G1 X169.508 Y185.061 E16.17675
G1 X169.113 Y185.001 E16.19336
G1 X168.383 Y184.864 E16.22424
G1 X168.007 Y184.78 E16.24026
G1 X167.334 Y184.607 E16.26915
G1 X166.927 Y184.488 E16.28678
G1 X166.249 Y184.265 E16.31645
G1 X165.861 Y184.123 E16.33363
G1 X165.166 Y183.841 E16.36481
G1 X164.786 Y183.671 E16.38212
G1 X164.123 Y183.346 E16.41282
G1 X163.77 Y183.158 E16.42944
G1 X163.166 Y182.811 E16.4584
G1 X162.838 Y182.608 E16.47444
G1 X162.235 Y182.206 E16.50457
G1 X161.872 Y181.946 E16.52313
G1 X161.263 Y181.476 E16.55512
G1 X160.95 Y181.216 E16.57203
G1 X160.399 Y180.726 E16.60269
G1 X160.074 Y180.416 E16.62136
G1 X159.595 Y179.929 E16.64976
G1 X159.259 Y179.565 E16.67036
G1 X158.808 Y179.043 E16.69904
G1 X158.688 Y178.895 E16.70696
G1 X158.176 Y178.21 E16.74252
G1 X157.854 Y177.741 E16.76617
G1 X157.47 Y177.141 E16.79578
G1 X157.26 Y176.787 E16.8129
G1 X156.891 Y176.11 E16.84495
G1 X156.744 Y175.816 E16.85862
G1 X156.456 Y175.192 E16.88719
G1 X156.238 Y174.676 E16.91048
G1 X155.965 Y173.957 E16.94245
G1 X155.886 Y173.725 E16.95264
G1 X155.68 Y173.048 E16.98206
G1 X155.535 Y172.508 E17.00531
G1 X155.376 Y171.828 E17.03434
G1 X155.306 Y171.478 E17.04918
G1 X155.185 Y170.741 E17.08023
G1 X155.14 Y170.391 E17.09491
G1 X155.071 Y169.662 E17.12535
G1 X155.044 Y169.211 E17.14413
G1 X155.027 Y168.778 E17.16215
G1 X155.006 Y167.7 E17.20698
G1 X155.004 Y167.491 E17.21566
G1 X155.004 Y112.997 E19.48126
G1 X155.019 Y112.061 E19.52018
G1 X155.054 Y111.358 E19.54945
G1 X155.103 Y110.758 E19.57447
G1 X155.187 Y110.032 E19.60486
G1 X155.234 Y109.72 E19.61798
G1 X155.369 Y108.994 E19.64868
G1 X155.471 Y108.534 E19.66827
G1 X155.647 Y107.849 E19.69767
G1 X155.748 Y107.503 E19.71266
G1 X155.977 Y106.807 E19.74312
G1 X156.149 Y106.339 E19.76385
G1 X156.435 Y105.637 E19.79536
G1 X156.574 Y105.328 E19.80945
G1 X156.893 Y104.679 E19.83951
G1 X157.093 Y104.304 E19.85718
G1 X157.427 Y103.721 E19.88512
G1 X157.628 Y103.395 E19.90104
G0 F6000 X158.054 Y103.658
G1 F1200 X158.446 Y103.068 E19.93049
G1 X158.706 Y102.705 E19.94905
G1 X159.169 Y102.107 E19.9805
G1 X159.431 Y101.793 E19.9975
G1 X159.869 Y101.301 E20.02489
G1 X160.19 Y100.963 E20.04427
G1 X160.661 Y100.498 E20.07178
G1 X160.982 Y100.201 E20.08996
G1 X161.54 Y99.721 E20.12057
G1 X161.77 Y99.537 E20.13281
G1 X162.376 Y99.088 E20.16417
G1 X162.742 Y98.837 E20.18262
G1 X163.318 Y98.469 E20.21104
G1 X163.759 Y98.208 E20.23234
G1 X164.411 Y97.854 E20.26319
G1 X164.662 Y97.729 E20.27484
G1 X165.241 Y97.462 E20.30135
G1 X165.764 Y97.241 E20.32496
G1 X166.417 Y96.991 E20.35403
G1 X166.661 Y96.907 E20.36476
G1 X167.34 Y96.7 E20.39427
G1 X167.839 Y96.566 E20.41575
G1 X168.496 Y96.412 E20.4438
G1 X168.898 Y96.332 E20.46085
G1 X169.581 Y96.22 E20.48962
G1 X169.905 Y96.178 E20.5032
G1 X170.616 Y96.111 E20.53289
G1 X171.071 Y96.084 E20.55184
G1 X171.479 Y96.068 E20.56882
G1 X172.56 Y96.047 E20.61377
G1 X172.758 Y96.045 E20.622
G1 X181.249 Y96.045 E20.97502
G1 X182.183 Y96.06 E21.01386
G1 X182.839 Y96.092 E21.04116
G1 X183.424 Y96.139 E21.06556
G1 X184.123 Y96.219 E21.09481
G1 X184.443 Y96.267 E21.10826
G1 X185.156 Y96.4 E21.13842
G1 X185.613 Y96.502 E21.15789
G1 X186.261 Y96.669 E21.18571
G1 X186.657 Y96.785 E21.20286
G1 X187.296 Y96.995 E21.23083
G1 X187.657 Y97.127 E21.24681
G1 X188.331 Y97.401 E21.27706
G1 X188.699 Y97.566 E21.29382
G1 X189.314 Y97.867 E21.32229
G1 X189.745 Y98.096 E21.34258
G1 X190.342 Y98.44 E21.37123
G1 X190.582 Y98.589 E21.38297
G1 X191.156 Y98.972 E21.41166
G1 X191.685 Y99.352 E21.43874
G1 X192.349 Y99.872 E21.4738
G1 X192.47 Y99.975 E21.48041
G1 X192.88 Y100.343 E21.50332
G1 X193.307 Y100.748 E21.52778
G1 X193.699 Y101.14 E21.55083
G1 X193.822 Y101.27 E21.55827
G1 X194.401 Y101.938 E21.59502
G1 X194.784 Y102.42 E21.62062
G1 X195.206 Y102.991 E21.65014
G1 X195.439 Y103.33 E21.66724
G1 X195.819 Y103.926 E21.69663
G1 X196.025 Y104.275 E21.71348
G1 X196.354 Y104.878 E21.74204
G1 X196.514 Y105.196 E21.75684
G1 X196.795 Y105.803 E21.78464
G1 X196.973 Y106.223 E21.80361
G1 X197.23 Y106.894 E21.83348
G1 X197.367 Y107.293 E21.85102
G1 X197.575 Y107.974 E21.88063
G1 X197.686 Y108.389 E21.89849
G1 X197.837 Y109.038 E21.92619
G1 X197.905 Y109.38 E21.94069
G1 X198.014 Y110.042 E21.96858
G1 X198.087 Y110.597 E21.99185
G1 X198.173 Y111.727 E22.03897
G1 X198.201 Y113.112 E22.09656
G1 X198.203 Y113.315 E22.105
G1 X198.204 Y115.747 E22.20611
G1 X198.19 Y116.595 E22.24137
G1 X198.181 Y116.885 E22.25344
G1 X198.147 Y117.592 E22.28286
G1 X198.049 Y119.201 E22.34988
