;FLAVOR:Marlin
;TIME:5715
;Filament used: 1.65418m
;Layer height: 0.12
;MINX:88.985
;MINY:90.517
;MINZ:0.12
;MAXX:129.985
;MAXY:131.517
;MAXZ:19.92
;Generated with Cura_SteamEngine 4.8.0
M140 S70
M105
M190 S70
M104 S210
M105
M109 S210
M82 ;absolute extrusion mode
; Ender 3 Custom Start G-code
G92 E0 ; Reset Extruder
G28 ; Home all axes
G1 Z2.0 F3000 ; Move Z Axis up little to prevent scratching of Heat Bed
G1 X0.1 Y20 Z0.3 F5000.0 ; Move to start position
G1 X0.1 Y200.0 Z0.3 F1500.0 E15 ; Draw the first line
G1 X0.4 Y200.0 Z0.3 F5000.0 ; Move to side a little
G1 X0.4 Y20 Z0.3 F1500.0 E30 ; Draw the second line
G92 E0 ; Reset Extruder
G1 Z2.0 F3000 ; Move Z Axis up little to prevent scratching of Heat Bed
G1 X5 Y20 Z0.3 F5000.0 ; Move over to prevent blob squish
G92 E0
G92 E0
G1 F2700 E-5
;LAYER_COUNT:166
;LAYER:0
M107
G0 F6000 X92.172 Y93.5 Z0.12
;TYPE:SKIRT
G1 F2700 E0
G1 F1200 X92.856 Y92.89 E0.00914
G1 X93.591 Y92.342 E0.01829
G1 X94.371 Y91.861 E0.02744
G1 X95.189 Y91.449 E0.03658
G1 X96.04 Y91.11 E0.04572
G1 X96.918 Y90.847 E0.05486
G1 X97.815 Y90.661 E0.064
G1 X98.725 Y90.554 E0.07314
G1 X99.2 Y90.53 E0.07789
G1 X99.521 Y90.521 E0.08109
G1 X99.815 Y90.517 E0.08403
G1 X118.778 Y90.517 E0.27324
G1 X119.626 Y90.528 E0.2817
G1 X120.541 Y90.581 E0.29085
G1 X121.448 Y90.714 E0.3
G1 X122.339 Y90.925 E0.30913
G1 X123.209 Y91.213 E0.31828
G1 X124.051 Y91.576 E0.32743
G1 X124.857 Y92.011 E0.33656
G1 X125.623 Y92.514 E0.34571
G1 X126.342 Y93.083 E0.35486
G1 X127.008 Y93.711 E0.36399
G1 X127.617 Y94.396 E0.37314
G1 X128.164 Y95.131 E0.38228
G1 X128.645 Y95.911 E0.39142
G1 X129.056 Y96.73 E0.40056
G1 X129.395 Y97.581 E0.40971
G1 X129.657 Y98.459 E0.41885
G1 X129.842 Y99.357 E0.428
G1 X129.948 Y100.267 E0.43714
G1 X129.972 Y100.732 E0.44178
G1 X129.981 Y101.052 E0.44498
G1 X129.985 Y101.347 E0.44792
G1 X129.984 Y120.411 E0.63814
G1 X129.975 Y121.138 E0.6454
G1 X129.924 Y122.053 E0.65454
G1 X129.793 Y122.96 E0.66369
G1 X129.584 Y123.852 E0.67283
G1 X129.297 Y124.722 E0.68197
G1 X128.936 Y125.564 E0.69111
G1 X128.503 Y126.372 E0.70026
G1 X128.001 Y127.138 E0.70939
G1 X127.434 Y127.858 E0.71854
G1 X126.806 Y128.526 E0.72769
G1 X126.123 Y129.136 E0.73682
G1 X125.389 Y129.685 E0.74597
G1 X124.61 Y130.167 E0.75511
G1 X123.792 Y130.58 E0.76425
G1 X122.941 Y130.92 E0.7734
G1 X122.064 Y131.184 E0.78254
G1 X121.167 Y131.371 E0.79168
G1 X120.257 Y131.479 E0.80082
G1 X119.77 Y131.504 E0.80569
G1 X119.449 Y131.513 E0.80889
G1 X119.155 Y131.517 E0.81183
G1 X100.057 Y131.516 E1.00239
G1 X99.359 Y131.507 E1.00935
G1 X98.444 Y131.455 E1.0185
G1 X97.537 Y131.324 E1.02764
G1 X96.645 Y131.114 E1.03679
G1 X95.775 Y130.827 E1.04593
G1 X94.933 Y130.466 E1.05507
G1 X94.126 Y130.032 E1.06421
G1 X93.359 Y129.53 E1.07336
G1 X92.64 Y128.962 E1.0825
G1 X91.972 Y128.334 E1.09165
G1 X91.362 Y127.651 E1.10079
G1 X90.814 Y126.917 E1.10993
G1 X90.332 Y126.137 E1.11907
G1 X89.92 Y125.319 E1.12821
G1 X89.58 Y124.468 E1.13736
G1 X89.317 Y123.59 E1.1465
G1 X89.13 Y122.693 E1.15564
G1 X89.023 Y121.783 E1.16479
G1 X88.998 Y121.292 E1.16969
G1 X88.989 Y120.959 E1.17302
G1 X88.985 Y120.675 E1.17585
G1 X88.986 Y101.549 E1.36669
G1 X88.995 Y100.884 E1.37333
G1 X89.047 Y99.969 E1.38247
G1 X89.179 Y99.062 E1.39162
G1 X89.39 Y98.171 E1.40075
G1 X89.677 Y97.301 E1.40989
G1 X90.039 Y96.459 E1.41904
G1 X90.474 Y95.652 E1.42819
G1 X90.976 Y94.886 E1.43733
G1 X91.544 Y94.167 E1.44647
G1 X92.172 Y93.5 E1.45561
G0 F6000 X92.368 Y93.589
G1 F1200 X93.05 Y92.99 E1.46467
G1 X93.783 Y92.454 E1.47373
G1 X94.559 Y91.985 E1.48277
G1 X95.374 Y91.586 E1.49183
G1 X96.221 Y91.26 E1.50088
G1 X97.094 Y91.01 E1.50995
G1 X97.985 Y90.837 E1.519
G1 X99.205 Y90.73 E1.53122
G1 X99.526 Y90.721 E1.53443
G1 X99.815 Y90.717 E1.53731
G1 X118.778 Y90.717 E1.72652
G1 X119.624 Y90.728 E1.73497
G1 X120.53 Y90.781 E1.74402
G1 X121.427 Y90.914 E1.75307
G1 X122.31 Y91.125 E1.76213
G1 X123.171 Y91.412 E1.77118
G1 X124.003 Y91.775 E1.78024
G1 X124.799 Y92.209 E1.78929
G1 X125.555 Y92.712 E1.79835
G1 X126.263 Y93.28 E1.80741
G1 X126.919 Y93.907 E1.81646
G1 X127.517 Y94.59 E1.82552
G1 X128.052 Y95.323 E1.83457
G1 X128.521 Y96.1 E1.84363
G1 X128.92 Y96.915 E1.85268
G1 X129.245 Y97.762 E1.86173
G1 X129.494 Y98.635 E1.87079
G1 X129.666 Y99.526 E1.87985
G1 X129.772 Y100.737 E1.89198
G1 X129.781 Y101.057 E1.89517
G1 X129.785 Y101.347 E1.89807
G1 X129.784 Y120.409 E2.08827
G1 X129.775 Y121.136 E2.09552
G1 X129.724 Y122.042 E2.10458
G1 X129.593 Y122.94 E2.11363
G1 X129.384 Y123.823 E2.12269
G1 X129.098 Y124.684 E2.13174
G1 X128.737 Y125.517 E2.1408
G1 X128.304 Y126.314 E2.14985
G1 X127.803 Y127.071 E2.1589
G1 X127.237 Y127.78 E2.16796
G1 X126.61 Y128.437 E2.17702
G1 X125.929 Y129.036 E2.18607
G1 X125.197 Y129.573 E2.19513
G1 X124.421 Y130.043 E2.20418
G1 X123.606 Y130.444 E2.21324
G1 X122.76 Y130.77 E2.22229
G1 X121.888 Y131.022 E2.23135
G1 X120.997 Y131.195 E2.2404
G1 X119.765 Y131.304 E2.25274
G1 X119.444 Y131.313 E2.25595
G1 X119.155 Y131.317 E2.25883
G1 X100.059 Y131.316 E2.44937
G1 X99.361 Y131.307 E2.45634
G1 X98.455 Y131.255 E2.46539
G1 X97.557 Y131.124 E2.47445
G1 X96.674 Y130.915 E2.4835
G1 X95.813 Y130.628 E2.49256
G1 X94.981 Y130.266 E2.50161
G1 X94.183 Y129.833 E2.51067
G1 X93.427 Y129.332 E2.51972
G1 X92.718 Y128.765 E2.52878
G1 X92.061 Y128.139 E2.53783
G1 X91.463 Y127.457 E2.54688
G1 X90.926 Y126.725 E2.55594
G1 X90.456 Y125.948 E2.565
G1 X90.056 Y125.134 E2.57405
G1 X89.73 Y124.287 E2.58311
G1 X89.479 Y123.415 E2.59216
G1 X89.306 Y122.524 E2.60122
G1 X89.198 Y121.286 E2.61362
G1 X89.189 Y120.953 E2.61694
G1 X89.185 Y120.675 E2.61972
G1 X89.186 Y101.552 E2.81053
G1 X89.195 Y100.887 E2.81716
G1 X89.247 Y99.981 E2.82622
G1 X89.379 Y99.083 E2.83527
G1 X89.589 Y98.2 E2.84433
G1 X89.877 Y97.339 E2.85339
G1 X90.238 Y96.507 E2.86244
G1 X90.672 Y95.71 E2.87149
G1 X91.174 Y94.954 E2.88055
G1 X91.741 Y94.245 E2.88961
G1 X92.368 Y93.589 E2.89866
G0 F6000 X92.564 Y93.679
G1 F1200 X93.244 Y93.092 E2.90763
G1 X93.974 Y92.568 E2.91659
G1 X94.748 Y92.111 E2.92556
G1 X95.559 Y91.724 E2.93453
G1 X96.402 Y91.411 E2.9435
G1 X97.268 Y91.174 E2.95246
G1 X98.153 Y91.015 E2.96143
G1 X99.211 Y90.93 E2.97202
G1 X99.532 Y90.921 E2.97523
G1 X99.815 Y90.917 E2.97805
G1 X118.778 Y90.917 E3.16726
G1 X119.621 Y90.928 E3.17567
G1 X120.518 Y90.981 E3.18464
G1 X121.407 Y91.113 E3.19361
G1 X122.28 Y91.324 E3.20257
G1 X123.132 Y91.612 E3.21154
G1 X123.954 Y91.974 E3.22051
G1 X124.741 Y92.408 E3.22947
G1 X125.486 Y92.91 E3.23844
G1 X126.184 Y93.476 E3.2474
G1 X126.829 Y94.103 E3.25638
G1 X127.415 Y94.784 E3.26534
G1 X127.939 Y95.514 E3.27431
G1 X128.395 Y96.288 E3.28327
G1 X128.781 Y97.1 E3.29225
G1 X129.093 Y97.942 E3.3012
G1 X129.33 Y98.809 E3.31017
G1 X129.488 Y99.694 E3.31914
G1 X129.572 Y100.743 E3.32964
G1 X129.581 Y101.063 E3.33284
G1 X129.585 Y101.347 E3.33567
G1 X129.584 Y120.406 E3.52584
G1 X129.575 Y121.133 E3.5331
G1 X129.524 Y122.03 E3.54206
G1 X129.393 Y122.919 E3.55103
G1 X129.184 Y123.793 E3.56
G1 X128.898 Y124.645 E3.56896
G1 X128.538 Y125.468 E3.57793
G1 X128.105 Y126.256 E3.5869
G1 X127.605 Y127.003 E3.59587
G1 X127.04 Y127.701 E3.60483
G1 X126.415 Y128.347 E3.6138
G1 X125.735 Y128.935 E3.62277
G1 X125.006 Y129.46 E3.63173
G1 X124.232 Y129.918 E3.6407
G1 X123.422 Y130.305 E3.64966
G1 X122.58 Y130.619 E3.65863
G1 X121.713 Y130.857 E3.6676
G1 X120.829 Y131.017 E3.67656
G1 X119.759 Y131.104 E3.68727
G1 X119.438 Y131.113 E3.69048
G1 X119.155 Y131.117 E3.6933
G1 X100.062 Y131.116 E3.88381
G1 X99.364 Y131.107 E3.89078
G1 X98.467 Y131.056 E3.89974
G1 X97.578 Y130.925 E3.90871
G1 X96.704 Y130.715 E3.91768
G1 X95.852 Y130.428 E3.92665
G1 X95.029 Y130.067 E3.93562
G1 X94.241 Y129.635 E3.94458
G1 X93.495 Y129.134 E3.95355
G1 X92.797 Y128.568 E3.96252
G1 X92.151 Y127.943 E3.97149
G1 X91.564 Y127.263 E3.98045
G1 X91.039 Y126.533 E3.98942
G1 X90.582 Y125.76 E3.99838
G1 X90.195 Y124.949 E4.00735
G1 X89.881 Y124.107 E4.01631
G1 X89.644 Y123.24 E4.02528
G1 X89.484 Y122.355 E4.03426
G1 X89.398 Y121.281 E4.04501
G1 X89.389 Y120.948 E4.04833
G1 X89.385 Y120.675 E4.05106
G1 X89.386 Y101.554 E4.24185
G1 X89.395 Y100.889 E4.24848
G1 X89.447 Y99.992 E4.25745
G1 X89.579 Y99.103 E4.26641
G1 X89.789 Y98.229 E4.27538
G1 X90.076 Y97.378 E4.28434
G1 X90.437 Y96.555 E4.29331
G1 X90.871 Y95.768 E4.30228
G1 X91.372 Y95.022 E4.31125
G1 X91.938 Y94.324 E4.32021
G1 X92.564 Y93.679 E4.32918
G1 F2700 E-0.67082
;MESH:xyzCalibration_cube.stl
G0 F6000 X99.044 Y100.577
G0 X99.699 Y101.231
G0 X118.303 Y102.199
G0 X118.385 Y119.917
;TYPE:WALL-INNER
G1 F2700 E4.32918
G1 F1200 X100.585 Y119.917 E4.50679
G1 X100.585 Y102.117 E4.6844
G1 X118.385 Y102.117 E4.86201
G1 X118.385 Y119.917 E5.03962
G0 F6000 X118.585 Y120.117
G1 F1200 X100.385 Y120.117 E5.22122
G1 X100.385 Y101.917 E5.40282
G1 X118.585 Y101.917 E5.58442
G1 X118.585 Y120.117 E5.76602
G0 F6000 X118.785 Y120.317
G1 F1200 X100.185 Y120.317 E5.95161
G1 X100.185 Y101.717 E6.1372
G1 X118.785 Y101.717 E6.32279
G1 X118.785 Y120.317 E6.50839
G0 F6000 X118.985 Y120.517
G1 F1200 X99.985 Y120.517 E6.69797
G1 X99.985 Y101.517 E6.88755
G1 X118.985 Y101.517 E7.07713
G1 X118.985 Y120.517 E7.26672
G0 F6000 X119.185 Y120.717
G1 F1200 X99.785 Y120.717 E7.46029
G1 X99.785 Y101.317 E7.65386
G1 X119.185 Y101.317 E7.84744
G1 X119.185 Y120.717 E8.04101
G0 F6000 X119.385 Y120.917
;TYPE:WALL-OUTER
G1 F1200 X99.585 Y120.917 E8.23858
G1 X99.585 Y101.117 E8.43614
G1 X119.385 Y101.117 E8.63371
G1 X119.385 Y120.917 E8.83127
G0 F6000 X119.215 Y120.747
G0 X118.375 Y119.727
G0 X118.195 Y119.727
;TYPE:SKIN
G1 F1200 X100.775 Y119.727 E9.00509
G1 X100.775 Y102.307 E9.17891
G1 X118.195 Y102.307 E9.35273
G1 X118.195 Y119.727 E9.52654
G0 F6000 X118.375 Y119.727
G0 X118.375 Y102.558
G0 X118.115 Y102.558
G1 F1200 X117.943 Y102.386 E9.52897
G0 F6000 X117.66 Y102.386
G1 F1200 X118.115 Y102.841 E9.53539
G0 F6000 X118.115 Y103.124
G1 F1200 X117.377 Y102.386 E9.5458
G0 F6000 X117.094 Y102.386
G1 F1200 X118.115 Y103.407 E9.56021
G0 F6000 X118.115 Y103.69
G1 F1200 X116.811 Y102.386 E9.57861
G0 F6000 X116.529 Y102.386
G1 F1200 X118.115 Y103.972 E9.60099
G0 F6000 X118.115 Y104.255
G1 F1200 X116.246 Y102.386 E9.62737
G0 F6000 X115.963 Y102.386
G1 F1200 X118.115 Y104.538 E9.65773
G0 F6000 X118.115 Y104.821
G1 F1200 X115.68 Y102.386 E9.69209
G0 F6000 X115.397 Y102.386
G1 F1200 X118.115 Y105.104 E9.73045
G0 F6000 X118.115 Y105.387
G1 F1200 X115.114 Y102.386 E9.7728
G0 F6000 X114.832 Y102.386
G1 F1200 X118.115 Y105.67 E9.81913
G0 F6000 X118.115 Y105.952
G1 F1200 X114.549 Y102.386 E9.86945
G0 F6000 X114.266 Y102.386
G1 F1200 X118.115 Y106.235 E9.92376
G0 F6000 X118.115 Y106.518
G1 F1200 X113.983 Y102.386 E9.98207
G0 F6000 X113.7 Y102.386
G1 F1200 X118.115 Y106.801 E10.04437
G0 F6000 X118.115 Y107.084
G1 F1200 X113.417 Y102.386 E10.11066
G0 F6000 X113.134 Y102.386
G1 F1200 X118.115 Y107.367 E10.18095
G0 F6000 X118.115 Y107.649
G1 F1200 X112.852 Y102.386 E10.25522
G0 F6000 X112.569 Y102.386
G1 F1200 X118.115 Y107.932 E10.33348
G0 F6000 X118.115 Y108.215
G1 F1200 X112.286 Y102.386 E10.41573
G0 F6000 X112.003 Y102.386
G1 F1200 X118.115 Y108.498 E10.50198
G0 F6000 X118.115 Y108.781
G1 F1200 X111.72 Y102.386 E10.59222
G0 F6000 X111.437 Y102.386
G1 F1200 X118.115 Y109.064 E10.68645
G0 F6000 X118.115 Y109.346
G1 F1200 X111.155 Y102.386 E10.78467
G0 F6000 X110.872 Y102.386
G1 F1200 X118.115 Y109.629 E10.88687
G0 F6000 X118.115 Y109.912
G1 F1200 X110.589 Y102.386 E10.99307
G0 F6000 X110.306 Y102.386
G1 F1200 X118.115 Y110.195 E11.10327
G0 F6000 X118.115 Y110.478
G1 F1200 X110.023 Y102.386 E11.21745
G0 F6000 X109.74 Y102.386
G1 F1200 X118.115 Y110.761 E11.33563
G0 F6000 X118.115 Y111.044
G1 F1200 X109.458 Y102.386 E11.4578
G0 F6000 X109.175 Y102.386
G1 F1200 X118.115 Y111.326 E11.58395
G0 F6000 X118.115 Y111.609
G1 F1200 X108.892 Y102.386 E11.7141
G0 F6000 X108.609 Y102.386
G1 F1200 X118.115 Y111.892 E11.84824
G0 F6000 X118.115 Y112.175
G1 F1200 X108.326 Y102.386 E11.98637
G0 F6000 X108.043 Y102.386
G1 F1200 X118.115 Y112.458 E12.1285
G0 F6000 X118.115 Y112.741
G1 F1200 X107.76 Y102.386 E12.27462
G0 F6000 X107.478 Y102.386
G1 F1200 X118.115 Y113.023 E12.42472
G0 F6000 X118.115 Y113.306
G1 F1200 X107.195 Y102.386 E12.57881
G0 F6000 X106.912 Y102.386
G1 F1200 X118.115 Y113.589 E12.7369
G0 F6000 X118.115 Y113.872
G1 F1200 X106.629 Y102.386 E12.89898
G0 F6000 X106.346 Y102.386
G1 F1200 X118.115 Y114.155 E13.06505
G0 F6000 X118.115 Y114.438
G1 F1200 X106.063 Y102.386 E13.23512
G0 F6000 X105.781 Y102.386
G1 F1200 X118.115 Y114.721 E13.40917
G0 F6000 X118.115 Y115.003
G1 F1200 X105.498 Y102.386 E13.58721
G0 F6000 X105.215 Y102.386
G1 F1200 X118.115 Y115.286 E13.76924
G0 F6000 X118.115 Y115.569
G1 F1200 X104.932 Y102.386 E13.95527
G0 F6000 X104.649 Y102.386
G1 F1200 X118.115 Y115.852 E14.14529
G0 F6000 X118.115 Y116.135
G1 F1200 X104.366 Y102.386 E14.3393
G0 F6000 X104.083 Y102.386
G1 F1200 X118.115 Y116.418 E14.53731
G0 F6000 X118.115 Y116.7
G1 F1200 X103.801 Y102.386 E14.7393
G0 F6000 X103.518 Y102.386
G1 F1200 X118.115 Y116.983 E14.94528
G0 F6000 X118.115 Y117.266
G1 F1200 X103.235 Y102.386 E15.15525
G0 F6000 X102.952 Y102.386
G1 F1200 X118.115 Y117.549 E15.36921
G0 F6000 X118.115 Y117.832
G1 F1200 X102.669 Y102.386 E15.58717
G0 F6000 X102.386 Y102.386
G1 F1200 X118.115 Y118.115 E15.80913
G0 F6000 X118.115 Y118.397
G1 F1200 X102.104 Y102.386 E16.03506
G0 F6000 X101.821 Y102.386
G1 F1200 X118.115 Y118.68 E16.26499
G0 F6000 X118.115 Y118.963
G1 F1200 X101.538 Y102.386 E16.49891
G0 F6000 X101.255 Y102.386
G1 F1200 X118.115 Y119.246 E16.73682
G0 F6000 X118.115 Y119.529
G1 F1200 X100.972 Y102.386 E16.97872
G0 F6000 X100.854 Y102.551
G1 F1200 X117.948 Y119.646 E17.21995
G0 F6000 X117.666 Y119.646
G1 F1200 X100.854 Y102.834 E17.45718
G0 F6000 X100.854 Y103.117
G1 F1200 X117.383 Y119.646 E17.69042
G0 F6000 X117.1 Y119.646
G1 F1200 X100.854 Y103.4 E17.91967
G0 F6000 X100.854 Y103.683
G1 F1200 X116.817 Y119.646 E18.14493
G0 F6000 X116.534 Y119.646
G1 F1200 X100.854 Y103.965 E18.3662
G0 F6000 X100.854 Y104.248
G1 F1200 X116.251 Y119.646 E18.58347
G0 F6000 X115.969 Y119.646
G1 F1200 X100.854 Y104.531 E18.79676
G0 F6000 X100.854 Y104.814
G1 F1200 X115.686 Y119.646 E19.00606
G0 F6000 X115.403 Y119.646
G1 F1200 X100.854 Y105.097 E19.21136
G0 F6000 X100.854 Y105.38
G1 F1200 X115.12 Y119.646 E19.41267
G0 F6000 X114.837 Y119.646
G1 F1200 X100.854 Y105.662 E19.60999
G0 F6000 X100.854 Y105.945
G1 F1200 X114.554 Y119.646 E19.80332
G0 F6000 X114.271 Y119.646
G1 F1200 X100.854 Y106.228 E19.99265
G0 F6000 X100.854 Y106.511
G1 F1200 X113.989 Y119.646 E20.178
G0 F6000 X113.706 Y119.646
G1 F1200 X100.854 Y106.794 E20.35936
G0 F6000 X100.854 Y107.077
G1 F1200 X113.423 Y119.646 E20.53672
G0 F6000 X113.14 Y119.646
G1 F1200 X100.854 Y107.36 E20.71009
G0 F6000 X100.854 Y107.642
G1 F1200 X112.857 Y119.646 E20.87947
G0 F6000 X112.574 Y119.646
G1 F1200 X100.854 Y107.925 E21.04486
G0 F6000 X100.854 Y108.208
G1 F1200 X112.292 Y119.646 E21.20626
G0 F6000 X112.009 Y119.646
G1 F1200 X100.854 Y108.491 E21.36367
G0 F6000 X100.854 Y108.774
G1 F1200 X111.726 Y119.646 E21.51709
G0 F6000 X111.443 Y119.646
G1 F1200 X100.854 Y109.057 E21.66651
G0 F6000 X100.854 Y109.339
G1 F1200 X111.16 Y119.646 E21.81195
G0 F6000 X110.877 Y119.646
G1 F1200 X100.854 Y109.622 E21.95339
G0 F6000 X100.854 Y109.905
G1 F1200 X110.595 Y119.646 E22.09084
G0 F6000 X110.312 Y119.646
G1 F1200 X100.854 Y110.188 E22.22431
G0 F6000 X100.854 Y110.471
G1 F1200 X110.029 Y119.646 E22.35378
G0 F6000 X109.746 Y119.646
G1 F1200 X100.854 Y110.754 E22.47925
G0 F6000 X100.854 Y111.036
G1 F1200 X109.463 Y119.646 E22.60074
G0 F6000 X109.18 Y119.646
G1 F1200 X100.854 Y111.319 E22.71824
G0 F6000 X100.854 Y111.602
G1 F1200 X108.897 Y119.646 E22.83174
G0 F6000 X108.615 Y119.646
G1 F1200 X100.854 Y111.885 E22.94126
G0 F6000 X100.854 Y112.168
G1 F1200 X108.332 Y119.646 E23.04678
G0 F6000 X108.049 Y119.646
G1 F1200 X100.854 Y112.451 E23.14831
G0 F6000 X100.854 Y112.734
G1 F1200 X107.766 Y119.646 E23.24584
G0 F6000 X107.483 Y119.646
G1 F1200 X100.854 Y113.016 E23.33939
G0 F6000 X100.854 Y113.299
G1 F1200 X107.2 Y119.646 E23.42895
