;FLAVOR:Marlin
;TIME:10567
;Filament used: 13.0225m
;Layer height: 0.4
;MINX:57.088
;MINY:55.47
;MINZ:0.3
;MAXX:161.399
;MAXY:171.2
;MAXZ:65.1
;Generated with Cura_SteamEngine 4.8.0
M140 S65
M105
M190 S65
M104 S200
M105
M109 S200
M82 ;absolute extrusion mode
; Ender 3 Custom Start G-code
G92 E0 ; Reset Extruder
G28 ; Home all axes
G1 Z2.0 F3000 ; Move Z Axis up little to prevent scratching of Heat Bed
G1 X0.1 Y20 Z0.3 F5000.0 ; Move to start position
G1 X0.1 Y200.0 Z0.3 F1500.0 E15 ; Draw the first line
G1 X0.4 Y200.0 Z0.3 F5000.0 ; Move to side a little
G1 X0.4 Y20 Z0.3 F1500.0 E30 ; Draw the second line
G92 E0 ; Reset Extruder
G1 Z2.0 F3000 ; Move Z Axis up little to prevent scratching of Heat Bed
G1 X5 Y20 Z0.3 F5000.0 ; Move over to prevent blob squish
G92 E0
G92 E0
G1 F2700 E-5
;LAYER_COUNT:163
;LAYER:0
M107
G0 F6000 X65.235 Y59.785 Z0.3
;TYPE:SKIRT
G1 F2700 E0
G1 F600 X65.312 Y59.704 E0.00558
G1 X65.928 Y59.105 E0.04844
G1 X66.157 Y58.899 E0.06381
G1 X67.022 Y58.197 E0.11939
G1 X67.353 Y57.955 E0.13984
G1 X68.322 Y57.322 E0.19759
G1 X68.384 Y57.286 E0.20117
G1 X69.297 Y56.811 E0.25251
G1 X69.674 Y56.637 E0.27323
G1 X70.923 Y56.151 E0.34009
G1 X71.057 Y56.108 E0.34711
G1 X71.787 Y55.901 E0.38497
G1 X72.124 Y55.818 E0.40228
G1 X73.498 Y55.571 E0.47193
G1 X73.724 Y55.545 E0.48328
G1 X74.59 Y55.48 E0.52661
G1 X74.871 Y55.47 E0.54063
G1 X76.042 Y55.491 E0.59907
G1 X76.281 Y55.508 E0.61102
G1 X77.301 Y55.628 E0.66226
G1 X77.506 Y55.662 E0.67263
G1 X78.429 Y55.856 E0.71968
G1 X78.746 Y55.937 E0.736
G1 X79.103 Y56.035 E0.75447
G1 X79.471 Y56.145 E0.77364
G1 X80.063 Y56.334 E0.80464
G1 X147.222 Y78.585 E4.33433
G1 X147.856 Y78.804 E4.36779
G1 X148.195 Y78.927 E4.38578
G1 X148.991 Y79.232 E4.42831
G1 X149.337 Y79.372 E4.44693
G1 X149.744 Y79.544 E4.46898
G1 X150.718 Y80.013 E4.52291
G1 X151.207 Y80.279 E4.55068
G1 X151.462 Y80.422 E4.56527
G1 X151.944 Y80.701 E4.59305
G1 X152.781 Y81.237 E4.64264
G1 X153.098 Y81.461 E4.662
G1 X153.443 Y81.715 E4.68338
G1 X154.013 Y82.152 E4.71921
G1 X154.446 Y82.502 E4.74699
G1 X154.765 Y82.782 E4.76817
G1 X154.981 Y82.979 E4.78275
G1 X155.312 Y83.294 E4.80555
G1 X155.891 Y83.868 E4.84622
G1 X156.586 Y84.624 E4.89746
G1 X156.831 Y84.917 E4.91651
G1 X157.095 Y85.245 E4.93752
G1 X157.548 Y85.831 E4.97447
G1 X158.073 Y86.572 E5.01978
G1 X158.23 Y86.814 E5.03417
G1 X158.439 Y87.147 E5.05378
G1 X158.574 Y87.373 E5.06692
G1 X158.949 Y88.018 E5.10414
G1 X159.445 Y88.977 E5.158
G1 X159.63 Y89.382 E5.18022
G1 X159.744 Y89.641 E5.19434
G1 X160 Y90.242 E5.22693
G1 X160.35 Y91.18 E5.27687
G1 X160.456 Y91.509 E5.29412
G1 X160.577 Y91.91 E5.31502
G1 X160.788 Y92.662 E5.35398
G1 X161.01 Y93.616 E5.40285
G1 X161.063 Y93.9 E5.41726
G1 X161.129 Y94.287 E5.43685
G1 X161.156 Y94.46 E5.44558
G1 X161.254 Y95.137 E5.47971
G1 X161.357 Y96.237 E5.53483
G1 X161.38 Y96.768 E5.56135
G1 X161.388 Y97.042 E5.57502
G1 X161.399 Y97.641 E5.60491
G1 X161.377 Y98.569 E5.65122
G1 X161.34 Y99.089 E5.67723
G1 X161.3 Y99.497 E5.69769
G1 X161.219 Y100.207 E5.73334
G1 X161.074 Y101.13 E5.77995
G1 X161.007 Y101.463 E5.7969
G1 X160.905 Y101.918 E5.82016
G1 X160.719 Y102.675 E5.85905
G1 X160.457 Y103.575 E5.90582
G1 X160.343 Y103.912 E5.92356
G1 X160.24 Y104.203 E5.93897
G1 X160.149 Y104.445 E5.95186
G1 X159.898 Y105.09 E5.98639
G1 X159.531 Y105.929 E6.03208
G1 X159.383 Y106.232 E6.04891
G1 X159.161 Y106.663 E6.07309
G1 X158.786 Y107.352 E6.11223
G1 X158.332 Y108.111 E6.15635
G1 X158.166 Y108.365 E6.17149
G1 X157.917 Y108.731 E6.19358
G1 X157.385 Y109.467 E6.23888
G1 X156.786 Y110.222 E6.28696
G1 X156.535 Y110.511 E6.30606
G1 X156.24 Y110.838 E6.32803
G1 X155.839 Y111.264 E6.35722
G1 X155.575 Y111.535 E6.3761
G1 X154.854 Y112.25 E6.42676
G1 X97.096 Y167.665 E10.42009
G1 X96.477 Y168.244 E10.46238
G1 X95.765 Y168.854 E10.50916
G1 X95.003 Y169.401 E10.55595
G1 X94.197 Y169.882 E10.60278
G1 X93.354 Y170.292 E10.64955
G1 X92.478 Y170.628 E10.69636
G1 X91.578 Y170.889 E10.74311
G1 X90.658 Y171.072 E10.78991
G1 X89.726 Y171.176 E10.83669
G1 X88.788 Y171.2 E10.88351
G1 X87.852 Y171.145 E10.93028
G1 X86.924 Y171.01 E10.97707
G1 X86.011 Y170.796 E11.02385
G1 X85.119 Y170.505 E11.07066
G1 X84.255 Y170.139 E11.11748
G1 X83.426 Y169.702 E11.16423
G1 X82.637 Y169.195 E11.21102
G1 X81.894 Y168.622 E11.25783
G1 X81.202 Y167.989 E11.30462
G1 X80.567 Y167.299 E11.3514
G1 X79.993 Y166.557 E11.39821
G1 X79.485 Y165.769 E11.44498
G1 X79.045 Y164.94 E11.4918
G1 X78.677 Y164.078 E11.53856
G1 X78.385 Y163.187 E11.58534
G1 X78.169 Y162.274 E11.63215
G1 X78.075 Y161.705 E11.66092
G1 X77.938 Y160.712 E11.71093
G1 X77.909 Y160.487 E11.72225
G1 X76.249 Y146.292 E12.43527
G1 X75.909 Y143.704 E12.56549
G1 X75.512 Y141.229 E12.69055
G1 X75.046 Y138.764 E12.81571
G1 X74.504 Y136.289 E12.94211
G1 X73.908 Y133.887 E13.06558
G1 X73.224 Y131.436 E13.19254
G1 X72.481 Y129.039 E13.31774
G1 X71.669 Y126.656 E13.44334
G1 X70.785 Y124.285 E13.56958
G1 X69.837 Y121.946 E13.69549
G1 X68.832 Y119.657 E13.82022
G1 X67.757 Y117.382 E13.94575
G1 X66.6 Y115.106 E14.07313
G1 X65.422 Y112.939 E14.19618
G1 X64.149 Y110.752 E14.32243
G1 X62.815 Y108.598 E14.44883
G1 X61.45 Y106.528 E14.57254
G1 X60.648 Y105.399 E14.64163
G1 X60.484 Y105.145 E14.65671
G1 X59.761 Y104.112 E14.71962
G1 X59.562 Y103.817 E14.73737
G1 X59.44 Y103.63 E14.74851
G1 X58.962 Y102.824 E14.79526
G1 X58.688 Y102.278 E14.82574
G1 X58.645 Y102.186 E14.83081
G1 X58.44 Y101.721 E14.85616
G1 X58.346 Y101.493 E14.86846
G1 X58.026 Y100.611 E14.91527
G1 X57.844 Y99.968 E14.94861
G1 X57.816 Y99.856 E14.95437
G1 X57.694 Y99.307 E14.98243
G1 X57.641 Y99.037 E14.99616
G1 X57.539 Y98.424 E15.02716
G1 X57.48 Y97.98 E15.04951
G1 X57.433 Y97.573 E15.06995
G1 X57.205 Y95.405 E15.17871
G1 X57.133 Y94.613 E15.21838
G1 X57.098 Y94.085 E15.24478
G1 X57.088 Y93.36 E15.28096
G1 X57.096 Y92.948 E15.30151
G1 X57.172 Y91.855 E15.35618
G1 X57.214 Y91.504 E15.37381
G1 X57.39 Y90.461 E15.42658
G1 X57.479 Y90.054 E15.44737
G1 X57.65 Y89.377 E15.4822
G1 X57.789 Y88.9 E15.50699
G1 X58.106 Y87.871 E15.56071
G1 X58.788 Y85.414 E15.68792
G1 X59.394 Y82.961 E15.81398
G1 X59.927 Y80.512 E15.93903
G1 X60.391 Y78.046 E16.06421
G1 X60.785 Y75.562 E16.18969
G1 X61.111 Y73.061 E16.31552
G1 X61.362 Y70.583 E16.43978
G1 X61.496 Y68.683 E16.53481
G1 X61.555 Y67.997 E16.56916
G1 X61.668 Y67.119 E16.61333
G1 X61.699 Y66.936 E16.62258
G1 X61.905 Y65.977 E16.67152
G1 X61.987 Y65.665 E16.68762
G1 X62.202 Y64.949 E16.72491
G1 X62.295 Y64.673 E16.73944
G1 X62.615 Y63.836 E16.78415
G1 X62.714 Y63.606 E16.79664
G1 X63.188 Y62.638 E16.85041
G1 X63.315 Y62.408 E16.86352
G1 X63.735 Y61.71 E16.90416
G1 X63.799 Y61.612 E16.91
G1 X64.237 Y60.99 E16.94796
G1 X64.436 Y60.727 E16.96441
G1 X65.235 Y59.785 E17.02604
G0 F6000 X65.525 Y60.061
G1 F600 X65.602 Y59.98 E17.03161
G1 X66.196 Y59.402 E17.07296
G1 X66.425 Y59.196 E17.08833
G1 X67.258 Y58.52 E17.14185
G1 X67.589 Y58.278 E17.16231
G1 X68.522 Y57.668 E17.21792
G1 X68.584 Y57.632 E17.2215
G1 X69.465 Y57.175 E17.27101
G1 X69.842 Y57.001 E17.29173
G1 X71.045 Y56.532 E17.35614
G1 X71.179 Y56.489 E17.36316
G1 X71.883 Y56.29 E17.39966
G1 X72.22 Y56.207 E17.41698
G1 X73.544 Y55.968 E17.4841
G1 X73.77 Y55.942 E17.49545
G1 X74.604 Y55.88 E17.53717
G1 X74.885 Y55.87 E17.5512
G1 X76.014 Y55.89 E17.60754
G1 X76.253 Y55.907 E17.61949
G1 X77.235 Y56.023 E17.66882
G1 X77.44 Y56.057 E17.67919
G1 X78.33 Y56.244 E17.72456
G1 X78.647 Y56.325 E17.74089
G1 X78.991 Y56.419 E17.75868
G1 X79.35 Y56.527 E17.77738
G1 X79.937 Y56.714 E17.80812
G1 X147.229 Y79.01 E21.34481
G1 X147.726 Y79.182 E21.37105
G1 X148.052 Y79.301 E21.38836
G1 X148.848 Y79.606 E21.43089
G1 X149.181 Y79.74 E21.4488
G1 X149.588 Y79.912 E21.47084
G1 X150.527 Y80.364 E21.52283
G1 X151.016 Y80.63 E21.55061
G1 X151.261 Y80.768 E21.56463
G1 X151.743 Y81.047 E21.59242
G1 X152.55 Y81.564 E21.64023
G1 X152.867 Y81.788 E21.6596
G1 X153.199 Y82.033 E21.68019
G1 X153.769 Y82.47 E21.71602
G1 X154.188 Y82.808 E21.74288
G1 X154.495 Y83.077 E21.76324
G1 X154.711 Y83.274 E21.77783
G1 X155.031 Y83.578 E21.79985
G1 X155.61 Y84.152 E21.84052
G1 X156.279 Y84.88 E21.88985
G1 X156.524 Y85.173 E21.9089
G1 X156.778 Y85.49 E21.92917
G1 X157.231 Y86.076 E21.96612
G1 X157.738 Y86.79 E22.00981
G1 X157.895 Y87.032 E22.0242
G1 X158.098 Y87.357 E22.04332
G1 X158.228 Y87.574 E22.05594
G1 X158.603 Y88.219 E22.09316
G1 X159.081 Y89.143 E22.14506
G1 X159.266 Y89.548 E22.16728
G1 X159.376 Y89.798 E22.1809
G1 X159.632 Y90.399 E22.21349
G1 X159.969 Y91.302 E22.26158
G1 X160.075 Y91.631 E22.27883
G1 X160.192 Y92.018 E22.299
G1 X160.403 Y92.77 E22.33796
G1 X160.617 Y93.689 E22.38504
G1 X160.67 Y93.973 E22.39945
G1 X160.734 Y94.351 E22.41858
G1 X160.76 Y94.517 E22.42696
G1 X160.858 Y95.194 E22.46109
G1 X160.957 Y96.254 E22.5142
G1 X160.98 Y96.785 E22.54072
G1 X160.988 Y97.049 E22.5539
G1 X160.999 Y97.648 E22.58379
G1 X160.978 Y98.543 E22.62845
G1 X160.96 Y98.815 E22.64205
G1 X160.929 Y99.189 E22.66077
G1 X160.903 Y99.452 E22.67396
G1 X160.822 Y100.162 E22.70961
G1 X160.682 Y101.051 E22.75451
G1 X160.615 Y101.384 E22.77145
G1 X160.517 Y101.822 E22.79385
G1 X160.331 Y102.579 E22.83274
G1 X160.078 Y103.447 E22.87784
G1 X159.964 Y103.784 E22.89559
G1 X159.864 Y104.067 E22.91057
G1 X159.776 Y104.3 E22.92299
G1 X159.525 Y104.945 E22.95752
G1 X159.172 Y105.753 E23.00151
G1 X159.024 Y106.056 E23.01834
G1 X158.809 Y106.471 E23.04165
G1 X158.434 Y107.16 E23.08079
G1 X157.997 Y107.892 E23.12332
G1 X157.831 Y108.146 E23.13846
G1 X157.588 Y108.503 E23.16001
G1 X157.466 Y108.676 E23.17057
G1 X157.062 Y109.233 E23.2049
G1 X156.484 Y109.96 E23.25123
G1 X156.233 Y110.249 E23.27033
G1 X155.948 Y110.563 E23.29149
G1 X155.547 Y110.989 E23.32067
G1 X155.293 Y111.251 E23.33888
G1 X154.572 Y111.966 E23.38954
G1 X96.713 Y167.477 E27.38983
G1 X96.204 Y167.952 E27.42456
G1 X95.504 Y168.55 E27.4705
G1 X94.755 Y169.085 E27.51642
G1 X93.963 Y169.554 E27.56234
G1 X93.132 Y169.951 E27.60829
G1 X92.271 Y170.276 E27.6542
G1 X91.384 Y170.524 E27.70015
G1 X90.479 Y170.694 E27.74609
G1 X89.563 Y170.785 E27.79201
G1 X88.643 Y170.797 E27.83792
G1 X87.725 Y170.728 E27.88384
G1 X86.816 Y170.58 E27.92979
G1 X85.923 Y170.354 E27.97575
G1 X85.054 Y170.051 E28.02166
G1 X84.214 Y169.674 E28.0676
G1 X83.41 Y169.226 E28.11352
G1 X82.648 Y168.709 E28.15946
G1 X81.934 Y168.128 E28.20538
G1 X81.273 Y167.488 E28.25128
G1 X80.669 Y166.792 E28.29726
G1 X80.129 Y166.047 E28.34317
G1 X79.655 Y165.257 E28.38913
G1 X79.252 Y164.43 E28.43503
G1 X78.921 Y163.57 E28.481
G1 X78.667 Y162.686 E28.52689
G1 X78.471 Y161.651 E28.57944
G1 X78.334 Y160.658 E28.62945
G1 X78.307 Y160.44 E28.64041
G1 X76.65 Y146.27 E29.35217
G1 X76.307 Y143.654 E29.4838
G1 X75.908 Y141.169 E29.60937
G1 X75.441 Y138.702 E29.73463
G1 X74.89 Y136.187 E29.86308
G1 X74.295 Y133.788 E29.98639
G1 X73.605 Y131.316 E30.11444
G1 X72.856 Y128.897 E30.24077
G1 X72.051 Y126.535 E30.36527
G1 X71.15 Y124.12 E30.49387
G1 X70.215 Y121.814 E30.61801
G1 X69.188 Y119.475 E30.74546
G1 X68.111 Y117.194 E30.87131
G1 X66.973 Y114.955 E30.99661
G1 X65.761 Y112.727 E31.12315
G1 X64.486 Y110.535 E31.24966
G1 X63.152 Y108.382 E31.37602
G1 X61.786 Y106.311 E31.4998
G1 X60.974 Y105.167 E31.56979
G1 X60.812 Y104.917 E31.58465
G1 X60.089 Y103.883 E31.64759
G1 X59.897 Y103.599 E31.6647
G1 X59.775 Y103.412 E31.67584
G1 X59.306 Y102.62 E31.72176
G1 X59.05 Y102.108 E31.75032
G1 X59.007 Y102.016 E31.75538
G1 X58.81 Y101.568 E31.7798
G1 X58.716 Y101.34 E31.7921
G1 X58.403 Y100.475 E31.838
G1 X58.232 Y99.871 E31.86931
G1 X58.204 Y99.759 E31.87507
G1 X58.087 Y99.23 E31.9021
G1 X58.034 Y98.96 E31.91583
G1 X57.935 Y98.37 E31.94568
G1 X57.877 Y97.933 E31.96767
G1 X57.83 Y97.531 E31.98786
G1 X57.618 Y95.521 E32.0887
G1 X57.532 Y94.577 E32.13599
G1 X57.497 Y94.066 E32.16154
G1 X57.488 Y93.368 E32.19637
G1 X57.496 Y92.956 E32.21693
G1 X57.569 Y91.903 E32.26959
G1 X57.611 Y91.552 E32.28723
G1 X57.781 Y90.547 E32.33808
G1 X57.87 Y90.14 E32.35886
G1 X58.034 Y89.487 E32.39245
G1 X58.109 Y89.225 E32.40605
G1 X58.171 Y89.018 E32.41683
G1 X58.498 Y87.958 E32.47217
G1 X59.167 Y85.545 E32.5971
G1 X59.787 Y83.036 E32.72604
G1 X60.318 Y80.599 E32.85047
G1 X60.785 Y78.117 E32.97647
G1 X61.183 Y75.604 E33.10341
G1 X61.507 Y73.116 E33.22859
G1 X61.76 Y70.618 E33.35385
G1 X61.909 Y68.535 E33.45804
G1 X61.953 Y68.032 E33.48323
G1 X62.062 Y67.186 E33.52578
G1 X62.093 Y67.003 E33.53504
G1 X62.292 Y66.079 E33.5822
G1 X62.374 Y65.767 E33.59829
G1 X62.581 Y65.076 E33.63428
G1 X62.674 Y64.8 E33.64881
G1 X62.983 Y63.994 E33.69188
G1 X63.082 Y63.764 E33.70437
G1 X63.539 Y62.831 E33.7562
G1 X63.666 Y62.601 E33.76931
G1 X64.07 Y61.929 E33.80843
G1 X64.134 Y61.831 E33.81427
G1 X64.556 Y61.231 E33.85086
G1 X64.755 Y60.968 E33.86732
G1 X65.525 Y60.061 E33.92667
G0 F6000 X65.815 Y60.336
G1 F600 X65.892 Y60.255 E33.93225
G1 X66.463 Y59.7 E33.97198
G1 X66.692 Y59.494 E33.98734
G1 X67.494 Y58.843 E34.03888
G1 X67.825 Y58.601 E34.05933
G1 X68.723 Y58.014 E34.11286
G1 X68.785 Y57.978 E34.11644
G1 X69.633 Y57.538 E34.1641
G1 X70.01 Y57.364 E34.18481
G1 X71.167 Y56.913 E34.24677
G1 X71.301 Y56.87 E34.25379
G1 X71.979 Y56.678 E34.28894
G1 X72.316 Y56.595 E34.30626
G1 X73.589 Y56.366 E34.37079
G1 X73.815 Y56.34 E34.38214
G1 X74.618 Y56.279 E34.42232
G1 X74.899 Y56.269 E34.43634
G1 X75.986 Y56.289 E34.49058
G1 X76.225 Y56.306 E34.50254
G1 X77.17 Y56.417 E34.55001
G1 X77.375 Y56.451 E34.56038
G1 X78.231 Y56.632 E34.60403
G1 X78.548 Y56.713 E34.62035
G1 X78.879 Y56.803 E34.63746
G1 X79.229 Y56.908 E34.65569
G1 X79.811 Y57.094 E34.68618
G1 X147.098 Y79.388 E38.2226
G1 X147.595 Y79.56 E38.24884
G1 X147.909 Y79.674 E38.2655
G1 X148.705 Y79.979 E38.30803
G1 X149.026 Y80.109 E38.32531
G1 X149.433 Y80.281 E38.34735
G1 X150.336 Y80.716 E38.39736
G1 X150.825 Y80.982 E38.42513
G1 X151.061 Y81.114 E38.43862
G1 X151.543 Y81.393 E38.46641
G1 X152.319 Y81.891 E38.51241
G1 X152.636 Y82.115 E38.53177
G1 X152.956 Y82.35 E38.55158
G1 X153.526 Y82.787 E38.58742
G1 X153.93 Y83.113 E38.61331
G1 X154.225 Y83.373 E38.63293
G1 X154.441 Y83.57 E38.64752
G1 X154.749 Y83.862 E38.66869
G1 X155.328 Y84.436 E38.70937
G1 X155.972 Y85.137 E38.75686
G1 X156.217 Y85.43 E38.77591
G1 X156.462 Y85.735 E38.79543
G1 X156.915 Y86.321 E38.83238
G1 X157.402 Y87.008 E38.8744
G1 X157.559 Y87.25 E38.88879
G1 X157.757 Y87.566 E38.90739
G1 X157.882 Y87.775 E38.91954
G1 X158.257 Y88.42 E38.95676
G1 X158.717 Y89.309 E39.0067
G1 X158.902 Y89.714 E39.02892
G1 X159.008 Y89.955 E39.04205
G1 X159.264 Y90.556 E39.07464
G1 X159.589 Y91.425 E39.12093
G1 X159.695 Y91.754 E39.13817
G1 X159.807 Y92.126 E39.15756
G1 X160.018 Y92.878 E39.19652
G1 X160.224 Y93.763 E39.24186
G1 X160.277 Y94.047 E39.25627
G1 X160.339 Y94.415 E39.27489
G1 X160.364 Y94.575 E39.28297
G1 X160.462 Y95.252 E39.31709
G1 X160.557 Y96.272 E39.3682
G1 X160.58 Y96.803 E39.39472
G1 X160.588 Y97.057 E39.4074
G1 X160.599 Y97.656 E39.43729
G1 X160.579 Y98.517 E39.48025
G1 X160.561 Y98.789 E39.49385
G1 X160.531 Y99.153 E39.51208
G1 X160.505 Y99.406 E39.52476
G1 X160.424 Y100.116 E39.56042
G1 X160.29 Y100.972 E39.60364
G1 X160.223 Y101.305 E39.62059
G1 X160.128 Y101.727 E39.64217
G1 X159.942 Y102.484 E39.68106
G1 X159.699 Y103.318 E39.7244
G1 X159.513 Y103.862 E39.75308
G1 X159.404 Y104.155 E39.76868
G1 X159.153 Y104.8 E39.80321
G1 X158.812 Y105.578 E39.84559
G1 X158.664 Y105.881 E39.86241
G1 X158.458 Y106.28 E39.88481
G1 X158.083 Y106.969 E39.92395
G1 X157.662 Y107.673 E39.96487
G1 X157.496 Y107.927 E39.98001
G1 X157.333 Y108.17 E39.99461
G1 X157.142 Y108.441 E40.01115
G1 X156.738 Y108.998 E40.04548
G1 X156.182 Y109.697 E40.09004
G1 X155.931 Y109.986 E40.10914
G1 X155.657 Y110.289 E40.12952
G1 X155.256 Y110.715 E40.15871
G1 X155.011 Y110.967 E40.17624
G1 X154.17 Y111.799 E40.23526
G1 X96.44 Y167.184 E44.22655
G1 X95.931 Y167.659 E44.26129
G1 X95.244 Y168.246 E44.30637
G1 X94.508 Y168.769 E44.35142
G1 X93.729 Y169.225 E44.39645
G1 X92.912 Y169.61 E44.44151
G1 X92.064 Y169.922 E44.48659
G1 X91.192 Y170.157 E44.53165
G1 X90.303 Y170.315 E44.57669
G1 X89.403 Y170.393 E44.62176
G1 X88.5 Y170.391 E44.66681
G1 X87.601 Y170.309 E44.71185
G1 X86.712 Y170.149 E44.75692
