;FLAVOR:Marlin
;TIME:3088
;Filament used: 1.64952m
;Layer height: 0.2
;MINX:79.135
;MINY:123.384
;MINZ:0.2
;MAXX:137.692
;MAXY:181.966
;MAXZ:20
;Generated with Cura_SteamEngine 4.8.0
M140 S70
M105
M190 S70
M104 S210
M105
M109 S210
M82 ;absolute extrusion mode
; Ender 3 Custom Start G-code
G92 E0 ; Reset Extruder
G28 ; Home all axes
G1 Z2.0 F3000 ; Move Z Axis up little to prevent scratching of Heat Bed
G1 X0.1 Y20 Z0.3 F5000.0 ; Move to start position
G1 X0.1 Y200.0 Z0.3 F1500.0 E15 ; Draw the first line
G1 X0.4 Y200.0 Z0.3 F5000.0 ; Move to side a little
G1 X0.4 Y20 Z0.3 F1500.0 E30 ; Draw the second line
G92 E0 ; Reset Extruder
G1 Z2.0 F3000 ; Move Z Axis up little to prevent scratching of Heat Bed
G1 X5 Y20 Z0.3 F5000.0 ; Move over to prevent blob squish
G92 E0
G92 E0
G1 F2700 E-5
;LAYER_COUNT:100
;LAYER:0
M107
G0 F6000 X89.594 Y129.813 Z0.2
;TYPE:SKIRT
G1 F2700 E0
G1 F600 X90.367 Y129.281 E0.03121
G1 X90.858 Y128.991 E0.05018
G1 X91.221 Y128.789 E0.06399
G1 X91.438 Y128.672 E0.07219
G1 X92.055 Y128.346 E0.0954
G1 X94.257 Y127.107 E0.17944
G1 X96.129 Y125.988 E0.25198
G1 X96.555 Y125.727 E0.2686
G1 X97.482 Y125.219 E0.30375
G1 X97.636 Y125.144 E0.30945
G1 X98.496 Y124.77 E0.34064
G1 X98.96 Y124.603 E0.35704
G1 X99.196 Y124.524 E0.36532
G1 X99.728 Y124.357 E0.38387
G1 X99.985 Y124.281 E0.39278
G1 X100.403 Y124.163 E0.40723
G1 X100.748 Y124.071 E0.4191
G1 X101.867 Y123.794 E0.45744
G1 X102.226 Y123.712 E0.46969
G1 X102.65 Y123.622 E0.48411
G1 X103.575 Y123.466 E0.51531
G1 X104.51 Y123.39 E0.54651
G1 X105.121 Y123.384 E0.56683
G1 X105.708 Y123.394 E0.58636
G1 X105.932 Y123.4 E0.59381
G1 X106.615 Y123.426 E0.61655
G1 X109.097 Y123.449 E0.6991
G1 X110.337 Y123.422 E0.74035
G1 X111.709 Y123.407 E0.78599
G1 X112.464 Y123.424 E0.81111
G1 X112.637 Y123.434 E0.81687
G1 X113.57 Y123.528 E0.84806
G1 X114.362 Y123.672 E0.87483
G1 X115.063 Y123.826 E0.8987
G1 X115.379 Y123.9 E0.9095
G1 X115.989 Y124.053 E0.93042
G1 X116.346 Y124.15 E0.94272
G1 X116.712 Y124.255 E0.95538
G1 X116.972 Y124.333 E0.96441
G1 X117.438 Y124.48 E0.98066
G1 X118.073 Y124.691 E1.00292
G1 X118.949 Y125.025 E1.0341
G1 X119.794 Y125.431 E1.06528
G1 X120.31 Y125.726 E1.08505
G1 X121.593 Y126.505 E1.13497
G1 X121.695 Y126.569 E1.13898
G1 X123.852 Y127.837 E1.2222
G1 X125.608 Y128.806 E1.28891
G1 X125.975 Y129.015 E1.30295
G1 X126.768 Y129.517 E1.33417
G1 X127.239 Y129.863 E1.35361
G1 X127.436 Y130.016 E1.3619
G1 X128.123 Y130.596 E1.39181
G1 X128.532 Y130.971 E1.41026
G1 X128.722 Y131.149 E1.41892
G1 X129.24 Y131.647 E1.44282
G1 X129.473 Y131.879 E1.45376
G1 X129.788 Y132.204 E1.46881
G1 X130.061 Y132.496 E1.48211
G1 X130.345 Y132.808 E1.49614
G1 X130.781 Y133.299 E1.51798
G1 X131.373 Y134.026 E1.54916
G1 X131.902 Y134.801 E1.58037
G1 X132.2 Y135.312 E1.60005
G1 X132.826 Y136.453 E1.64333
G1 X134.122 Y138.739 E1.73073
G1 X135.184 Y140.495 E1.79899
G1 X135.368 Y140.811 E1.81115
G1 X135.649 Y141.324 E1.83061
G1 X135.747 Y141.515 E1.83775
G1 X136.139 Y142.367 E1.86894
G1 X136.369 Y142.98 E1.89072
G1 X136.478 Y143.299 E1.90193
G1 X136.584 Y143.625 E1.91333
G1 X136.738 Y144.13 E1.93089
G1 X136.919 Y144.744 E1.95218
G1 X137.017 Y145.098 E1.9644
G1 X137.076 Y145.326 E1.97223
G1 X137.142 Y145.596 E1.98147
G1 X137.268 Y146.139 E2.00001
G1 X137.318 Y146.364 E2.00768
G1 X137.464 Y147.06 E2.03133
G1 X137.614 Y147.986 E2.06253
G1 X137.684 Y148.921 E2.09372
G1 X137.688 Y149.496 E2.11284
G1 X137.662 Y150.832 E2.15729
G1 X137.648 Y153.449 E2.24433
G1 X137.683 Y155.285 E2.30541
G1 X137.692 Y155.602 E2.31596
G1 X137.646 Y156.959 E2.36112
G1 X137.623 Y157.2 E2.36917
G1 X137.433 Y158.439 E2.41086
G1 X137.312 Y159.009 E2.43024
G1 X137.245 Y159.306 E2.44037
G1 X137.063 Y160.06 E2.46616
G1 X136.971 Y160.418 E2.47846
G1 X136.882 Y160.733 E2.48935
G1 X136.715 Y161.292 E2.50875
G1 X136.635 Y161.548 E2.51767
G1 X136.413 Y162.23 E2.54153
G1 X136.085 Y163.108 E2.5727
G1 X135.683 Y163.956 E2.60391
G1 X135.387 Y164.481 E2.62396
G1 X134.784 Y165.486 E2.66294
G1 X134.699 Y165.642 E2.66885
G1 X133.716 Y167.303 E2.73304
G1 X132.376 Y169.728 E2.82519
G1 X132.291 Y169.886 E2.83116
G1 X131.81 Y170.691 E2.86235
G1 X131.422 Y171.244 E2.88482
G1 X131.291 Y171.419 E2.89209
G1 X130.655 Y172.193 E2.92541
G1 X130.27 Y172.62 E2.94453
G1 X130.101 Y172.802 E2.95279
G1 X129.601 Y173.332 E2.97703
G1 X129.318 Y173.623 E2.99053
G1 X129.102 Y173.835 E3.00059
G1 X128.749 Y174.171 E3.0168
G1 X128.485 Y174.417 E3.02881
G1 X127.985 Y174.871 E3.05127
G1 X127.264 Y175.471 E3.08247
G1 X126.495 Y176.008 E3.11366
G1 X125.944 Y176.338 E3.13502
G1 X124.988 Y176.872 E3.17144
G1 X124.802 Y176.972 E3.17847
G1 X122.65 Y178.211 E3.26106
G1 X121.769 Y178.757 E3.29553
G1 X121.639 Y178.83 E3.30049
G1 X120.594 Y179.462 E3.34111
G1 X119.998 Y179.797 E3.36385
G1 X119.646 Y179.981 E3.37706
G1 X118.797 Y180.38 E3.40826
G1 X118.169 Y180.621 E3.43063
G1 X117.882 Y180.721 E3.44074
G1 X117.56 Y180.827 E3.45202
G1 X117.073 Y180.979 E3.46899
G1 X116.489 Y181.153 E3.48925
G1 X116.209 Y181.232 E3.49893
G1 X115.886 Y181.319 E3.51006
G1 X115.601 Y181.392 E3.51984
G1 X115.077 Y181.517 E3.53776
G1 X114.382 Y181.671 E3.56144
G1 X113.458 Y181.834 E3.59264
G1 X112.524 Y181.919 E3.62384
G1 X111.912 Y181.931 E3.6442
G1 X111.061 Y181.924 E3.6725
G1 X109.916 Y181.899 E3.71059
G1 X107.376 Y181.913 E3.79507
G1 X106.489 Y181.943 E3.82459
G1 X105.413 Y181.966 E3.86039
G1 X104.776 Y181.962 E3.88158
G1 X104.53 Y181.953 E3.88976
G1 X103.595 Y181.878 E3.92096
G1 X102.708 Y181.733 E3.95086
G1 X102.117 Y181.611 E3.97093
G1 X101.761 Y181.531 E3.98306
G1 X101.073 Y181.365 E4.0066
G1 X100.795 Y181.294 E4.01614
G1 X100.52 Y181.22 E4.02562
G1 X100.239 Y181.141 E4.03533
G1 X99.79 Y181.005 E4.05093
G1 X99.109 Y180.789 E4.07469
G1 X98.228 Y180.468 E4.10588
G1 X97.378 Y180.073 E4.13705
G1 X96.848 Y179.78 E4.15719
G1 X96.424 Y179.53 E4.17357
G1 X96.237 Y179.417 E4.18083
G1 X95.664 Y179.064 E4.20322
G1 X93.482 Y177.801 E4.28707
G1 X92.336 Y177.18 E4.33042
G1 X92.185 Y177.089 E4.33629
G1 X91.202 Y176.556 E4.37348
G1 X90.639 Y176.228 E4.39515
G1 X90.377 Y176.065 E4.40541
G1 X89.603 Y175.536 E4.4366
G1 X88.836 Y174.907 E4.46959
G1 X88.373 Y174.491 E4.49029
G1 X88.144 Y174.28 E4.50065
G1 X87.919 Y174.066 E4.51097
G1 X87.643 Y173.794 E4.52386
G1 X86.866 Y173.001 E4.56079
G1 X86.604 Y172.724 E4.57347
G1 X86.306 Y172.398 E4.58816
G1 X85.703 Y171.679 E4.61937
G1 X85.164 Y170.912 E4.65055
G1 X84.846 Y170.384 E4.67105
G1 X84.54 Y169.84 E4.69181
G1 X83.732 Y168.365 E4.74775
G1 X82.42 Y166.12 E4.83423
G1 X81.735 Y165.004 E4.87779
G1 X81.503 Y164.631 E4.8924
G1 X81.043 Y163.814 E4.92358
G1 X80.705 Y163.086 E4.95028
G1 X80.587 Y162.805 E4.96041
G1 X80.248 Y161.885 E4.99302
G1 X80.126 Y161.502 E5.00639
G1 X80.043 Y161.229 E5.01588
G1 X79.933 Y160.85 E5.02901
G1 X79.838 Y160.503 E5.04098
G1 X79.574 Y159.468 E5.0765
G1 X79.488 Y159.103 E5.08897
G1 X79.394 Y158.674 E5.10358
G1 X79.232 Y157.751 E5.13475
G1 X79.15 Y156.816 E5.16597
G1 X79.14 Y156.205 E5.18629
G1 X79.147 Y155.57 E5.20741
G1 X79.19 Y153.809 E5.266
G1 X79.181 Y151.24 E5.35145
G1 X79.147 Y149.913 E5.3956
G1 X79.135 Y149.533 E5.40824
G1 X79.177 Y148.168 E5.45366
G1 X79.198 Y147.942 E5.46121
G1 X79.406 Y146.607 E5.50615
G1 X79.517 Y146.1 E5.52341
G1 X79.599 Y145.752 E5.53531
G1 X79.696 Y145.369 E5.54845
G1 X79.78 Y145.055 E5.55926
G1 X80.063 Y144.062 E5.5936
G1 X80.167 Y143.72 E5.60549
G1 X80.3 Y143.305 E5.61998
G1 X80.54 Y142.631 E5.64378
G1 X80.919 Y141.773 E5.67498
G1 X81.356 Y140.972 E5.70533
G1 X81.734 Y140.344 E5.7297
G1 X82.5 Y139.1 E5.7783
G1 X84.343 Y135.859 E5.9023
G1 X84.698 Y135.207 E5.92699
G1 X85.307 Y134.217 E5.96565
G1 X85.367 Y134.13 E5.96917
G1 X85.932 Y133.381 E6.00037
G1 X86.302 Y132.954 E6.01916
G1 X86.78 Y132.431 E6.04273
G1 X87.002 Y132.195 E6.05351
G1 X87.193 Y131.998 E6.06263
G1 X87.465 Y131.728 E6.07538
G1 X88.256 Y130.967 E6.11189
G1 X88.544 Y130.699 E6.12497
G1 X88.869 Y130.408 E6.13948
G1 X89.594 Y129.813 E6.17068
G0 F6000 X89.848 Y130.122
G1 F600 X90.608 Y129.602 E6.2013
G1 X91.053 Y129.341 E6.21846
G1 X91.624 Y129.025 E6.24017
G1 X92.287 Y128.675 E6.2651
G1 X94.481 Y127.44 E6.34884
G1 X96.24 Y126.388 E6.41701
G1 X96.764 Y126.068 E6.43743
G1 X97.657 Y125.579 E6.4713
G1 X97.811 Y125.504 E6.47699
G1 X99.087 Y124.982 E6.52285
G1 X99.561 Y124.827 E6.53943
G1 X99.846 Y124.739 E6.54936
G1 X100.093 Y124.666 E6.55792
G1 X100.511 Y124.548 E6.57237
G1 X100.844 Y124.46 E6.58382
G1 X101.963 Y124.183 E6.62217
G1 X102.309 Y124.103 E6.63398
G1 X102.733 Y124.013 E6.64839
G1 X103.641 Y123.861 E6.67901
G1 X104.559 Y123.789 E6.70964
G1 X105.115 Y123.784 E6.72813
G1 X105.917 Y123.799 E6.75481
G1 X106.597 Y123.824 E6.77745
G1 X109.133 Y123.849 E6.8618
G1 X110.341 Y123.822 E6.90199
G1 X111.713 Y123.807 E6.94762
G1 X112.441 Y123.824 E6.97184
G1 X112.614 Y123.834 E6.9776
G1 X113.53 Y123.927 E7.00823
G1 X114.276 Y124.063 E7.03345
G1 X114.977 Y124.217 E7.05732
G1 X115.282 Y124.288 E7.06774
G1 X115.892 Y124.441 E7.08865
G1 X116.236 Y124.534 E7.1005
G1 X116.602 Y124.639 E7.11317
G1 X116.853 Y124.714 E7.12188
G1 X117.312 Y124.86 E7.1379
G1 X117.947 Y125.071 E7.16016
G1 X118.807 Y125.399 E7.19077
G1 X119.635 Y125.8 E7.22137
G1 X120.103 Y126.068 E7.23931
G1 X121.38 Y126.844 E7.28901
G1 X121.485 Y126.91 E7.29313
G1 X123.65 Y128.182 E7.37665
G1 X125.576 Y129.247 E7.44985
G1 X125.776 Y129.362 E7.45752
G1 X126.553 Y129.855 E7.48813
G1 X126.994 Y130.179 E7.50633
G1 X127.191 Y130.332 E7.51463
G1 X127.853 Y130.891 E7.54344
G1 X128.262 Y131.266 E7.5619
G1 X128.444 Y131.438 E7.57023
G1 X128.962 Y131.936 E7.59413
G1 X129.188 Y132.159 E7.60469
G1 X129.496 Y132.478 E7.61944
G1 X129.766 Y132.766 E7.63257
G1 X130.046 Y133.074 E7.64641
G1 X130.482 Y133.565 E7.66825
G1 X131.063 Y134.279 E7.69887
G1 X131.58 Y135.041 E7.72949
G1 X131.849 Y135.505 E7.74733
G1 X132.449 Y136.599 E7.78883
G1 X133.775 Y138.938 E7.87826
G1 X134.745 Y140.539 E7.94052
G1 X135.022 Y141.012 E7.95875
G1 X135.293 Y141.507 E7.97752
G1 X135.391 Y141.698 E7.98466
G1 X135.775 Y142.535 E8.01529
G1 X135.991 Y143.11 E8.03572
G1 X136.1 Y143.429 E8.04693
G1 X136.201 Y143.742 E8.05787
G1 X136.354 Y144.243 E8.07529
G1 X136.535 Y144.857 E8.09658
G1 X136.63 Y145.198 E8.10836
G1 X136.689 Y145.426 E8.11619
G1 X136.753 Y145.686 E8.1251
G1 X136.879 Y146.229 E8.14364
G1 X136.927 Y146.446 E8.15103
G1 X137.072 Y147.14 E8.17461
G1 X137.219 Y148.049 E8.20524
G1 X137.285 Y148.968 E8.23588
G1 X137.288 Y149.488 E8.25318
G1 X137.262 Y150.821 E8.29752
G1 X137.248 Y153.455 E8.38513
G1 X137.283 Y155.296 E8.44637
G1 X137.292 Y155.613 E8.45692
G1 X137.248 Y156.921 E8.50045
G1 X137.225 Y157.162 E8.5085
G1 X137.042 Y158.356 E8.54868
G1 X136.921 Y158.926 E8.56806
G1 X136.856 Y159.212 E8.57781
G1 X136.674 Y159.966 E8.60361
G1 X136.584 Y160.315 E8.6156
G1 X136.498 Y160.618 E8.62607
G1 X136.331 Y161.177 E8.64548
G1 X136.254 Y161.424 E8.65408
G1 X136.032 Y162.106 E8.67794
G1 X135.71 Y162.968 E8.70854
G1 X135.313 Y163.799 E8.73918
G1 X135.044 Y164.275 E8.75736
G1 X134.395 Y165.358 E8.79935
G1 X134.354 Y165.438 E8.80234
G1 X133.387 Y167.072 E8.8655
G1 X132.026 Y169.535 E8.95909
G1 X131.939 Y169.696 E8.96518
G1 X131.466 Y170.486 E8.9958
G1 X131.102 Y171.004 E9.01686
G1 X130.971 Y171.179 E9.02413
G1 X130.357 Y171.925 E9.05626
G1 X129.972 Y172.352 E9.07539
G1 X129.81 Y172.528 E9.08334
G1 X129.31 Y173.058 E9.10758
G1 X129.034 Y173.342 E9.12075
G1 X128.826 Y173.546 E9.13044
G1 X128.477 Y173.879 E9.14648
G1 X128.216 Y174.121 E9.15832
G1 X127.716 Y174.575 E9.18078
G1 X127.008 Y175.163 E9.21139
G1 X126.279 Y175.671 E9.24095
G1 X125.748 Y175.989 E9.26153
G1 X124.798 Y176.52 E9.29773
G1 X124.607 Y176.623 E9.30495
G1 X122.441 Y177.87 E9.38808
G1 X121.558 Y178.417 E9.42262
G1 X121.44 Y178.483 E9.42712
G1 X120.387 Y179.12 E9.46805
G1 X119.812 Y179.443 E9.48999
G1 X119.46 Y179.627 E9.5032
G1 X118.627 Y180.018 E9.53381
G1 X118.038 Y180.243 E9.55478
G1 X117.751 Y180.343 E9.56488
G1 X117.44 Y180.446 E9.57578
G1 X116.959 Y180.596 E9.59254
G1 X116.375 Y180.77 E9.61281
G1 X116.105 Y180.846 E9.62214
G1 X115.782 Y180.933 E9.63326
G1 X115.507 Y181.003 E9.6427
G1 X114.99 Y181.126 E9.66038
G1 X114.295 Y181.28 E9.68405
G1 X113.389 Y181.44 E9.71465
G1 X112.471 Y181.521 E9.7453
G1 X111.915 Y181.531 E9.7638
G1 X111.064 Y181.524 E9.7921
G1 X109.923 Y181.499 E9.83006
G1 X107.359 Y181.513 E9.91534
G1 X106.481 Y181.544 E9.94456
G1 X105.405 Y181.567 E9.98036
G1 X104.79 Y181.562 E10.00082
G1 X104.544 Y181.553 E10.009
G1 X103.627 Y181.479 E10.0396
G1 X102.789 Y181.341 E10.06785
G1 X102.198 Y181.219 E10.08792
G1 X101.855 Y181.142 E10.09961
G1 X101.167 Y180.976 E10.12315
G1 X100.899 Y180.908 E10.13235
G1 X100.624 Y180.834 E10.14182
G1 X100.353 Y180.757 E10.15119
G1 X99.911 Y180.624 E10.16654
G1 X99.23 Y180.408 E10.19031
G1 X98.366 Y180.092 E10.2209
G1 X97.532 Y179.702 E10.25153
G1 X97.051 Y179.435 E10.26982
G1 X96.627 Y179.185 E10.28619
G1 X95.88 Y178.726 E10.31536
G1 X93.667 Y177.446 E10.40039
G1 X92.527 Y176.828 E10.44352
G1 X92.379 Y176.739 E10.44926
G1 X91.393 Y176.204 E10.48657
G1 X90.851 Y175.888 E10.50744
G1 X90.589 Y175.725 E10.5177
G1 X89.829 Y175.206 E10.54831
G1 X89.104 Y174.61 E10.57953
G1 X88.641 Y174.194 E10.60023
G1 X88.42 Y173.99 E10.61023
G1 X88.195 Y173.776 E10.62056
G1 X87.929 Y173.514 E10.63298
G1 X87.152 Y172.721 E10.6699
G1 X86.899 Y172.454 E10.68214
G1 X86.601 Y172.128 E10.69683
G1 X86.01 Y171.422 E10.72745
G1 X85.483 Y170.667 E10.75807
G1 X85.195 Y170.187 E10.77669
G1 X84.891 Y169.648 E10.79727
G1 X84.071 Y168.15 E10.85407
G1 X82.78 Y165.942 E10.93914
G1 X82.076 Y164.795 E10.98391
G1 X81.843 Y164.42 E10.99859
G1 X81.391 Y163.618 E11.02921
G1 X81.074 Y162.931 E11.05437
G1 X80.956 Y162.65 E11.06451
G1 X80.629 Y161.763 E11.09595
G1 X80.507 Y161.38 E11.10932
G1 X80.427 Y161.118 E11.11843
G1 X80.317 Y160.739 E11.13156
G1 X80.226 Y160.404 E11.14311
G1 X79.962 Y159.369 E11.17863
G1 X79.879 Y159.018 E11.19063
G1 X79.785 Y158.589 E11.20524
G1 X79.627 Y157.682 E11.23586
G1 X79.548 Y156.764 E11.2665
G1 X79.54 Y156.209 E11.28496
G1 X79.547 Y155.58 E11.30589
G1 X79.59 Y153.818 E11.36451
G1 X79.581 Y151.275 E11.44909
G1 X79.545 Y149.834 E11.49703
G1 X79.535 Y149.521 E11.50745
G1 X79.575 Y148.205 E11.55124
G1 X79.596 Y147.979 E11.55879
G1 X79.796 Y146.693 E11.60207
G1 X79.907 Y146.186 E11.61934
G1 X79.986 Y145.851 E11.63078
G1 X80.083 Y145.468 E11.64392
G1 X80.165 Y145.165 E11.65437
G1 X80.448 Y144.172 E11.68871
G1 X80.548 Y143.842 E11.70018
G1 X80.681 Y143.427 E11.71467
G1 X80.913 Y142.776 E11.73766
G1 X81.285 Y141.934 E11.76827
G1 X81.699 Y141.178 E11.79694
G1 X82.075 Y140.554 E11.82117
G1 X82.843 Y139.306 E11.86991
G1 X84.696 Y136.05 E11.99452
G1 X85.05 Y135.398 E12.01919
G1 X85.636 Y134.444 E12.05643
G1 X85.696 Y134.357 E12.05994
G1 X86.251 Y133.623 E12.09055
G1 X86.598 Y133.224 E12.10814
G1 X87.076 Y132.701 E12.1317
G1 X87.29 Y132.473 E12.1421
G1 X87.481 Y132.276 E12.15123
G1 X87.742 Y132.016 E12.16348
G1 X88.533 Y131.255 E12.19999
G1 X88.811 Y130.997 E12.21261
G1 X89.136 Y130.706 E12.22711
G1 X89.848 Y130.122 E12.25774
G0 F6000 X90.102 Y130.432
G1 F600 X90.848 Y129.924 E12.28776
G1 X91.247 Y129.69 E12.30315
G1 X91.61 Y129.488 E12.31696
G1 X91.811 Y129.379 E12.32457
G1 X92.448 Y129.043 E12.34852
G1 X94.688 Y127.782 E12.43402
G1 X96.54 Y126.675 E12.50578
G1 X96.973 Y126.41 E12.52267
G1 X97.832 Y125.939 E12.55525
G1 X97.986 Y125.864 E12.56095
G1 X99.214 Y125.362 E12.60507
G1 X99.679 Y125.209 E12.62135
G1 X99.964 Y125.121 E12.63127
G1 X100.202 Y125.051 E12.63952
G1 X100.62 Y124.933 E12.65397
G1 X100.94 Y124.848 E12.66498
G1 X102.059 Y124.571 E12.70332
G1 X102.392 Y124.494 E12.71469
G1 X102.816 Y124.404 E12.72911
G1 X103.707 Y124.256 E12.75915
G1 X104.607 Y124.187 E12.78917
G1 X105.108 Y124.183 E12.80584
G1 X105.695 Y124.193 E12.82536
G1 X106.578 Y124.224 E12.85475
G1 X109.138 Y124.249 E12.9399
G1 X110.345 Y124.222 E12.98005
G1 X111.717 Y124.207 E13.02569
G1 X112.418 Y124.223 E13.04901
G1 X112.591 Y124.233 E13.05477
G1 X113.489 Y124.325 E13.0848
G1 X114.191 Y124.454 E13.10854
G1 X114.892 Y124.608 E13.13241
G1 X115.184 Y124.676 E13.14238
G1 X115.794 Y124.829 E13.1633
G1 X116.126 Y124.918 E13.17473
